;FLAVOR:Marlin
;TIME:59850
;Filament used: 52.6484m
;Layer height: 0.2
;MINX:15.2
;MINY:116.271
;MINZ:0.2
;MAXX:284.8
;MAXY:209.658
;MAXZ:50.8
;Generated with Cura_SteamEngine 4.12.0
M140 S50
M105
M190 S50
M104 S200
M105
M109 S200
M82 ;absolute extrusion mode
; Ender 3 Custom Start G-code
G92 E0 ; Reset Extruder
G28 ; Home all axes
G1 Z2.0 F3000 ; Move Z Axis up little to prevent scratching of Heat Bed
G1 X0.1 Y20 Z0.3 F5000.0 ; Move to start position
G1 X0.1 Y200.0 Z0.3 F1500.0 E15 ; Draw the first line
G1 X0.4 Y200.0 Z0.3 F5000.0 ; Move to side a little
G1 X0.4 Y20 Z0.3 F1500.0 E30 ; Draw the second line
G92 E0 ; Reset Extruder
G1 Z2.0 F3000 ; Move Z Axis up little to prevent scratching of Heat Bed
G1 X5 Y20 Z0.3 F5000.0 ; Move over to prevent blob squish
G92 E0
G92 E0
G1 F2700 E-5
;LAYER_COUNT:254
;LAYER:0
M107
G0 F6000 X21.738 Y116.394 Z0.2
;TYPE:SKIRT
G1 F2700 E0
G1 F1200 X22.522 Y116.294 E0.02629
G1 X23.117 Y116.271 E0.04609
G1 X276.883 Y116.271 E8.48638
G1 X277.672 Y116.311 E8.51266
G1 X278.452 Y116.43 E8.5389
G1 X279.217 Y116.628 E8.56518
G1 X279.957 Y116.902 E8.59143
G1 X280.666 Y117.25 E8.6177
G1 X281.337 Y117.668 E8.64399
G1 X281.961 Y118.151 E8.67024
G1 X282.398 Y118.556 E8.69005
G1 X282.515 Y118.673 E8.69556
G1 X283.045 Y119.259 E8.72184
G1 X283.512 Y119.895 E8.74808
G1 X283.913 Y120.575 E8.77434
G1 X284.243 Y121.293 E8.80062
G1 X284.498 Y122.04 E8.82687
G1 X284.677 Y122.809 E8.85313
G1 X284.777 Y123.593 E8.87942
G1 X284.8 Y124.188 E8.89923
G1 X284.8 Y201.741 E11.47865
G1 X284.76 Y202.53 E11.50493
G1 X284.641 Y203.31 E11.53117
G1 X284.443 Y204.075 E11.55745
G1 X284.169 Y204.815 E11.5837
G1 X283.821 Y205.524 E11.60997
G1 X283.403 Y206.195 E11.63626
G1 X282.92 Y206.819 E11.6625
G1 X282.515 Y207.256 E11.68232
G1 X282.398 Y207.373 E11.68782
G1 X281.812 Y207.903 E11.7141
G1 X281.176 Y208.37 E11.74035
G1 X280.496 Y208.771 E11.7666
G1 X279.778 Y209.101 E11.79289
G1 X279.031 Y209.356 E11.81914
G1 X278.262 Y209.535 E11.8454
G1 X277.478 Y209.635 E11.87169
G1 X276.883 Y209.658 E11.89149
G1 X23.117 Y209.658 E20.33178
G1 X22.328 Y209.618 E20.35806
G1 X21.548 Y209.499 E20.3843
G1 X20.783 Y209.301 E20.41058
G1 X20.043 Y209.027 E20.43683
G1 X19.334 Y208.679 E20.4631
G1 X18.663 Y208.261 E20.48939
G1 X18.039 Y207.778 E20.51564
G1 X17.602 Y207.373 E20.53546
G1 X17.485 Y207.256 E20.54096
G1 X16.955 Y206.67 E20.56724
G1 X16.488 Y206.034 E20.59348
G1 X16.087 Y205.354 E20.61974
G1 X15.757 Y204.636 E20.64602
G1 X15.502 Y203.889 E20.67227
G1 X15.323 Y203.12 E20.69853
G1 X15.223 Y202.336 E20.72482
G1 X15.2 Y201.741 E20.74463
G1 X15.2 Y124.188 E23.32405
G1 X15.24 Y123.399 E23.35033
G1 X15.359 Y122.619 E23.37657
G1 X15.557 Y121.854 E23.40285
G1 X15.831 Y121.114 E23.4291
G1 X16.179 Y120.405 E23.45537
G1 X16.597 Y119.734 E23.48166
G1 X17.08 Y119.11 E23.5079
G1 X17.485 Y118.673 E23.52772
G1 X17.602 Y118.556 E23.53322
G1 X18.188 Y118.026 E23.5595
G1 X18.824 Y117.559 E23.58575
G1 X19.504 Y117.158 E23.612
G1 X20.222 Y116.828 E23.63829
G1 X20.969 Y116.573 E23.66454
G1 X21.738 Y116.394 E23.6908
G0 F6000 X21.927 Y116.767
G1 F1200 X22.692 Y116.683 E23.7164
G1 X23.117 Y116.671 E23.73054
G1 X276.883 Y116.671 E32.17083
G1 X277.651 Y116.711 E32.19641
G1 X278.411 Y116.83 E32.22199
G1 X279.154 Y117.028 E32.24757
G1 X279.873 Y117.302 E32.27316
G1 X280.559 Y117.649 E32.29873
G1 X281.206 Y118.065 E32.32431
G1 X281.806 Y118.546 E32.34989
G1 X282.116 Y118.838 E32.36405
G1 X282.233 Y118.955 E32.36956
G1 X282.747 Y119.527 E32.39514
G1 X283.2 Y120.149 E32.42073
G1 X283.586 Y120.814 E32.4463
G1 X283.901 Y121.516 E32.47189
G1 X284.141 Y122.247 E32.49748
G1 X284.304 Y122.998 E32.52304
G1 X284.388 Y123.763 E32.54864
G1 X284.4 Y124.188 E32.56278
G1 X284.4 Y201.741 E35.14221
G1 X284.36 Y202.509 E35.16778
G1 X284.241 Y203.269 E35.19337
G1 X284.043 Y204.012 E35.21894
G1 X283.769 Y204.731 E35.24454
G1 X283.422 Y205.417 E35.27011
G1 X283.006 Y206.064 E35.29569
G1 X282.525 Y206.664 E35.32127
G1 X282.233 Y206.974 E35.33543
G1 X282.116 Y207.091 E35.34093
G1 X281.544 Y207.605 E35.36651
G1 X280.922 Y208.058 E35.3921
G1 X280.257 Y208.444 E35.41768
G1 X279.555 Y208.759 E35.44327
G1 X278.824 Y208.999 E35.46886
G1 X278.073 Y209.162 E35.49442
G1 X277.308 Y209.246 E35.52002
G1 X276.883 Y209.258 E35.53416
G1 X23.117 Y209.258 E43.97445
G1 X22.349 Y209.218 E44.00003
G1 X21.589 Y209.099 E44.02561
G1 X20.846 Y208.901 E44.05119
G1 X20.127 Y208.627 E44.07678
G1 X19.441 Y208.28 E44.10235
G1 X18.794 Y207.864 E44.12793
G1 X18.194 Y207.383 E44.15351
G1 X17.884 Y207.091 E44.16767
G1 X17.767 Y206.974 E44.17318
G1 X17.253 Y206.402 E44.19875
G1 X16.8 Y205.78 E44.22435
G1 X16.414 Y205.115 E44.24992
G1 X16.099 Y204.413 E44.27551
G1 X15.859 Y203.682 E44.3011
G1 X15.696 Y202.931 E44.32666
G1 X15.612 Y202.166 E44.35226
G1 X15.6 Y201.741 E44.3664
G1 X15.6 Y124.188 E46.94582
G1 X15.64 Y123.42 E46.9714
G1 X15.759 Y122.66 E46.99699
G1 X15.957 Y121.917 E47.02256
G1 X16.231 Y121.198 E47.04815
G1 X16.578 Y120.512 E47.07372
G1 X16.994 Y119.865 E47.09931
G1 X17.475 Y119.265 E47.12488
G1 X17.767 Y118.955 E47.13905
G1 X17.884 Y118.838 E47.14455
G1 X18.456 Y118.324 E47.17013
G1 X19.078 Y117.871 E47.19572
G1 X19.743 Y117.485 E47.2213
G1 X20.445 Y117.17 E47.24689
G1 X21.176 Y116.93 E47.27248
G1 X21.927 Y116.767 E47.29804
G0 F6000 X22.113 Y117.143
G1 F1200 X23.117 Y117.071 E47.33152
G1 X276.883 Y117.071 E55.77181
G1 X277.63 Y117.111 E55.79669
G1 X278.368 Y117.23 E55.82155
G1 X279.09 Y117.428 E55.84645
G1 X279.786 Y117.701 E55.87132
G1 X280.449 Y118.048 E55.89621
G1 X281.072 Y118.463 E55.92111
G1 X281.833 Y119.121 E55.95457
G1 X281.95 Y119.238 E55.96007
G1 X282.45 Y119.795 E55.98496
G1 X282.887 Y120.401 E56.00981
G1 X283.258 Y121.051 E56.03471
G1 X283.557 Y121.737 E56.0596
G1 X283.781 Y122.451 E56.08449
G1 X283.928 Y123.184 E56.10935
G1 X284 Y124.188 E56.14283
G1 X284 Y201.741 E58.72225
G1 X283.96 Y202.488 E58.74713
G1 X283.841 Y203.226 E58.772
G1 X283.643 Y203.948 E58.7969
G1 X283.37 Y204.644 E58.82176
G1 X283.023 Y205.307 E58.84665
G1 X282.608 Y205.93 E58.87155
G1 X281.95 Y206.691 E58.90501
G1 X281.833 Y206.808 E58.91051
G1 X281.276 Y207.308 E58.93541
G1 X280.67 Y207.745 E58.96026
G1 X280.02 Y208.116 E58.98515
G1 X279.334 Y208.415 E59.01004
G1 X278.62 Y208.639 E59.03493
G1 X277.887 Y208.786 E59.0598
G1 X276.883 Y208.858 E59.09327
G1 X23.117 Y208.858 E67.53357
G1 X22.37 Y208.818 E67.55845
G1 X21.632 Y208.699 E67.58331
G1 X20.91 Y208.501 E67.60821
G1 X20.214 Y208.228 E67.63308
G1 X19.551 Y207.881 E67.65797
G1 X18.928 Y207.466 E67.68286
G1 X18.167 Y206.808 E67.71632
G1 X18.05 Y206.691 E67.72183
G1 X17.55 Y206.134 E67.74672
G1 X17.113 Y205.528 E67.77157
G1 X16.742 Y204.878 E67.79646
G1 X16.443 Y204.192 E67.82135
G1 X16.219 Y203.478 E67.84624
G1 X16.072 Y202.745 E67.87111
G1 X16 Y201.741 E67.90459
G1 X16 Y124.188 E70.48401
G1 X16.04 Y123.441 E70.50889
G1 X16.159 Y122.703 E70.53375
G1 X16.357 Y121.981 E70.55865
G1 X16.63 Y121.285 E70.58352
G1 X16.977 Y120.622 E70.60841
G1 X17.392 Y119.999 E70.63331
G1 X18.05 Y119.238 E70.66677
G1 X18.167 Y119.121 E70.67227
G1 X18.724 Y118.621 E70.69717
G1 X19.33 Y118.184 E70.72202
G1 X19.98 Y117.813 E70.74691
G1 X20.666 Y117.514 E70.7718
G1 X21.38 Y117.29 E70.79669
G1 X22.113 Y117.143 E70.82155
G0 F6000 X22.296 Y117.522
G1 F1200 X23.117 Y117.471 E70.84891
G1 X276.883 Y117.471 E79.2892
G1 X277.608 Y117.511 E79.31335
G1 X278.325 Y117.63 E79.33753
G1 X279.024 Y117.828 E79.36169
G1 X279.697 Y118.101 E79.38585
G1 X280.336 Y118.446 E79.41
G1 X280.933 Y118.86 E79.43416
G1 X281.55 Y119.404 E79.46152
G1 X281.667 Y119.521 E79.46702
G1 X282.151 Y120.062 E79.49117
G1 X282.574 Y120.653 E79.51534
G1 X282.928 Y121.287 E79.53949
G1 X283.211 Y121.956 E79.56365
G1 X283.419 Y122.652 E79.58781
G1 X283.549 Y123.367 E79.61198
G1 X283.6 Y124.188 E79.63934
G1 X283.6 Y201.741 E82.21877
G1 X283.56 Y202.466 E82.24292
G1 X283.441 Y203.183 E82.26709
G1 X283.243 Y203.882 E82.29125
G1 X282.97 Y204.555 E82.31541
G1 X282.625 Y205.194 E82.33956
G1 X282.211 Y205.791 E82.36373
G1 X281.667 Y206.408 E82.39109
G1 X281.55 Y206.525 E82.39659
G1 X281.009 Y207.009 E82.42073
G1 X280.418 Y207.432 E82.4449
G1 X279.784 Y207.786 E82.46906
G1 X279.115 Y208.069 E82.49322
G1 X278.419 Y208.277 E82.51738
G1 X277.704 Y208.407 E82.54155
G1 X276.883 Y208.458 E82.56891
G1 X23.117 Y208.458 E91.0092
G1 X22.392 Y208.418 E91.03335
G1 X21.675 Y208.299 E91.05752
G1 X20.976 Y208.101 E91.08169
G1 X20.303 Y207.828 E91.10584
G1 X19.664 Y207.483 E91.12999
G1 X19.067 Y207.069 E91.15416
G1 X18.45 Y206.525 E91.18152
G1 X18.333 Y206.408 E91.18702
G1 X17.849 Y205.867 E91.21116
G1 X17.426 Y205.276 E91.23534
G1 X17.072 Y204.642 E91.25949
G1 X16.789 Y203.973 E91.28365
G1 X16.581 Y203.277 E91.30781
G1 X16.451 Y202.562 E91.33198
G1 X16.4 Y201.741 E91.35934
G1 X16.4 Y124.188 E93.93876
G1 X16.44 Y123.463 E93.96291
G1 X16.559 Y122.746 E93.98709
G1 X16.757 Y122.047 E94.01125
G1 X17.03 Y121.374 E94.03541
G1 X17.375 Y120.735 E94.05956
G1 X17.789 Y120.138 E94.08372
G1 X18.333 Y119.521 E94.11108
G1 X18.45 Y119.404 E94.11658
G1 X18.991 Y118.92 E94.14073
G1 X19.582 Y118.497 E94.1649
G1 X20.216 Y118.143 E94.18905
G1 X20.885 Y117.86 E94.21321
G1 X21.581 Y117.652 E94.23737
G1 X22.296 Y117.522 E94.26154
G0 F6000 X21.78 Y118.017
G1 F1200 X22.475 Y117.904 E94.28496
G1 X23.117 Y117.871 E94.30634
G1 X276.883 Y117.871 E102.74664
G1 X277.586 Y117.911 E102.77006
G1 X278.28 Y118.03 E102.79347
G1 X278.955 Y118.228 E102.81687
G1 X279.604 Y118.5 E102.84028
G1 X280.218 Y118.845 E102.8637
G1 X280.789 Y119.256 E102.8871
G1 X281.267 Y119.687 E102.90851
G1 X281.384 Y119.804 E102.91401
G1 X281.853 Y120.329 E102.93743
G1 X282.259 Y120.904 E102.96084
G1 X282.597 Y121.522 E102.98426
G1 X282.864 Y122.173 E103.00767
G1 X283.054 Y122.851 E103.03109
G1 X283.167 Y123.546 E103.05451
G1 X283.2 Y124.188 E103.07589
G1 X283.2 Y201.741 E105.65531
G1 X283.16 Y202.444 E105.67873
G1 X283.041 Y203.138 E105.70215
G1 X282.843 Y203.813 E105.72555
G1 X282.571 Y204.462 E105.74895
G1 X282.226 Y205.076 E105.77238
G1 X281.815 Y205.647 E105.79578
G1 X281.384 Y206.125 E105.81718
G1 X281.267 Y206.242 E105.82269
G1 X280.742 Y206.711 E105.8461
G1 X280.167 Y207.117 E105.86951
G1 X279.549 Y207.455 E105.89294
G1 X278.898 Y207.722 E105.91634
G1 X278.22 Y207.912 E105.93976
G1 X277.525 Y208.025 E105.96318
G1 X276.883 Y208.058 E105.98456
G1 X23.117 Y208.058 E114.42485
G1 X22.414 Y208.018 E114.44827
G1 X21.72 Y207.899 E114.47169
G1 X21.045 Y207.701 E114.49509
G1 X20.396 Y207.429 E114.51849
G1 X19.782 Y207.084 E114.54192
G1 X19.211 Y206.673 E114.56532
G1 X18.733 Y206.242 E114.58673
G1 X18.616 Y206.125 E114.59223
G1 X18.147 Y205.6 E114.61564
G1 X17.741 Y205.025 E114.63905
G1 X17.403 Y204.407 E114.66248
G1 X17.136 Y203.756 E114.68589
G1 X16.946 Y203.078 E114.7093
G1 X16.833 Y202.383 E114.73272
G1 X16.8 Y201.741 E114.7541
G1 X16.8 Y124.188 E117.33353
G1 X16.84 Y123.485 E117.35695
G1 X16.959 Y122.791 E117.38037
G1 X17.157 Y122.116 E117.40376
G1 X17.429 Y121.467 E117.42717
G1 X17.774 Y120.853 E117.45059
G1 X18.185 Y120.282 E117.47399
G1 X18.616 Y119.804 E117.4954
G1 X18.733 Y119.687 E117.5009
G1 X19.258 Y119.218 E117.52432
G1 X19.833 Y118.812 E117.54773
G1 X20.451 Y118.474 E117.57116
G1 X21.102 Y118.207 E117.59456
G1 X21.78 Y118.017 E117.61798
G0 F6000 X21.976 Y118.384
G1 F1200 X22.65 Y118.29 E117.64061
G1 X23.117 Y118.271 E117.65616
G1 X276.883 Y118.271 E126.09645
G1 X277.563 Y118.311 E126.11911
G1 X278.233 Y118.43 E126.14174
G1 X278.885 Y118.627 E126.16439
G1 X279.509 Y118.899 E126.18703
G1 X280.097 Y119.243 E126.20969
G1 X280.641 Y119.653 E126.23235
G1 X280.984 Y119.97 E126.24788
G1 X281.101 Y120.087 E126.25339
G1 X281.554 Y120.596 E126.27605
G1 X281.943 Y121.154 E126.29867
G1 X282.265 Y121.754 E126.32132
G1 X282.514 Y122.388 E126.34398
G1 X282.687 Y123.047 E126.36664
G1 X282.781 Y123.721 E126.38927
G1 X282.8 Y124.188 E126.40482
G1 X282.8 Y201.741 E128.98424
G1 X282.76 Y202.421 E129.0069
G1 X282.641 Y203.091 E129.02953
G1 X282.444 Y203.743 E129.05218
G1 X282.172 Y204.367 E129.07482
G1 X281.828 Y204.955 E129.09748
G1 X281.418 Y205.499 E129.12014
G1 X281.101 Y205.842 E129.13567
G1 X280.984 Y205.959 E129.14118
G1 X280.475 Y206.412 E129.16384
G1 X279.917 Y206.801 E129.18646
G1 X279.317 Y207.123 E129.20911
G1 X278.683 Y207.372 E129.23177
G1 X278.024 Y207.545 E129.25443
G1 X277.35 Y207.639 E129.27706
G1 X276.883 Y207.658 E129.29261
G1 X23.117 Y207.658 E137.7329
G1 X22.437 Y207.618 E137.75555
G1 X21.767 Y207.499 E137.77819
G1 X21.115 Y207.302 E137.80084
G1 X20.491 Y207.03 E137.82348
G1 X19.903 Y206.686 E137.84614
G1 X19.359 Y206.276 E137.8688
G1 X19.016 Y205.959 E137.88433
G1 X18.899 Y205.842 E137.88983
G1 X18.446 Y205.333 E137.9125
G1 X18.057 Y204.775 E137.93512
G1 X17.735 Y204.175 E137.95777
G1 X17.486 Y203.541 E137.98042
G1 X17.313 Y202.882 E138.00308
G1 X17.219 Y202.208 E138.02572
G1 X17.2 Y201.741 E138.04126
G1 X17.2 Y124.188 E140.62069
G1 X17.24 Y123.508 E140.64334
G1 X17.359 Y122.838 E140.66598
G1 X17.556 Y122.186 E140.68863
G1 X17.828 Y121.562 E140.71127
G1 X18.172 Y120.974 E140.73393
G1 X18.582 Y120.43 E140.75659
G1 X18.899 Y120.087 E140.77212
G1 X19.016 Y119.97 E140.77762
G1 X19.525 Y119.517 E140.80029
G1 X20.083 Y119.128 E140.82291
G1 X20.683 Y118.806 E140.84556
G1 X21.317 Y118.557 E140.86821
G1 X21.976 Y118.384 E140.89087
G0 F6000 X22.168 Y118.755
G1 F1200 X23.117 Y118.671 E140.92256
G1 X276.883 Y118.671 E149.36285
G1 X277.539 Y118.711 E149.38471
G1 X278.185 Y118.83 E149.40656
G1 X278.812 Y119.027 E149.42842
G1 X279.41 Y119.299 E149.45027
G1 X279.971 Y119.641 E149.47212
G1 X280.701 Y120.253 E149.50381
G1 X280.818 Y120.37 E149.50931
G1 X281.254 Y120.862 E149.53117
G1 X281.626 Y121.403 E149.55301
G1 X281.93 Y121.985 E149.57485
G1 X282.161 Y122.6 E149.5967
G1 X282.316 Y123.239 E149.61857
G1 X282.4 Y124.188 E149.65026
G1 X282.4 Y201.741 E152.22968
G1 X282.36 Y202.397 E152.25154
G1 X282.241 Y203.043 E152.27339
G1 X282.044 Y203.67 E152.29525
G1 X281.772 Y204.268 E152.3171
G1 X281.43 Y204.829 E152.33895
G1 X280.818 Y205.559 E152.37063
G1 X280.701 Y205.676 E152.37614
G1 X280.209 Y206.112 E152.398
G1 X279.668 Y206.484 E152.41984
G1 X279.086 Y206.788 E152.44168
G1 X278.471 Y207.019 E152.46353
G1 X277.832 Y207.174 E152.4854
G1 X276.883 Y207.258 E152.51708
G1 X23.117 Y207.258 E160.95738
G1 X22.461 Y207.218 E160.97924
G1 X21.815 Y207.099 E161.00108
G1 X21.188 Y206.902 E161.02294
G1 X20.59 Y206.63 E161.04479
G1 X20.029 Y206.288 E161.06665
G1 X19.299 Y205.676 E161.09833
G1 X19.182 Y205.559 E161.10383
G1 X18.746 Y205.067 E161.1257
G1 X18.374 Y204.526 E161.14753
G1 X18.07 Y203.944 E161.16937
G1 X17.839 Y203.329 E161.19122
G1 X17.684 Y202.69 E161.21309
G1 X17.6 Y201.741 E161.24478
G1 X17.6 Y124.188 E163.8242
G1 X17.64 Y123.532 E163.84606
G1 X17.759 Y122.886 E163.86791
G1 X17.956 Y122.259 E163.88977
G1 X18.228 Y121.661 E163.91162
G1 X18.57 Y121.1 E163.93347
G1 X19.182 Y120.37 E163.96516
G1 X19.299 Y120.253 E163.97066
G1 X19.791 Y119.817 E163.99252
G1 X20.332 Y119.445 E164.01436
G1 X20.914 Y119.141 E164.0362
G1 X21.529 Y118.91 E164.05805
G1 X22.168 Y118.755 E164.07992
G0 F6000 X22.356 Y119.129
G1 F1200 X23.117 Y119.071 E164.1053
G1 X276.883 Y119.071 E172.5456
G1 X277.514 Y119.111 E172.56663
G1 X278.135 Y119.23 E172.58766
G1 X278.735 Y119.427 E172.60866
G1 X279.307 Y119.698 E172.62971
G1 X279.839 Y120.038 E172.65071
G1 X280.419 Y120.535 E172.67612
G1 X280.536 Y120.652 E172.68162
G1 X280.953 Y121.127 E172.70264
G1 X281.308 Y121.65 E172.72367
G1 X281.594 Y122.214 E172.7447
G1 X281.806 Y122.809 E172.76571
G1 X281.942 Y123.427 E172.78675
G1 X282 Y124.188 E172.81214
G1 X282 Y201.741 E175.39156
G1 X281.96 Y202.372 E175.41259
G1 X281.841 Y202.993 E175.43362
G1 X281.644 Y203.593 E175.45463
G1 X281.373 Y204.165 E175.47568
G1 X281.033 Y204.697 E175.49668
G1 X280.536 Y205.277 E175.52208
G1 X280.419 Y205.394 E175.52758
G1 X279.944 Y205.811 E175.54861
G1 X279.421 Y206.166 E175.56963
G1 X278.857 Y206.452 E175.59066
G1 X278.262 Y206.664 E175.61167
G1 X277.644 Y206.8 E175.63272
G1 X276.883 Y206.858 E175.6581
G1 X23.117 Y206.858 E184.09839
G1 X22.486 Y206.818 E184.11942
G1 X21.865 Y206.699 E184.14045
G1 X21.265 Y206.502 E184.16146
