;FLAVOR:Marlin
;TIME:32656
;Filament used: 28.0558m
;Layer height: 0.2
;MINX:103.306
;MINY:81.875
;MINZ:0.2
;MAXX:196.694
;MAXY:249.875
;MAXZ:31.8
;Generated with Cura_SteamEngine 4.12.0
M140 S80
M105
M190 S80
M104 S240
M105
M109 S240
M82 ;absolute extrusion mode
; Ender 3 Custom Start G-code
G92 E0 ; Reset Extruder
G28 ; Home all axes
G1 Z2.0 F3000 ; Move Z Axis up little to prevent scratching of Heat Bed
G1 X0.1 Y20 Z0.3 F5000.0 ; Move to start position
G1 X0.1 Y200.0 Z0.3 F1500.0 E15 ; Draw the first line
G1 X0.4 Y200.0 Z0.3 F5000.0 ; Move to side a little
G1 X0.4 Y20 Z0.3 F1500.0 E30 ; Draw the second line
G92 E0 ; Reset Extruder
G1 Z2.0 F3000 ; Move Z Axis up little to prevent scratching of Heat Bed
G1 X5 Y20 Z0.3 F5000.0 ; Move over to prevent blob squish
G92 E0
G92 E0
G1 F2700 E-5
;LAYER_COUNT:159
;LAYER:0
M107
G0 F6000 X105.186 Y84.714 Z0.2
;TYPE:SKIRT
G1 F2700 E0
G1 F1200 X105.591 Y84.277 E0.01982
G1 X105.708 Y84.16 E0.02532
G1 X106.294 Y83.63 E0.0516
G1 X106.93 Y83.163 E0.07784
G1 X107.61 Y82.762 E0.1041
G1 X108.328 Y82.432 E0.13038
G1 X109.075 Y82.177 E0.15664
G1 X109.844 Y81.998 E0.1829
G1 X110.628 Y81.898 E0.20918
G1 X111.223 Y81.875 E0.22899
G1 X188.777 Y81.875 E2.80844
G1 X189.566 Y81.915 E2.83472
G1 X190.346 Y82.034 E2.86096
G1 X191.111 Y82.232 E2.88725
G1 X191.851 Y82.506 E2.91349
G1 X192.56 Y82.854 E2.93976
G1 X193.231 Y83.272 E2.96605
G1 X193.855 Y83.755 E2.9923
G1 X194.292 Y84.16 E3.01212
G1 X194.409 Y84.277 E3.01762
G1 X194.939 Y84.863 E3.0439
G1 X195.406 Y85.499 E3.07014
G1 X195.807 Y86.179 E3.0964
G1 X196.137 Y86.897 E3.12268
G1 X196.392 Y87.644 E3.14893
G1 X196.571 Y88.413 E3.1752
G1 X196.671 Y89.197 E3.20148
G1 X196.694 Y89.792 E3.22129
G1 X196.694 Y241.958 E8.28235
G1 X196.654 Y242.747 E8.30862
G1 X196.535 Y243.527 E8.33487
G1 X196.337 Y244.292 E8.36115
G1 X196.063 Y245.032 E8.3874
G1 X195.715 Y245.741 E8.41366
G1 X195.297 Y246.412 E8.43996
G1 X194.814 Y247.036 E8.4662
G1 X194.409 Y247.473 E8.48602
G1 X194.292 Y247.59 E8.49152
G1 X193.706 Y248.12 E8.5178
G1 X193.07 Y248.587 E8.54405
G1 X192.39 Y248.988 E8.5703
G1 X191.672 Y249.318 E8.59659
G1 X190.925 Y249.573 E8.62284
G1 X190.156 Y249.752 E8.6491
G1 X189.372 Y249.852 E8.67539
G1 X188.777 Y249.875 E8.69519
G1 X111.223 Y249.875 E11.27465
G1 X110.434 Y249.835 E11.30092
G1 X109.654 Y249.716 E11.32717
G1 X108.889 Y249.518 E11.35345
G1 X108.149 Y249.244 E11.3797
G1 X107.44 Y248.896 E11.40596
G1 X106.769 Y248.478 E11.43226
G1 X106.145 Y247.995 E11.4585
G1 X105.708 Y247.59 E11.47832
G1 X105.591 Y247.473 E11.48382
G1 X105.061 Y246.887 E11.5101
G1 X104.594 Y246.251 E11.53635
G1 X104.193 Y245.571 E11.5626
G1 X103.863 Y244.853 E11.58889
G1 X103.608 Y244.106 E11.61514
G1 X103.429 Y243.337 E11.6414
G1 X103.329 Y242.553 E11.66769
G1 X103.306 Y241.958 E11.68749
G1 X103.306 Y89.792 E16.74855
G1 X103.346 Y89.003 E16.77483
G1 X103.465 Y88.223 E16.80107
G1 X103.663 Y87.458 E16.82735
G1 X103.937 Y86.718 E16.8536
G1 X104.285 Y86.009 E16.87987
G1 X104.703 Y85.338 E16.90616
G1 X105.186 Y84.714 E16.93241
G0 F6000 X105.581 Y84.869
G1 F1200 X105.873 Y84.559 E16.94657
G1 X105.99 Y84.442 E16.95208
G1 X106.562 Y83.928 E16.97765
G1 X107.184 Y83.475 E17.00325
G1 X107.849 Y83.089 E17.02882
G1 X108.551 Y82.774 E17.05441
G1 X109.282 Y82.534 E17.08
G1 X110.033 Y82.371 E17.10556
G1 X110.798 Y82.287 E17.13116
G1 X111.223 Y82.275 E17.1453
G1 X188.777 Y82.275 E19.72476
G1 X189.545 Y82.315 E19.75033
G1 X190.305 Y82.434 E19.77592
G1 X191.048 Y82.632 E19.80149
G1 X191.767 Y82.906 E19.82709
G1 X192.453 Y83.253 E19.85266
G1 X193.1 Y83.669 E19.87824
G1 X193.7 Y84.15 E19.90382
G1 X194.01 Y84.442 E19.91798
G1 X194.127 Y84.559 E19.92348
G1 X194.641 Y85.131 E19.94906
G1 X195.094 Y85.753 E19.97465
G1 X195.48 Y86.418 E20.00023
G1 X195.795 Y87.12 E20.02582
G1 X196.035 Y87.851 E20.05141
G1 X196.198 Y88.602 E20.07697
G1 X196.282 Y89.367 E20.10257
G1 X196.294 Y89.792 E20.11671
G1 X196.294 Y241.958 E25.17777
G1 X196.254 Y242.726 E25.20335
G1 X196.135 Y243.486 E25.22893
G1 X195.937 Y244.229 E25.25451
G1 X195.663 Y244.948 E25.2801
G1 X195.316 Y245.634 E25.30567
G1 X194.9 Y246.281 E25.33125
G1 X194.419 Y246.881 E25.35683
G1 X194.127 Y247.191 E25.37099
G1 X194.01 Y247.308 E25.3765
G1 X193.438 Y247.822 E25.40208
G1 X192.816 Y248.275 E25.42767
G1 X192.151 Y248.661 E25.45324
G1 X191.449 Y248.976 E25.47883
G1 X190.718 Y249.216 E25.50442
G1 X189.967 Y249.379 E25.52998
G1 X189.202 Y249.463 E25.55558
G1 X188.777 Y249.475 E25.56972
G1 X111.223 Y249.475 E28.14918
G1 X110.455 Y249.435 E28.17476
G1 X109.695 Y249.316 E28.20034
G1 X108.952 Y249.118 E28.22592
G1 X108.233 Y248.844 E28.25151
G1 X107.547 Y248.497 E28.27708
G1 X106.9 Y248.081 E28.30266
G1 X106.3 Y247.6 E28.32824
G1 X105.99 Y247.308 E28.3424
G1 X105.873 Y247.191 E28.34791
G1 X105.359 Y246.619 E28.37348
G1 X104.906 Y245.997 E28.39908
G1 X104.52 Y245.332 E28.42465
G1 X104.205 Y244.63 E28.45024
G1 X103.965 Y243.899 E28.47583
G1 X103.802 Y243.148 E28.50139
G1 X103.718 Y242.383 E28.52699
G1 X103.706 Y241.958 E28.54113
G1 X103.706 Y89.792 E33.60219
G1 X103.746 Y89.024 E33.62777
G1 X103.865 Y88.264 E33.65336
G1 X104.063 Y87.521 E33.67893
G1 X104.337 Y86.802 E33.70452
G1 X104.684 Y86.116 E33.73009
G1 X105.1 Y85.469 E33.75568
G1 X105.581 Y84.869 E33.78125
G0 F6000 X105.498 Y85.603
G1 F1200 X106.156 Y84.842 E33.81471
G1 X106.273 Y84.725 E33.82022
G1 X106.83 Y84.225 E33.84511
G1 X107.436 Y83.788 E33.86996
G1 X108.086 Y83.417 E33.89485
G1 X108.772 Y83.118 E33.91974
G1 X109.486 Y82.894 E33.94463
G1 X110.219 Y82.747 E33.9695
G1 X111.223 Y82.675 E34.00298
G1 X188.777 Y82.675 E36.58243
G1 X189.524 Y82.715 E36.60731
G1 X190.262 Y82.834 E36.63218
G1 X190.984 Y83.032 E36.65708
G1 X191.68 Y83.305 E36.68194
G1 X192.343 Y83.652 E36.70683
G1 X192.966 Y84.067 E36.73173
G1 X193.727 Y84.725 E36.76519
G1 X193.844 Y84.842 E36.77069
G1 X194.344 Y85.399 E36.79559
G1 X194.781 Y86.005 E36.82044
G1 X195.152 Y86.655 E36.84533
G1 X195.451 Y87.341 E36.87022
G1 X195.675 Y88.055 E36.89511
G1 X195.822 Y88.788 E36.91998
G1 X195.894 Y89.792 E36.95345
G1 X195.894 Y241.958 E42.01452
G1 X195.854 Y242.705 E42.0394
G1 X195.735 Y243.443 E42.06426
G1 X195.537 Y244.165 E42.08916
G1 X195.264 Y244.861 E42.11403
G1 X194.917 Y245.524 E42.13892
G1 X194.502 Y246.147 E42.16381
G1 X193.844 Y246.908 E42.19727
G1 X193.727 Y247.025 E42.20278
G1 X193.17 Y247.525 E42.22767
G1 X192.564 Y247.962 E42.25252
G1 X191.914 Y248.333 E42.27741
G1 X191.228 Y248.632 E42.3023
G1 X190.514 Y248.856 E42.32719
G1 X189.781 Y249.003 E42.35206
G1 X188.777 Y249.075 E42.38554
G1 X111.223 Y249.075 E44.96499
G1 X110.476 Y249.035 E44.98987
G1 X109.738 Y248.916 E45.01474
G1 X109.016 Y248.718 E45.03964
G1 X108.32 Y248.445 E45.0645
G1 X107.657 Y248.098 E45.08939
G1 X107.034 Y247.683 E45.11429
G1 X106.273 Y247.025 E45.14775
G1 X106.156 Y246.908 E45.15325
G1 X105.656 Y246.351 E45.17815
G1 X105.219 Y245.745 E45.203
G1 X104.848 Y245.095 E45.22789
G1 X104.549 Y244.409 E45.25278
G1 X104.325 Y243.695 E45.27767
G1 X104.178 Y242.962 E45.30254
G1 X104.106 Y241.958 E45.33601
G1 X104.106 Y89.792 E50.39708
G1 X104.146 Y89.045 E50.42196
G1 X104.265 Y88.307 E50.44682
G1 X104.463 Y87.585 E50.47172
G1 X104.736 Y86.889 E50.49659
G1 X105.083 Y86.226 E50.52148
G1 X105.498 Y85.603 E50.54637
G0 F6000 X105.895 Y85.742
G1 F1200 X106.439 Y85.125 E50.57373
G1 X106.556 Y85.008 E50.57924
G1 X107.097 Y84.524 E50.60338
G1 X107.688 Y84.101 E50.62755
G1 X108.322 Y83.747 E50.6517
G1 X108.991 Y83.464 E50.67586
G1 X109.687 Y83.256 E50.70002
G1 X110.402 Y83.126 E50.72419
G1 X111.223 Y83.075 E50.75155
G1 X188.777 Y83.075 E53.33101
G1 X189.502 Y83.115 E53.35516
G1 X190.219 Y83.234 E53.37933
G1 X190.918 Y83.432 E53.4035
G1 X191.591 Y83.705 E53.42765
G1 X192.23 Y84.05 E53.45181
G1 X192.827 Y84.464 E53.47597
G1 X193.444 Y85.008 E53.50333
G1 X193.561 Y85.125 E53.50883
G1 X194.045 Y85.666 E53.53298
G1 X194.468 Y86.257 E53.55715
G1 X194.822 Y86.891 E53.5813
G1 X195.105 Y87.56 E53.60546
G1 X195.313 Y88.256 E53.62962
G1 X195.443 Y88.971 E53.65379
G1 X195.494 Y89.792 E53.68115
G1 X195.494 Y241.958 E58.74221
G1 X195.454 Y242.683 E58.76636
G1 X195.335 Y243.4 E58.79054
G1 X195.137 Y244.099 E58.8147
G1 X194.864 Y244.772 E58.83886
G1 X194.519 Y245.411 E58.86301
G1 X194.105 Y246.008 E58.88717
G1 X193.561 Y246.625 E58.91453
G1 X193.444 Y246.742 E58.92003
G1 X192.903 Y247.226 E58.94418
G1 X192.312 Y247.649 E58.96835
G1 X191.678 Y248.003 E58.9925
G1 X191.009 Y248.286 E59.01666
G1 X190.313 Y248.494 E59.04082
G1 X189.598 Y248.624 E59.06499
G1 X188.777 Y248.675 E59.09235
G1 X111.223 Y248.675 E61.67181
G1 X110.498 Y248.635 E61.69596
G1 X109.781 Y248.516 E61.72013
G1 X109.082 Y248.318 E61.7443
G1 X108.409 Y248.045 E61.76845
G1 X107.77 Y247.7 E61.79261
G1 X107.173 Y247.286 E61.81677
G1 X106.556 Y246.742 E61.84413
G1 X106.439 Y246.625 E61.84963
G1 X105.955 Y246.084 E61.87378
G1 X105.532 Y245.493 E61.89795
G1 X105.178 Y244.859 E61.9221
G1 X104.895 Y244.19 E61.94626
G1 X104.687 Y243.494 E61.97042
G1 X104.557 Y242.779 E61.99459
G1 X104.506 Y241.958 E62.02195
G1 X104.506 Y89.792 E67.08301
G1 X104.546 Y89.067 E67.10716
G1 X104.665 Y88.35 E67.13134
G1 X104.863 Y87.651 E67.1555
G1 X105.136 Y86.978 E67.17966
G1 X105.481 Y86.339 E67.20381
G1 X105.895 Y85.742 E67.22797
G0 F6000 X106.291 Y85.886
G1 F1200 X106.722 Y85.408 E67.24938
G1 X106.839 Y85.291 E67.25488
G1 X107.364 Y84.822 E67.2783
G1 X107.939 Y84.416 E67.30171
G1 X108.557 Y84.078 E67.32514
G1 X109.208 Y83.811 E67.34854
G1 X109.886 Y83.621 E67.37196
G1 X110.581 Y83.508 E67.39538
G1 X111.223 Y83.475 E67.41676
G1 X188.777 Y83.475 E69.99622
G1 X189.48 Y83.515 E70.01963
G1 X190.174 Y83.634 E70.04305
G1 X190.849 Y83.832 E70.06645
G1 X191.498 Y84.104 E70.08986
G1 X192.112 Y84.449 E70.11328
G1 X192.683 Y84.86 E70.13668
G1 X193.161 Y85.291 E70.15809
G1 X193.278 Y85.408 E70.16359
G1 X193.747 Y85.933 E70.187
G1 X194.153 Y86.508 E70.21042
G1 X194.491 Y87.126 E70.23384
G1 X194.758 Y87.777 E70.25725
G1 X194.948 Y88.455 E70.28067
G1 X195.061 Y89.15 E70.30409
G1 X195.094 Y89.792 E70.32547
G1 X195.094 Y241.958 E75.38653
G1 X195.054 Y242.661 E75.40995
G1 X194.935 Y243.355 E75.43337
G1 X194.737 Y244.03 E75.45676
G1 X194.465 Y244.679 E75.48017
G1 X194.12 Y245.293 E75.50359
G1 X193.709 Y245.864 E75.52699
G1 X193.278 Y246.342 E75.5484
G1 X193.161 Y246.459 E75.5539
G1 X192.636 Y246.928 E75.57732
G1 X192.061 Y247.334 E75.60073
G1 X191.443 Y247.672 E75.62416
G1 X190.792 Y247.939 E75.64756
G1 X190.114 Y248.129 E75.67098
G1 X189.419 Y248.242 E75.6944
G1 X188.777 Y248.275 E75.71578
G1 X111.223 Y248.275 E78.29524
G1 X110.52 Y248.235 E78.31866
G1 X109.826 Y248.116 E78.34208
G1 X109.151 Y247.918 E78.36547
G1 X108.502 Y247.646 E78.38888
G1 X107.888 Y247.301 E78.4123
G1 X107.317 Y246.89 E78.4357
G1 X106.839 Y246.459 E78.45711
G1 X106.722 Y246.342 E78.46261
G1 X106.253 Y245.817 E78.48603
G1 X105.847 Y245.242 E78.50944
G1 X105.509 Y244.624 E78.53287
G1 X105.242 Y243.973 E78.55627
G1 X105.052 Y243.295 E78.57969
G1 X104.939 Y242.6 E78.60311
G1 X104.906 Y241.958 E78.62449
G1 X104.906 Y89.792 E83.68555
G1 X104.946 Y89.089 E83.70897
G1 X105.065 Y88.395 E83.73239
G1 X105.263 Y87.72 E83.75579
G1 X105.535 Y87.071 E83.77919
G1 X105.88 Y86.457 E83.80261
G1 X106.291 Y85.886 E83.82601
G0 F6000 X106.688 Y86.034
G1 F1200 X107.005 Y85.691 E83.84155
G1 X107.122 Y85.574 E83.84705
G1 X107.631 Y85.121 E83.86972
G1 X108.189 Y84.732 E83.89234
G1 X108.789 Y84.41 E83.91499
G1 X109.423 Y84.161 E83.93764
G1 X110.082 Y83.988 E83.9603
G1 X110.756 Y83.894 E83.98294
G1 X111.223 Y83.875 E83.99848
G1 X188.777 Y83.875 E86.57794
G1 X189.457 Y83.915 E86.6006
G1 X190.127 Y84.034 E86.62323
G1 X190.779 Y84.231 E86.64588
G1 X191.403 Y84.503 E86.66852
G1 X191.991 Y84.847 E86.69118
G1 X192.535 Y85.257 E86.71384
G1 X192.878 Y85.574 E86.72937
G1 X192.995 Y85.691 E86.73488
G1 X193.448 Y86.2 E86.75754
G1 X193.837 Y86.758 E86.78016
G1 X194.159 Y87.358 E86.80281
G1 X194.408 Y87.992 E86.82547
G1 X194.581 Y88.651 E86.84813
G1 X194.675 Y89.325 E86.87076
G1 X194.694 Y89.792 E86.88631
G1 X194.694 Y241.958 E91.94737
G1 X194.654 Y242.638 E91.97002
G1 X194.535 Y243.308 E91.99266
G1 X194.338 Y243.96 E92.01531
G1 X194.066 Y244.584 E92.03795
G1 X193.722 Y245.172 E92.06061
G1 X193.312 Y245.716 E92.08327
G1 X192.995 Y246.059 E92.0988
G1 X192.878 Y246.176 E92.1043
G1 X192.369 Y246.629 E92.12697
G1 X191.811 Y247.018 E92.14959
G1 X191.211 Y247.34 E92.17224
G1 X190.577 Y247.589 E92.19489
G1 X189.918 Y247.762 E92.21755
G1 X189.244 Y247.856 E92.24019
G1 X188.777 Y247.875 E92.25573
G1 X111.223 Y247.875 E94.83519
G1 X110.543 Y247.835 E94.85785
G1 X109.873 Y247.716 E94.88048
G1 X109.221 Y247.519 E94.90313
G1 X108.597 Y247.247 E94.92577
G1 X108.009 Y246.903 E94.94843
G1 X107.465 Y246.493 E94.97109
G1 X107.122 Y246.176 E94.98662
G1 X107.005 Y246.059 E94.99213
G1 X106.552 Y245.55 E95.01479
G1 X106.163 Y244.992 E95.03741
G1 X105.841 Y244.392 E95.06006
G1 X105.592 Y243.758 E95.08272
G1 X105.419 Y243.099 E95.10538
G1 X105.325 Y242.425 E95.12801
G1 X105.306 Y241.958 E95.14356
G1 X105.306 Y89.792 E100.20462
G1 X105.346 Y89.112 E100.22728
G1 X105.465 Y88.442 E100.24991
G1 X105.662 Y87.79 E100.27256
G1 X105.934 Y87.166 E100.2952
G1 X106.278 Y86.578 E100.31786
G1 X106.688 Y86.034 E100.34052
G0 F6000 X107.288 Y85.974
G1 F1200 X107.405 Y85.857 E100.34602
G1 X107.897 Y85.421 E100.36789
G1 X108.438 Y85.049 E100.38972
G1 X109.02 Y84.745 E100.41156
G1 X109.635 Y84.514 E100.43341
G1 X110.274 Y84.359 E100.45528
G1 X111.223 Y84.275 E100.48697
G1 X188.777 Y84.275 E103.06643
G1 X189.433 Y84.315 E103.08828
G1 X190.079 Y84.434 E103.11013
G1 X190.706 Y84.631 E103.13199
G1 X191.304 Y84.903 E103.15384
G1 X191.865 Y85.245 E103.17569
G1 X192.595 Y85.857 E103.20738
G1 X192.712 Y85.974 E103.21288
G1 X193.148 Y86.466 E103.23475
G1 X193.52 Y87.007 E103.25658
G1 X193.824 Y87.589 E103.27842
G1 X194.055 Y88.204 E103.30027
G1 X194.21 Y88.843 E103.32214
G1 X194.294 Y89.792 E103.35383
G1 X194.294 Y241.958 E108.41489
G1 X194.254 Y242.614 E108.43675
G1 X194.135 Y243.26 E108.4586
G1 X193.938 Y243.887 E108.48046
G1 X193.666 Y244.485 E108.50231
G1 X193.324 Y245.046 E108.52416
G1 X192.712 Y245.776 E108.55584
G1 X192.595 Y245.893 E108.56135
G1 X192.103 Y246.329 E108.58321
G1 X191.562 Y246.701 E108.60505
G1 X190.98 Y247.005 E108.62689
G1 X190.365 Y247.236 E108.64874
G1 X189.726 Y247.391 E108.67061
G1 X188.777 Y247.475 E108.7023
G1 X111.223 Y247.475 E111.28175
G1 X110.567 Y247.435 E111.30361
G1 X109.921 Y247.316 E111.32546
G1 X109.294 Y247.119 E111.34732
G1 X108.696 Y246.847 E111.36917
G1 X108.135 Y246.505 E111.39102
G1 X107.405 Y245.893 E111.4227
G1 X107.288 Y245.776 E111.42821
G1 X106.852 Y245.284 E111.45007
G1 X106.48 Y244.743 E111.47191
G1 X106.176 Y244.161 E111.49375
G1 X105.945 Y243.546 E111.5156
G1 X105.79 Y242.907 E111.53747
G1 X105.706 Y241.958 E111.56916
G1 X105.706 Y89.792 E116.63022
G1 X105.746 Y89.136 E116.65208
G1 X105.865 Y88.49 E116.67392
G1 X106.062 Y87.863 E116.69578
G1 X106.334 Y87.265 E116.71763
G1 X106.676 Y86.704 E116.73949
G1 X107.288 Y85.974 E116.77117
G0 F6000 X107.57 Y86.256
G1 F1200 X107.687 Y86.139 E116.77667
G1 X108.162 Y85.722 E116.7977
G1 X108.685 Y85.367 E116.81872
G1 X109.249 Y85.081 E116.83975
G1 X109.844 Y84.869 E116.86076
G1 X110.462 Y84.733 E116.88181
G1 X111.223 Y84.675 E116.90719
G1 X188.777 Y84.675 E119.48665
G1 X189.408 Y84.715 E119.50768
G1 X190.029 Y84.834 E119.52871
G1 X190.629 Y85.031 E119.54971
G1 X191.201 Y85.302 E119.57076
G1 X191.733 Y85.642 E119.59176
G1 X192.313 Y86.139 E119.61717
G1 X192.43 Y86.256 E119.62267
G1 X192.847 Y86.731 E119.64369
G1 X193.202 Y87.254 E119.66472
G1 X193.488 Y87.818 E119.68575
G1 X193.7 Y88.413 E119.70676
G1 X193.836 Y89.031 E119.72781
G1 X193.894 Y89.792 E119.75319
G1 X193.894 Y241.958 E124.81425
G1 X193.854 Y242.589 E124.83528
G1 X193.735 Y243.21 E124.85631
G1 X193.538 Y243.81 E124.87732
G1 X193.267 Y244.382 E124.89837
G1 X192.927 Y244.914 E124.91937
G1 X192.43 Y245.494 E124.94477
G1 X192.313 Y245.611 E124.95027
G1 X191.838 Y246.028 E124.9713
G1 X191.315 Y246.383 E124.99232
G1 X190.751 Y246.669 E125.01335
G1 X190.156 Y246.881 E125.03436
G1 X189.538 Y247.017 E125.05541
G1 X188.777 Y247.075 E125.08079
