;FLAVOR:Marlin
;TIME:18280
;Filament used: 12.6239m
;Layer height: 0.16
;MINX:50.867
;MINY:56.689
;MINZ:0.2
;MAXX:263.469
;MAXY:247.045
;MAXZ:3
;Generated with Creality Slicer 4.8.2-205
M140 S110
M105
M190 S110
M104 S230
M105
M109 S230
M82 ;absolute extrusion mode

G28 ;Home

G92 E0 ;Reset Extruder
G1 Z2.0 F3000 ;Move Z Axis up
G1 X10.1 Y20 Z0.28 F5000.0 ;Move to start position
G1 X10.1 Y200.0 Z0.28 F1500.0 E15 ;Draw the first line
G1 X10.4 Y200.0 Z0.28 F5000.0 ;Move to side a little
G1 X10.4 Y20 Z0.28 F1500.0 E30 ;Draw the second line
G92 E0 ;Reset Extruder
G1 Z2.0 F3000 ;Move Z Axis up

G92 E0
G92 E0
G1 F3600 E-5
;LAYER_COUNT:16
;LAYER:0
M107
G0 F6000 X74.816 Y59.009 Z0.2
;TYPE:SKIRT
G1 F3600 E0
G1 F1200 X75.401 Y58.48 E0.02623
G1 X76.038 Y58.012 E0.05252
G1 X76.718 Y57.611 E0.07878
G1 X77.249 Y57.358 E0.09834
G1 X77.321 Y57.327 E0.10095
G1 X78.062 Y57.052 E0.12724
G1 X78.826 Y56.853 E0.1535
G1 X79.606 Y56.732 E0.17975
G1 X80.381 Y56.691 E0.20556
G1 X81.013 Y56.689 E0.22658
G1 X122.897 Y56.689 E1.61965
G1 X123.686 Y56.729 E1.64593
G1 X124.466 Y56.848 E1.67217
G1 X125.231 Y57.046 E1.69845
G1 X125.81 Y57.253 E1.7189
G1 X125.887 Y57.284 E1.72166
G1 X126.604 Y57.616 E1.74794
G1 X127.283 Y58.018 E1.77419
G1 X127.918 Y58.487 E1.80045
G1 X128.492 Y59.007 E1.82621
G1 X150.131 Y80.669 E2.84458
G1 X150.66 Y81.256 E2.87086
G1 X151.128 Y81.892 E2.89712
G1 X151.528 Y82.573 E2.92339
G1 X151.813 Y83.182 E2.94576
G1 X151.843 Y83.254 E2.94835
G1 X152.109 Y83.997 E2.9746
G1 X152.299 Y84.764 E3.00088
G1 X152.411 Y85.546 E3.02716
G1 X152.443 Y86.254 E3.05073
G1 X152.443 Y121.784 E4.23246
G1 X152.403 Y122.573 E4.25874
G1 X152.284 Y123.353 E4.28498
G1 X152.086 Y124.118 E4.31126
G1 X151.843 Y124.784 E4.33484
G1 X151.813 Y124.856 E4.33744
G1 X151.473 Y125.569 E4.36371
G1 X151.062 Y126.243 E4.38997
G1 X150.586 Y126.873 E4.41623
G1 X150.131 Y127.369 E4.43861
G1 X128.491 Y149.032 E5.45703
G1 X127.906 Y149.561 E5.48327
G1 X127.269 Y150.029 E5.50956
G1 X126.589 Y150.43 E5.53581
G1 X125.973 Y150.719 E5.55844
G1 X125.901 Y150.749 E5.56104
G1 X125.158 Y151.015 E5.58729
G1 X124.391 Y151.205 E5.61357
G1 X123.609 Y151.317 E5.63984
G1 X122.901 Y151.349 E5.66342
G1 X90.339 Y151.348 E6.74643
G1 X80.387 Y151.337 E7.07744
G1 X79.599 Y151.296 E7.10368
G1 X78.818 Y151.176 E7.12996
G1 X78.054 Y150.977 E7.15622
G1 X77.396 Y150.737 E7.17952
G1 X77.324 Y150.707 E7.18211
G1 X76.611 Y150.367 E7.20838
G1 X75.937 Y149.956 E7.23464
G1 X75.307 Y149.48 E7.2609
G1 X74.806 Y149.019 E7.28355
G1 X53.179 Y127.368 E8.30138
G1 X52.649 Y126.782 E8.32766
G1 X52.182 Y126.145 E8.35393
G1 X51.782 Y125.465 E8.38017
G1 X51.497 Y124.856 E8.40253
G1 X51.467 Y124.784 E8.40513
G1 X51.201 Y124.041 E8.43138
G1 X51.011 Y123.274 E8.45766
G1 X50.899 Y122.492 E8.48393
G1 X50.867 Y121.784 E8.5075
G1 X50.867 Y86.254 E9.68924
G1 X50.907 Y85.465 E9.71551
G1 X51.026 Y84.685 E9.74176
G1 X51.224 Y83.92 E9.76804
G1 X51.467 Y83.254 E9.79162
G1 X51.497 Y83.182 E9.79421
G1 X51.837 Y82.469 E9.82049
G1 X52.248 Y81.795 E9.84674
G1 X52.724 Y81.165 E9.873
G1 X53.179 Y80.669 E9.89539
G1 X74.816 Y59.009 E10.91367
G0 F6000 X75.099 Y59.292
G1 F1200 X75.67 Y58.777 E10.93924
G1 X76.291 Y58.324 E10.96481
G1 X76.956 Y57.938 E10.99038
G1 X77.408 Y57.725 E11.007
G1 X77.48 Y57.694 E11.00961
G1 X78.201 Y57.427 E11.03518
G1 X78.946 Y57.236 E11.06076
G1 X79.707 Y57.124 E11.08635
G1 X80.383 Y57.091 E11.10886
G1 X81.015 Y57.089 E11.12988
G1 X122.897 Y57.089 E12.52288
G1 X123.665 Y57.129 E12.54846
G1 X124.425 Y57.248 E12.57404
G1 X125.168 Y57.446 E12.59962
G1 X125.661 Y57.624 E12.61705
G1 X125.738 Y57.655 E12.61981
G1 X126.435 Y57.979 E12.64538
G1 X127.095 Y58.374 E12.67096
G1 X127.711 Y58.835 E12.69655
G1 X128.209 Y59.29 E12.71899
G1 X149.848 Y80.952 E13.73736
G1 X150.363 Y81.524 E13.76296
G1 X150.815 Y82.146 E13.78853
G1 X151.201 Y82.811 E13.81411
G1 X151.444 Y83.336 E13.83335
G1 X151.474 Y83.408 E13.83594
G1 X151.732 Y84.132 E13.86151
G1 X151.914 Y84.88 E13.88711
G1 X152.018 Y85.642 E13.91269
G1 X152.043 Y86.254 E13.93306
G1 X152.043 Y121.784 E15.11479
G1 X152.003 Y122.552 E15.14037
G1 X151.884 Y123.312 E15.16596
G1 X151.686 Y124.055 E15.19153
G1 X151.474 Y124.63 E15.21192
G1 X151.444 Y124.702 E15.21451
G1 X151.111 Y125.396 E15.24011
G1 X150.709 Y126.051 E15.26567
G1 X150.241 Y126.661 E15.29125
G1 X149.848 Y127.086 E15.3105
G1 X128.208 Y148.749 E16.32892
G1 X127.637 Y149.264 E16.35449
G1 X127.016 Y149.717 E16.38006
G1 X126.351 Y150.103 E16.40563
G1 X125.819 Y150.35 E16.42514
G1 X125.747 Y150.38 E16.42774
G1 X125.023 Y150.638 E16.4533
G1 X124.275 Y150.82 E16.4789
G1 X123.513 Y150.924 E16.50448
G1 X122.901 Y150.949 E16.52486
G1 X90.34 Y150.948 E17.60784
G1 X80.388 Y150.937 E17.93884
G1 X79.62 Y150.896 E17.96442
G1 X78.86 Y150.776 E17.99001
G1 X78.117 Y150.577 E18.0156
G1 X77.55 Y150.368 E18.0357
G1 X77.478 Y150.338 E18.03829
G1 X76.784 Y150.005 E18.06389
G1 X76.129 Y149.603 E18.08945
G1 X75.519 Y149.135 E18.11503
G1 X75.089 Y148.737 E18.13451
G1 X53.462 Y127.086 E19.15235
G1 X52.947 Y126.514 E19.17795
G1 X52.495 Y125.892 E19.20352
G1 X52.109 Y125.226 E19.22912
G1 X51.866 Y124.702 E19.24833
G1 X51.836 Y124.63 E19.25093
G1 X51.578 Y123.906 E19.27649
G1 X51.396 Y123.158 E19.3021
G1 X51.292 Y122.396 E19.32768
G1 X51.267 Y121.784 E19.34805
G1 X51.267 Y86.254 E20.52978
G1 X51.307 Y85.486 E20.55536
G1 X51.426 Y84.726 E20.58094
G1 X51.624 Y83.983 E20.60652
G1 X51.836 Y83.408 E20.6269
G1 X51.866 Y83.336 E20.6295
G1 X52.199 Y82.642 E20.6551
G1 X52.601 Y81.987 E20.68066
G1 X53.069 Y81.377 E20.70623
G1 X53.462 Y80.952 E20.72548
G1 X75.099 Y59.292 E21.74376
G0 F6000 X75.382 Y59.575
G1 F1200 X75.938 Y59.075 E21.76863
G1 X76.544 Y58.637 E21.7935
G1 X77.194 Y58.266 E21.8184
G1 X77.566 Y58.093 E21.83204
G1 X77.638 Y58.062 E21.83465
G1 X78.34 Y57.803 E21.85954
G1 X79.065 Y57.621 E21.8844
G1 X79.806 Y57.517 E21.90928
G1 X80.384 Y57.491 E21.92853
G1 X81.016 Y57.489 E21.94955
G1 X122.897 Y57.489 E23.34252
G1 X123.644 Y57.529 E23.3674
G1 X124.382 Y57.648 E23.39226
G1 X125.104 Y57.846 E23.41716
G1 X125.511 Y57.995 E23.43158
G1 X125.588 Y58.026 E23.43434
G1 X126.266 Y58.343 E23.45923
G1 X126.907 Y58.729 E23.48412
G1 X127.502 Y59.182 E23.50899
G1 X127.926 Y59.573 E23.52817
G1 X149.565 Y81.235 E24.54655
G1 X150.065 Y81.792 E24.57144
G1 X150.502 Y82.398 E24.59629
G1 X150.873 Y83.049 E24.62121
G1 X151.075 Y83.49 E24.63735
G1 X151.105 Y83.562 E24.63994
G1 X151.355 Y84.267 E24.66482
G1 X151.529 Y84.994 E24.68968
G1 X151.624 Y85.736 E24.71456
G1 X151.643 Y86.254 E24.7318
G1 X151.643 Y121.784 E25.91354
G1 X151.603 Y122.531 E25.93842
G1 X151.484 Y123.269 E25.96328
G1 X151.286 Y123.991 E25.98818
G1 X151.105 Y124.476 E26.0054
G1 X151.075 Y124.548 E26.00799
G1 X150.75 Y125.222 E26.03288
G1 X150.356 Y125.858 E26.05776
G1 X149.896 Y126.448 E26.08265
G1 X149.565 Y126.803 E26.09879
G1 X127.925 Y148.466 E27.11721
G1 X127.369 Y148.966 E27.14208
G1 X126.763 Y149.404 E27.16695
G1 X126.113 Y149.775 E27.19184
G1 X125.665 Y149.981 E27.20824
G1 X125.593 Y150.011 E27.21084
G1 X124.888 Y150.261 E27.23572
G1 X124.161 Y150.435 E27.26058
G1 X123.419 Y150.53 E27.28546
G1 X122.901 Y150.549 E27.3027
G1 X90.34 Y150.548 E28.38568
G1 X80.388 Y150.537 E28.71669
G1 X79.641 Y150.496 E28.74157
G1 X78.903 Y150.376 E28.76644
G1 X78.182 Y150.178 E28.79131
G1 X77.704 Y149.999 E28.80828
G1 X77.632 Y149.969 E28.81088
G1 X76.958 Y149.644 E28.83577
G1 X76.322 Y149.25 E28.86065
G1 X75.732 Y148.79 E28.88553
G1 X75.372 Y148.454 E28.90191
G1 X53.745 Y126.803 E29.91974
G1 X53.245 Y126.246 E29.94464
G1 X52.808 Y125.639 E29.96952
G1 X52.437 Y124.989 E29.99441
G1 X52.235 Y124.548 E30.01054
G1 X52.205 Y124.476 E30.01314
G1 X51.955 Y123.771 E30.03802
G1 X51.781 Y123.044 E30.06288
G1 X51.686 Y122.302 E30.08776
G1 X51.667 Y121.784 E30.105
G1 X51.667 Y86.254 E31.28673
G1 X51.707 Y85.507 E31.31161
G1 X51.826 Y84.769 E31.33648
G1 X52.024 Y84.047 E31.36138
G1 X52.205 Y83.562 E31.37859
G1 X52.235 Y83.49 E31.38119
G1 X52.56 Y82.816 E31.40608
G1 X52.954 Y82.18 E31.43096
G1 X53.414 Y81.59 E31.45584
G1 X53.745 Y81.235 E31.47199
G1 X75.382 Y59.575 E32.49026
G0 F6000 X75.665 Y59.858
G1 F1200 X76.205 Y59.373 E32.51441
G1 X76.796 Y58.95 E32.53858
G1 X77.724 Y58.46 E32.57348
G1 X77.796 Y58.429 E32.57609
G1 X78.478 Y58.179 E32.60025
G1 X79.183 Y58.005 E32.6244
G1 X79.903 Y57.91 E32.64856
G1 X80.385 Y57.891 E32.6646
G1 X81.017 Y57.889 E32.68562
G1 X122.897 Y57.889 E34.07856
G1 X123.622 Y57.929 E34.10271
G1 X124.339 Y58.048 E34.12688
G1 X125.362 Y58.367 E34.16252
G1 X125.439 Y58.398 E34.16528
G1 X126.097 Y58.705 E34.18943
G1 X126.717 Y59.084 E34.2136
G1 X127.291 Y59.528 E34.23774
G1 X127.643 Y59.856 E34.25374
G1 X149.282 Y81.518 E35.27211
G1 X149.767 Y82.059 E35.29628
G1 X150.189 Y82.65 E35.32043
G1 X150.543 Y83.284 E35.34458
G1 X150.705 Y83.644 E35.35771
G1 X150.735 Y83.716 E35.36031
G1 X150.977 Y84.4 E35.38444
G1 X151.143 Y85.108 E35.40863
G1 X151.229 Y85.829 E35.43278
G1 X151.243 Y86.254 E35.44692
G1 X151.243 Y121.784 E36.62865
G1 X151.203 Y122.509 E36.6528
G1 X151.084 Y123.226 E36.67698
G1 X150.886 Y123.925 E36.70114
G1 X150.735 Y124.322 E36.71527
G1 X150.705 Y124.394 E36.71786
G1 X150.389 Y125.049 E36.74205
G1 X150.004 Y125.664 E36.76618
G1 X149.553 Y126.233 E36.79033
G1 X149.282 Y126.52 E36.80346
G1 X127.642 Y148.183 E37.82188
G1 X127.102 Y148.668 E37.84602
G1 X126.511 Y149.091 E37.87019
G1 X125.877 Y149.446 E37.89436
G1 X125.511 Y149.611 E37.90771
G1 X125.439 Y149.641 E37.91031
G1 X124.755 Y149.883 E37.93444
G1 X124.047 Y150.049 E37.95863
G1 X123.326 Y150.135 E37.98278
G1 X122.901 Y150.149 E37.99692
G1 X90.341 Y150.148 E39.07987
G1 X80.389 Y150.137 E39.41088
G1 X79.663 Y150.096 E39.43506
G1 X78.947 Y149.976 E39.45921
G1 X78.248 Y149.778 E39.48337
G1 X77.858 Y149.629 E39.49726
G1 X77.786 Y149.599 E39.49985
G1 X77.131 Y149.283 E39.52404
G1 X76.516 Y148.898 E39.54817
G1 X75.947 Y148.447 E39.57232
G1 X75.655 Y148.171 E39.58568
G1 X54.028 Y126.52 E40.60352
G1 X53.543 Y125.979 E40.62768
G1 X53.121 Y125.388 E40.65184
G1 X52.767 Y124.754 E40.67599
G1 X52.605 Y124.394 E40.68912
G1 X52.575 Y124.322 E40.69171
G1 X52.333 Y123.638 E40.71584
G1 X52.167 Y122.93 E40.74003
G1 X52.081 Y122.209 E40.76418
G1 X52.067 Y121.784 E40.77832
G1 X52.067 Y86.254 E41.96006
G1 X52.107 Y85.529 E41.98421
G1 X52.226 Y84.812 E42.00838
G1 X52.424 Y84.113 E42.03254
G1 X52.575 Y83.716 E42.04667
G1 X52.605 Y83.644 E42.04927
G1 X52.921 Y82.989 E42.07345
G1 X53.306 Y82.374 E42.09759
G1 X53.757 Y81.805 E42.12174
G1 X54.028 Y81.518 E42.13486
G1 X75.665 Y59.858 E43.15314
G0 F6000 X75.948 Y60.14
G1 F1200 X76.473 Y59.671 E43.17656
G1 X77.047 Y59.265 E43.19994
G1 X77.882 Y58.827 E43.2313
G1 X77.954 Y58.796 E43.23391
G1 X78.616 Y58.555 E43.25734
G1 X79.3 Y58.39 E43.28074
G1 X79.999 Y58.304 E43.30417
G1 X80.386 Y58.291 E43.31705
G1 X81.018 Y58.289 E43.33807
G1 X122.897 Y58.289 E44.73097
G1 X123.6 Y58.329 E44.75439
G1 X124.294 Y58.448 E44.77781
G1 X125.212 Y58.738 E44.80983
G1 X125.289 Y58.769 E44.81259
G1 X125.927 Y59.068 E44.83602
G1 X126.526 Y59.438 E44.85944
G1 X127.079 Y59.873 E44.88284
G1 X127.36 Y60.138 E44.89569
G1 X148.999 Y81.8 E45.91406
G1 X149.468 Y82.326 E45.9375
G1 X149.874 Y82.901 E45.96091
G1 X150.336 Y83.797 E45.99444
G1 X150.366 Y83.869 E45.99704
G1 X150.6 Y84.534 E46.02048
G1 X150.756 Y85.22 E46.04388
G1 X150.843 Y86.254 E46.0784
G1 X150.843 Y121.784 E47.26013
G1 X150.803 Y122.487 E47.28355
G1 X150.684 Y123.181 E47.30697
G1 X150.366 Y124.169 E47.34149
G1 X150.336 Y124.241 E47.34408
G1 X150.029 Y124.874 E47.36748
G1 X149.652 Y125.469 E47.39091
G1 X148.999 Y126.238 E47.42446
G1 X127.359 Y147.901 E48.44288
G1 X126.834 Y148.37 E48.4663
G1 X126.26 Y148.776 E48.48968
G1 X125.358 Y149.242 E48.52345
G1 X125.286 Y149.272 E48.52605
G1 X124.621 Y149.506 E48.54949
G1 X123.935 Y149.662 E48.57289
G1 X122.901 Y149.749 E48.6074
G1 X90.341 Y149.748 E49.69035
G1 X80.389 Y149.737 E50.02136
G1 X79.686 Y149.696 E50.04478
G1 X78.993 Y149.576 E50.06817
G1 X78.011 Y149.26 E50.10248
G1 X77.939 Y149.23 E50.10508
G1 X77.306 Y148.923 E50.12848
G1 X76.711 Y148.546 E50.15191
G1 X75.938 Y147.889 E50.18565
G1 X54.311 Y126.238 E51.20348
G1 X53.842 Y125.712 E51.22692
G1 X53.436 Y125.137 E51.25033
G1 X52.974 Y124.241 E51.28386
G1 X52.944 Y124.169 E51.28645
G1 X52.71 Y123.504 E51.3099
G1 X52.554 Y122.818 E51.3333
G1 X52.467 Y121.784 E51.36781
G1 X52.467 Y86.254 E52.54955
G1 X52.507 Y85.551 E52.57297
G1 X52.626 Y84.857 E52.59638
G1 X52.944 Y83.869 E52.63091
G1 X52.974 Y83.797 E52.6335
G1 X53.281 Y83.164 E52.6569
G1 X53.658 Y82.569 E52.68033
G1 X54.311 Y81.8 E52.71388
G1 X75.948 Y60.14 E53.73216
G0 F6000 X76.231 Y60.423
G1 F1200 X76.739 Y59.97 E53.7548
G1 X77.297 Y59.58 E53.77744
G1 X78.04 Y59.195 E53.80527
G1 X78.112 Y59.164 E53.80788
G1 X78.752 Y58.932 E53.83052
G1 X79.415 Y58.776 E53.85318
G1 X80.388 Y58.691 E53.88566
G1 X81.02 Y58.689 E53.90668
G1 X122.897 Y58.689 E55.29952
G1 X123.577 Y58.729 E55.32217
G1 X124.247 Y58.848 E55.34481
G1 X125.063 Y59.109 E55.3733
G1 X125.14 Y59.14 E55.37606
G1 X125.756 Y59.431 E55.39872
G1 X126.333 Y59.792 E55.42136
G1 X127.077 Y60.421 E55.45376
G1 X148.716 Y82.083 E56.47214
G1 X149.168 Y82.592 E56.49478
G1 X149.558 Y83.151 E56.51745
G1 X149.967 Y83.951 E56.54733
G1 X149.997 Y84.023 E56.54993
G1 X150.221 Y84.666 E56.57257
G1 X150.369 Y85.331 E56.59523
G1 X150.443 Y86.254 E56.62603
G1 X150.443 Y121.784 E57.80776
G1 X150.403 Y122.464 E57.83042
G1 X150.284 Y123.134 E57.85305
G1 X149.997 Y124.015 E57.88387
G1 X149.967 Y124.087 E57.88646
G1 X149.669 Y124.699 E57.9091
G1 X149.301 Y125.272 E57.93175
G1 X148.716 Y125.955 E57.96166
G1 X127.076 Y147.618 E58.98008
G1 X126.568 Y148.071 E59.00272
G1 X126.01 Y148.461 E59.02537
G1 X125.204 Y148.873 E59.05547
G1 X125.132 Y148.903 E59.05807
G1 X124.489 Y149.127 E59.08071
G1 X123.824 Y149.275 E59.10337
G1 X122.901 Y149.349 E59.13417
G1 X90.342 Y149.348 E60.21709
G1 X80.39 Y149.337 E60.54809
G1 X79.71 Y149.296 E60.57075
G1 X79.04 Y149.176 E60.59339
G1 X78.165 Y148.891 E60.624
G1 X78.093 Y148.861 E60.62659
G1 X77.481 Y148.563 E60.64923
G1 X76.908 Y148.195 E60.67188
G1 X76.221 Y147.606 E60.70198
G1 X54.594 Y125.955 E61.71981
G1 X54.141 Y125.446 E61.74247
G1 X53.752 Y124.887 E61.76513
G1 X53.343 Y124.087 E61.79501
G1 X53.313 Y124.015 E61.7976
G1 X53.089 Y123.372 E61.82025
G1 X52.941 Y122.707 E61.84291
G1 X52.867 Y121.784 E61.87371
G1 X52.867 Y86.254 E63.05544
G1 X52.907 Y85.574 E63.0781
G1 X53.026 Y84.904 E63.10073
G1 X53.313 Y84.023 E63.13155
G1 X53.343 Y83.951 E63.13414
G1 X53.641 Y83.339 E63.15678
G1 X54.009 Y82.766 E63.17943
G1 X54.594 Y82.083 E63.20934
G1 X76.231 Y60.423 E64.22762
G0 F6000 X76.514 Y60.706
G1 F1200 X77.005 Y60.27 E64.24946
G1 X77.546 Y59.897 E64.27132
G1 X78.199 Y59.562 E64.29573
G1 X78.271 Y59.531 E64.29833
G1 X78.889 Y59.309 E64.32017
G1 X79.529 Y59.163 E64.34201
G1 X80.389 Y59.091 E64.37071
G1 X81.021 Y59.089 E64.39173
G1 X122.897 Y59.089 E65.78453
G1 X123.553 Y59.129 E65.80639
G1 X124.199 Y59.248 E65.82824
G1 X124.914 Y59.48 E65.85324
G1 X124.991 Y59.511 E65.856
G1 X125.584 Y59.793 E65.87784
G1 X126.139 Y60.145 E65.8997
G1 X126.794 Y60.704 E65.92834
G1 X148.433 Y82.366 E66.94672
G1 X148.869 Y82.858 E66.96858
G1 X149.241 Y83.399 E66.99042
G1 X149.598 Y84.105 E67.01673
G1 X149.628 Y84.177 E67.01932
G1 X149.843 Y84.798 E67.04118
G1 X149.981 Y85.44 E67.06302
G1 X150.043 Y86.254 E67.09017
G1 X150.043 Y121.784 E68.27191
G1 X150.003 Y122.44 E68.29377
G1 X149.884 Y123.086 E68.31561
G1 X149.628 Y123.861 E68.34276
G1 X149.598 Y123.933 E68.34535
G1 X149.309 Y124.523 E68.36721
G1 X148.95 Y125.073 E68.38905
G1 X148.433 Y125.672 E68.41537
G1 X126.793 Y147.335 E69.43379
G1 X126.302 Y147.771 E69.45563
G1 X125.761 Y148.144 E69.47748
G1 X125.05 Y148.504 E69.50399
G1 X124.978 Y148.534 E69.50659
G1 X124.357 Y148.749 E69.52844
G1 X123.715 Y148.887 E69.55028
G1 X122.901 Y148.949 E69.57744
G1 X90.342 Y148.948 E70.66035
G1 X80.39 Y148.937 E70.99136
G1 X79.734 Y148.896 E71.01322
G1 X79.088 Y148.776 E71.03507
G1 X78.319 Y148.522 E71.06201
G1 X78.247 Y148.492 E71.0646
G1 X77.657 Y148.203 E71.08645
G1 X77.107 Y147.844 E71.1083
G1 X76.504 Y147.323 E71.1348
G1 X54.877 Y125.672 E72.15264
