;FLAVOR:Marlin
;TIME:15941
;Filament used: 11.0987m
;Layer height: 0.16
;MINX:98.252
;MINY:65.951
;MINZ:0.2
;MAXX:206.749
;MAXY:258.655
;MAXZ:3
;Generated with Creality Slicer 4.8.2-205
M140 S60
M105
M190 S60
M104 S200
M105
M109 S200
M82 ;absolute extrusion mode

G28 ;Home

G92 E0 ;Reset Extruder
G1 Z2.0 F3000 ;Move Z Axis up
G1 X10.1 Y20 Z0.28 F5000.0 ;Move to start position
G1 X10.1 Y200.0 Z0.28 F1500.0 E15 ;Draw the first line
G1 X10.4 Y200.0 Z0.28 F5000.0 ;Move to side a little
G1 X10.4 Y20 Z0.28 F1500.0 E30 ;Draw the second line
G92 E0 ;Reset Extruder
G1 Z2.0 F3000 ;Move Z Axis up

G92 E0
G92 E0
G1 F3600 E-5
;LAYER_COUNT:16
;LAYER:0
M107
G0 F6000 X101.196 Y91.2 Z0.2
;TYPE:SKIRT
G1 F3600 E0
G1 F1200 X101.336 Y91.049 E0.00685
G1 X101.528 Y90.847 E0.01612
G1 X101.819 Y90.55 E0.02995
G1 X122.79 Y69.559 E1.01683
G1 X123.289 Y69.074 E1.03997
G1 X123.989 Y68.45 E1.07116
G1 X124.74 Y67.887 E1.10238
G1 X125.535 Y67.39 E1.13357
G1 X126.37 Y66.963 E1.16476
G1 X127.239 Y66.609 E1.19597
G1 X128.134 Y66.33 E1.22715
G1 X129.05 Y66.128 E1.25835
G1 X129.98 Y66.005 E1.28955
G1 X130.539 Y65.97 E1.30818
G1 X130.986 Y65.957 E1.32305
G1 X131.545 Y65.951 E1.34164
G1 X172.82 Y65.951 E2.71446
G1 X173.679 Y65.962 E2.74303
G1 X174.615 Y66.015 E2.77421
G1 X175.543 Y66.148 E2.80539
G1 X176.457 Y66.36 E2.8366
G1 X177.35 Y66.648 E2.86781
G1 X178.214 Y67.012 E2.89899
G1 X179.045 Y67.448 E2.9302
G1 X179.835 Y67.953 E2.96139
G1 X180.579 Y68.523 E2.99256
G1 X180.992 Y68.887 E3.01087
G1 X181.322 Y69.197 E3.02593
G1 X181.734 Y69.602 E3.04514
G1 X202.636 Y90.526 E4.02883
G1 X203.115 Y91.02 E4.05171
G1 X203.739 Y91.72 E4.0829
G1 X204.3 Y92.471 E4.11408
G1 X204.796 Y93.268 E4.1453
G1 X205.222 Y94.103 E4.17648
G1 X205.575 Y94.972 E4.20768
G1 X205.853 Y95.868 E4.23888
G1 X206.054 Y96.784 E4.27007
G1 X206.206 Y98.17 E4.31645
G1 X206.212 Y98.3 E4.32077
G1 X206.224 Y98.703 E4.33418
G1 X206.228 Y99.125 E4.34822
G1 X206.227 Y133.751 E5.49989
G1 X206.216 Y134.457 E5.52337
G1 X206.161 Y135.394 E5.55459
G1 X206.027 Y136.322 E5.58577
G1 X205.827 Y137.189 E5.61537
G1 X205.691 Y137.685 E5.63247
G1 X205.02 Y140.267 E5.7212
G1 X204.46 Y142.705 E5.8044
G1 X203.957 Y145.223 E5.88981
G1 X203.54 Y147.663 E5.97214
G1 X203.186 Y150.162 E6.05609
G1 X202.906 Y152.64 E6.13903
G1 X202.691 Y155.176 E6.22368
G1 X202.551 Y157.676 E6.30696
G1 X202.48 Y160.207 E6.39118
G1 X202.482 Y162.731 E6.47512
G1 X202.553 Y165.22 E6.55794
G1 X202.697 Y167.741 E6.64193
G1 X202.912 Y170.25 E6.72568
G1 X203.199 Y172.767 E6.80994
G1 X203.552 Y175.234 E6.89283
G1 X203.979 Y177.719 E6.97669
G1 X204.47 Y180.167 E7.05973
G1 X205.048 Y182.671 E7.14521
G1 X205.681 Y185.1 E7.2287
G1 X206.182 Y186.844 E7.28905
G1 X206.28 Y187.173 E7.30046
G1 X206.509 Y188.082 E7.33164
G1 X206.66 Y189.008 E7.36285
G1 X206.724 Y189.756 E7.38782
G1 X206.731 Y189.894 E7.39241
G1 X206.745 Y190.347 E7.40749
G1 X206.749 Y190.769 E7.42152
G1 X206.748 Y225.381 E8.57272
G1 X206.738 Y226.083 E8.59607
G1 X206.685 Y227.019 E8.62726
G1 X206.552 Y227.947 E8.65844
G1 X206.34 Y228.861 E8.68964
G1 X206.052 Y229.754 E8.72085
G1 X205.688 Y230.618 E8.75203
G1 X205.252 Y231.449 E8.78325
G1 X204.747 Y232.239 E8.81443
G1 X204.177 Y232.983 E8.84561
G1 X203.805 Y233.405 E8.86432
G1 X203.665 Y233.556 E8.87116
G1 X203.454 Y233.778 E8.88135
G1 X203.181 Y234.055 E8.89429
G1 X182.257 Y255 E9.87898
G1 X181.725 Y255.519 E9.9037
G1 X181.027 Y256.144 E9.93486
G1 X180.277 Y256.708 E9.96608
G1 X179.483 Y257.206 E9.99725
G1 X178.648 Y257.635 E10.02847
G1 X177.781 Y257.991 E10.05964
G1 X176.886 Y258.272 E10.09084
G1 X175.97 Y258.475 E10.12205
G1 X175.041 Y258.6 E10.15323
G1 X174.401 Y258.639 E10.17455
G1 X174.017 Y258.649 E10.18733
G1 X173.458 Y258.655 E10.20592
G1 X132.024 Y258.654 E11.58402
G1 X131.322 Y258.644 E11.60737
G1 X130.386 Y258.591 E11.63856
G1 X129.458 Y258.458 E11.66974
G1 X128.544 Y258.246 E11.70094
G1 X127.651 Y257.958 E11.73215
G1 X126.787 Y257.594 E11.76333
G1 X125.956 Y257.158 E11.79455
G1 X125.166 Y256.653 E11.82573
G1 X124.422 Y256.083 E11.8569
G1 X124.006 Y255.716 E11.87536
G1 X123.67 Y255.4 E11.8907
G1 X123.232 Y254.969 E11.91114
G1 X102.364 Y234.077 E12.89327
G1 X101.886 Y233.584 E12.91611
G1 X101.262 Y232.884 E12.9473
G1 X100.7 Y232.132 E12.97852
G1 X100.205 Y231.336 E13.0097
G1 X99.779 Y230.501 E13.04087
G1 X99.426 Y229.632 E13.07207
G1 X99.148 Y228.736 E13.10327
G1 X98.947 Y227.82 E13.13446
G1 X98.795 Y226.43 E13.18097
G1 X98.789 Y226.299 E13.18533
G1 X98.777 Y225.901 E13.19858
G1 X98.773 Y225.48 E13.21258
G1 X98.774 Y190.854 E14.36425
G1 X98.785 Y190.147 E14.38776
G1 X98.84 Y189.211 E14.41895
G1 X98.974 Y188.282 E14.45017
G1 X99.175 Y187.411 E14.4799
G1 X99.33 Y186.844 E14.49945
G1 X99.978 Y184.348 E14.58522
G1 X100.552 Y181.858 E14.67021
G1 X101.038 Y179.415 E14.75305
G1 X101.46 Y176.945 E14.8364
G1 X101.816 Y174.434 E14.92075
G1 X102.095 Y171.968 E15.00329
G1 X102.31 Y169.429 E15.08804
G1 X102.45 Y166.928 E15.17136
G1 X102.521 Y164.398 E15.25554
G1 X102.519 Y161.873 E15.33952
G1 X102.448 Y159.384 E15.42234
G1 X102.304 Y156.866 E15.50622
G1 X102.089 Y154.355 E15.59004
G1 X101.802 Y151.838 E15.6743
G1 X101.449 Y149.371 E15.75719
G1 X101.023 Y146.888 E15.84098
G1 X100.526 Y144.419 E15.92475
G1 X99.962 Y141.967 E16.00843
G1 X99.312 Y139.478 E16.09399
G1 X98.838 Y137.824 E16.15122
G1 X98.729 Y137.462 E16.16379
G1 X98.497 Y136.553 E16.195
G1 X98.344 Y135.628 E16.22618
G1 X98.272 Y134.768 E16.25488
G1 X98.266 Y134.63 E16.25948
G1 X98.256 Y134.257 E16.27189
G1 X98.252 Y133.836 E16.28589
G1 X98.253 Y99.224 E17.43709
G1 X98.263 Y98.522 E17.46044
G1 X98.316 Y97.586 E17.49162
G1 X98.449 Y96.658 E17.5228
G1 X98.661 Y95.744 E17.55401
G1 X98.949 Y94.851 E17.58522
G1 X99.313 Y93.987 E17.6164
G1 X99.749 Y93.156 E17.64761
G1 X100.254 Y92.366 E17.6788
G1 X100.824 Y91.622 E17.70997
G1 X101.196 Y91.2 E17.72868
G0 F6000 X101.489 Y91.472
G1 F1200 X101.814 Y91.126 E17.74447
G1 X102.102 Y90.832 E17.75816
G1 X122.958 Y69.955 E18.73966
G1 X123.568 Y69.361 E18.76798
G1 X124.255 Y68.748 E18.7986
G1 X124.993 Y68.198 E18.82921
G1 X125.776 Y67.714 E18.85983
G1 X126.598 Y67.299 E18.89045
G1 X127.453 Y66.957 E18.92108
G1 X128.335 Y66.691 E18.95172
G1 X129.236 Y66.503 E18.98234
G1 X130.554 Y66.37 E19.0264
G1 X130.991 Y66.357 E19.04094
G1 X131.545 Y66.351 E19.05936
G1 X172.82 Y66.351 E20.43218
G1 X173.673 Y66.362 E20.46055
G1 X174.592 Y66.415 E20.49117
G1 X175.503 Y66.548 E20.52179
G1 X176.399 Y66.759 E20.5524
G1 X177.274 Y67.047 E20.58304
G1 X178.12 Y67.41 E20.61366
G1 X178.931 Y67.845 E20.64427
G1 X179.702 Y68.349 E20.67491
G1 X180.721 Y69.18 E20.71864
G1 X180.828 Y69.279 E20.72349
G1 X181.042 Y69.483 E20.73332
G1 X181.451 Y69.884 E20.75237
G1 X202.349 Y90.804 E21.73587
G1 X202.828 Y91.298 E21.75875
G1 X203.44 Y91.986 E21.78938
G1 X203.989 Y92.725 E21.82
G1 X204.473 Y93.508 E21.85062
G1 X204.886 Y94.331 E21.88124
G1 X205.227 Y95.186 E21.91186
G1 X205.492 Y96.068 E21.94249
G1 X205.68 Y96.969 E21.9731
G1 X205.807 Y98.188 E22.01387
G1 X205.813 Y98.318 E22.01819
G1 X205.824 Y98.707 E22.03114
G1 X205.828 Y99.129 E22.04517
G1 X205.827 Y133.745 E23.19651
G1 X205.816 Y134.451 E23.21999
G1 X205.761 Y135.37 E23.25061
G1 X205.628 Y136.281 E23.28123
G1 X205.441 Y137.083 E23.30862
G1 X205.306 Y137.575 E23.32559
G1 X204.631 Y140.174 E23.4149
G1 X204.063 Y142.649 E23.49936
G1 X203.571 Y145.108 E23.58277
G1 X203.144 Y147.612 E23.66726
G1 X202.791 Y150.097 E23.75074
G1 X202.505 Y152.632 E23.83559
G1 X202.291 Y155.154 E23.91977
G1 X202.151 Y157.643 E24.00268
G1 X202.08 Y160.196 E24.08763
G1 X202.082 Y162.708 E24.17118
G1 X202.155 Y165.254 E24.2559
G1 X202.3 Y167.797 E24.34061
G1 X202.51 Y170.258 E24.42276
G1 X202.804 Y172.832 E24.50893
G1 X203.156 Y175.292 E24.59159
G1 X203.586 Y177.794 E24.67602
G1 X204.081 Y180.264 E24.75981
G1 X204.657 Y182.757 E24.84491
G1 X205.29 Y185.185 E24.92837
G1 X205.815 Y187.011 E24.99156
G1 X205.897 Y187.287 E25.00113
G1 X206.121 Y188.18 E25.03176
G1 X206.267 Y189.089 E25.06238
G1 X206.324 Y189.776 E25.08531
G1 X206.331 Y189.914 E25.0899
G1 X206.345 Y190.351 E25.10444
G1 X206.349 Y190.773 E25.11848
G1 X206.348 Y225.375 E26.26935
G1 X206.338 Y226.077 E26.2927
G1 X206.285 Y226.996 E26.32331
G1 X206.152 Y227.907 E26.35394
G1 X205.941 Y228.803 E26.38455
G1 X205.653 Y229.678 E26.41519
G1 X205.29 Y230.524 E26.44581
G1 X204.855 Y231.335 E26.47642
G1 X204.351 Y232.106 E26.50706
G1 X203.512 Y233.133 E26.55116
G1 X203.372 Y233.284 E26.55801
G1 X203.168 Y233.498 E26.56785
G1 X202.898 Y233.772 E26.58064
G1 X181.978 Y254.713 E27.56515
G1 X181.446 Y255.232 E27.58987
G1 X180.76 Y255.846 E27.62049
G1 X180.023 Y256.398 E27.65111
G1 X179.241 Y256.884 E27.68174
G1 X178.419 Y257.3 E27.71238
G1 X177.565 Y257.643 E27.74299
G1 X176.684 Y257.911 E27.77362
G1 X175.784 Y258.101 E27.80421
G1 X174.87 Y258.213 E27.83484
G1 X174.388 Y258.239 E27.85089
G1 X174.013 Y258.249 E27.86337
G1 X173.458 Y258.255 E27.88183
G1 X132.03 Y258.254 E29.25973
G1 X131.328 Y258.244 E29.28308
G1 X130.409 Y258.191 E29.3137
G1 X129.498 Y258.058 E29.34432
G1 X128.602 Y257.847 E29.37493
G1 X127.727 Y257.559 E29.40557
G1 X126.881 Y257.196 E29.43619
G1 X126.07 Y256.761 E29.4668
G1 X125.299 Y256.257 E29.49744
G1 X124.277 Y255.423 E29.54131
G1 X124.169 Y255.323 E29.54621
G1 X123.95 Y255.114 E29.55628
G1 X123.515 Y254.686 E29.57657
G1 X102.651 Y233.799 E30.55849
G1 X102.173 Y233.306 E30.58133
G1 X101.561 Y232.617 E30.61198
G1 X101.012 Y231.879 E30.64258
G1 X100.528 Y231.095 E30.67322
G1 X100.115 Y230.273 E30.70382
G1 X99.774 Y229.417 E30.73446
G1 X99.509 Y228.536 E30.76506
G1 X99.321 Y227.634 E30.79571
G1 X99.194 Y226.412 E30.83657
G1 X99.188 Y226.281 E30.84093
G1 X99.177 Y225.897 E30.85371
G1 X99.173 Y225.476 E30.86771
G1 X99.174 Y190.86 E32.01905
G1 X99.185 Y190.153 E32.04256
G1 X99.24 Y189.234 E32.07318
G1 X99.373 Y188.323 E32.10381
G1 X99.561 Y187.516 E32.13136
G1 X99.714 Y186.956 E32.15067
G1 X100.369 Y184.433 E32.23737
G1 X100.939 Y181.96 E32.32178
G1 X101.432 Y179.483 E32.40578
G1 X101.856 Y177.003 E32.48946
G1 X102.211 Y174.499 E32.57358
G1 X102.496 Y171.976 E32.65803
G1 X102.71 Y169.451 E32.74231
G1 X102.85 Y166.961 E32.82526
G1 X102.921 Y164.409 E32.91017
G1 X102.919 Y161.897 E32.99372
G1 X102.846 Y159.351 E33.07844
G1 X102.701 Y156.808 E33.16315
G1 X102.491 Y154.347 E33.2453
G1 X102.197 Y151.773 E33.33147
G1 X101.845 Y149.313 E33.41413
G1 X101.416 Y146.813 E33.49849
G1 X100.914 Y144.322 E33.58301
G1 X100.353 Y141.882 E33.66628
G1 X99.694 Y139.358 E33.75304
G1 X99.203 Y137.649 E33.81218
G1 X99.112 Y137.346 E33.82271
G1 X98.885 Y136.454 E33.85332
G1 X98.737 Y135.545 E33.88395
G1 X98.672 Y134.75 E33.91048
G1 X98.666 Y134.612 E33.91508
G1 X98.656 Y134.253 E33.92702
G1 X98.652 Y133.832 E33.94102
G1 X98.653 Y99.23 E35.09189
G1 X98.663 Y98.528 E35.11524
G1 X98.716 Y97.609 E35.14586
G1 X98.849 Y96.698 E35.17648
G1 X99.06 Y95.802 E35.2071
G1 X99.348 Y94.927 E35.23774
G1 X99.711 Y94.081 E35.26835
G1 X100.146 Y93.27 E35.29896
G1 X100.65 Y92.499 E35.3296
G1 X101.489 Y91.472 E35.37371
G0 F6000 X101.782 Y91.744
G1 F1200 X101.922 Y91.593 E35.38056
G1 X102.3 Y91.202 E35.39865
G1 X123.241 Y70.238 E36.38419
G1 X123.847 Y69.648 E36.41232
G1 X124.522 Y69.047 E36.44238
G1 X125.247 Y68.509 E36.4724
G1 X126.017 Y68.038 E36.50243
G1 X126.826 Y67.636 E36.53247
G1 X127.667 Y67.307 E36.56251
G1 X128.534 Y67.054 E36.59255
G1 X129.42 Y66.878 E36.62259
G1 X130.569 Y66.769 E36.66098
G1 X130.727 Y66.763 E36.66624
G1 X130.996 Y66.757 E36.67519
G1 X131.545 Y66.751 E36.69345
G1 X172.82 Y66.751 E38.06626
G1 X173.667 Y66.762 E38.09443
G1 X174.569 Y66.815 E38.12449
G1 X175.462 Y66.947 E38.15451
G1 X176.34 Y67.158 E38.18454
G1 X177.196 Y67.446 E38.21458
G1 X178.024 Y67.808 E38.24464
G1 X178.816 Y68.242 E38.27468
G1 X179.566 Y68.745 E38.30471
G1 X180.449 Y69.474 E38.3428
G1 X180.762 Y69.769 E38.3571
G1 X181.168 Y70.167 E38.37601
G1 X202.062 Y91.083 E39.35932
G1 X202.541 Y91.577 E39.38221
G1 X203.14 Y92.252 E39.41222
G1 X203.677 Y92.978 E39.44226
G1 X204.148 Y93.749 E39.47231
G1 X204.549 Y94.558 E39.50234
G1 X204.877 Y95.399 E39.53236
G1 X205.129 Y96.267 E39.56242
G1 X205.303 Y97.153 E39.59246
G1 X205.407 Y98.207 E39.62768
G1 X205.413 Y98.337 E39.63201
G1 X205.424 Y98.71 E39.64442
G1 X205.428 Y99.132 E39.65846
G1 X205.427 Y133.739 E40.80949
G1 X205.416 Y134.445 E40.83298
G1 X205.362 Y135.346 E40.863
G1 X205.228 Y136.24 E40.89306
G1 X205.055 Y136.978 E40.91828
G1 X204.919 Y137.475 E40.93541
G1 X204.238 Y140.098 E41.02555
G1 X203.676 Y142.546 E41.10909
G1 X203.177 Y145.04 E41.19368
G1 X202.748 Y147.554 E41.27851
G1 X202.392 Y150.068 E41.36296
G1 X202.11 Y152.554 E41.44617
G1 X201.892 Y155.131 E41.53219
G1 X201.751 Y157.646 E41.61597
G1 X201.68 Y160.185 E41.70045
G1 X201.682 Y162.719 E41.78473
G1 X201.755 Y165.289 E41.87024
G1 X201.898 Y167.782 E41.9533
G1 X202.116 Y170.339 E42.03865
G1 X202.405 Y172.863 E42.12315
G1 X202.759 Y175.345 E42.20654
G1 X203.193 Y177.87 E42.29175
G1 X203.693 Y180.361 E42.37625
G1 X204.266 Y182.842 E42.46094
G1 X204.909 Y185.308 E42.54571
G1 X205.416 Y187.072 E42.60675
G1 X205.514 Y187.401 E42.61817
G1 X205.733 Y188.277 E42.6482
G1 X205.874 Y189.169 E42.67824
G1 X205.925 Y189.796 E42.69916
G1 X205.932 Y189.934 E42.70376
G1 X205.945 Y190.354 E42.71773
G1 X205.949 Y190.776 E42.73177
G1 X205.948 Y225.369 E43.88234
G1 X205.938 Y226.071 E43.90569
G1 X205.885 Y226.973 E43.93574
G1 X205.753 Y227.866 E43.96576
G1 X205.542 Y228.744 E43.9958
G1 X205.254 Y229.6 E44.02584
G1 X204.892 Y230.428 E44.05589
G1 X204.458 Y231.22 E44.08593
G1 X203.955 Y231.97 E44.11597
G1 X203.219 Y232.861 E44.15441
G1 X203.079 Y233.012 E44.16125
G1 X202.883 Y233.218 E44.17071
G1 X202.615 Y233.49 E44.18341
G1 X181.699 Y254.427 E45.16773
G1 X181.167 Y254.946 E45.19245
G1 X180.493 Y255.548 E45.22251
G1 X179.769 Y256.087 E45.25253
G1 X179 Y256.56 E45.28256
G1 X178.192 Y256.964 E45.3126
G1 X177.351 Y257.294 E45.34265
G1 X176.485 Y257.549 E45.37268
G1 X175.599 Y257.726 E45.40273
G1 X174.375 Y257.84 E45.44361
G1 X174.008 Y257.849 E45.45582
G1 X173.458 Y257.855 E45.47412
G1 X132.036 Y257.854 E46.85182
G1 X131.334 Y257.844 E46.87517
G1 X130.432 Y257.791 E46.90522
G1 X129.539 Y257.659 E46.93525
G1 X128.661 Y257.448 E46.96528
G1 X127.805 Y257.16 E46.99532
G1 X126.977 Y256.798 E47.02538
G1 X126.185 Y256.364 E47.05541
G1 X125.435 Y255.861 E47.08545
G1 X124.549 Y255.129 E47.12367
G1 X124.23 Y254.829 E47.13824
G1 X123.798 Y254.404 E47.1584
G1 X102.938 Y233.52 E48.14015
G1 X102.46 Y233.027 E48.16299
G1 X101.861 Y232.352 E48.19301
G1 X101.323 Y231.626 E48.22306
G1 X100.852 Y230.855 E48.25311
G1 X100.452 Y230.046 E48.28313
G1 X100.124 Y229.204 E48.31318
G1 X99.872 Y228.337 E48.34321
G1 X99.697 Y227.451 E48.37325
G1 X99.594 Y226.394 E48.40857
G1 X99.588 Y226.263 E48.41293
G1 X99.577 Y225.893 E48.42524
G1 X99.573 Y225.472 E48.43925
G1 X99.574 Y190.866 E49.59025
G1 X99.585 Y190.159 E49.61377
G1 X99.639 Y189.258 E49.64379
G1 X99.773 Y188.365 E49.67382
G1 X99.947 Y187.622 E49.6992
G1 X100.085 Y187.118 E49.71658
G1 X100.763 Y184.509 E49.80624
G1 X101.335 Y182.024 E49.89105
G1 X101.818 Y179.598 E49.97333
G1 X102.253 Y177.05 E50.0593
G1 X102.61 Y174.533 E50.14385
G1 X102.894 Y172.018 E50.22803
G1 X103.107 Y169.508 E50.31182
G1 X103.25 Y166.958 E50.39676
G1 X103.321 Y164.42 E50.48121
G1 X103.319 Y161.885 E50.56552
G1 X103.246 Y159.317 E50.65097
G1 X103.103 Y156.823 E50.73406
G1 X102.885 Y154.266 E50.81941
G1 X102.596 Y151.742 E50.90391
G1 X102.242 Y149.26 E50.9873
G1 X101.808 Y146.738 E51.07241
G1 X101.304 Y144.232 E51.15743
G1 X100.742 Y141.788 E51.24084
G1 X100.085 Y139.269 E51.32742
G1 X99.604 Y137.593 E51.38542
G1 X99.495 Y137.231 E51.39799
G1 X99.273 Y136.355 E51.42805
G1 X99.13 Y135.464 E51.45806
G1 X99.072 Y134.733 E51.48245
G1 X99.066 Y134.595 E51.48705
G1 X99.056 Y134.249 E51.49856
G1 X99.052 Y133.828 E51.51256
G1 X99.053 Y99.236 E52.6631
G1 X99.063 Y98.534 E52.68645
G1 X99.116 Y97.632 E52.7165
G1 X99.248 Y96.739 E52.74653
G1 X99.459 Y95.861 E52.77656
G1 X99.747 Y95.005 E52.8066
G1 X100.109 Y94.177 E52.83665
G1 X100.543 Y93.385 E52.86669
G1 X101.046 Y92.635 E52.89673
G1 X101.782 Y91.744 E52.93517
G1 F3600 E47.93517
