;FLAVOR:Marlin
;TIME:16977
;Filament used: 12.226m
;Layer height: 0.16
;MINX:88.734
;MINY:56.791
;MINZ:0.2
;MAXX:198.988
;MAXY:249.429
;MAXZ:3
;Generated with Creality Slicer 4.8.2-205
M140 S60
M105
M190 S60
M104 S200
M105
M109 S200
M82 ;absolute extrusion mode

G28 ;Home

G92 E0 ;Reset Extruder
G1 Z2.0 F3000 ;Move Z Axis up
G1 X10.1 Y20 Z0.28 F5000.0 ;Move to start position
G1 X10.1 Y200.0 Z0.28 F1500.0 E15 ;Draw the first line
G1 X10.4 Y200.0 Z0.28 F5000.0 ;Move to side a little
G1 X10.4 Y20 Z0.28 F1500.0 E30 ;Draw the second line
G92 E0 ;Reset Extruder
G1 Z2.0 F3000 ;Move Z Axis up

G92 E0
G92 E0
G1 F3600 E-5
;LAYER_COUNT:16
;LAYER:0
M107
G0 F6000 X91.678 Y82.041 Z0.2
;TYPE:SKIRT
G1 F3600 E0
G1 F1200 X91.818 Y81.89 E0.00685
G1 X92.029 Y81.668 E0.01704
G1 X92.302 Y81.391 E0.02997
G1 X113.262 Y60.41 E1.01636
G1 X113.762 Y59.923 E1.03957
G1 X114.461 Y59.298 E1.07076
G1 X115.211 Y58.735 E1.10195
G1 X116.006 Y58.237 E1.13315
G1 X116.841 Y57.809 E1.16436
G1 X117.709 Y57.454 E1.19555
G1 X118.604 Y57.174 E1.22674
G1 X119.519 Y56.971 E1.25792
G1 X120.449 Y56.847 E1.28912
G1 X121.066 Y56.809 E1.30968
G1 X121.303 Y56.801 E1.31757
G1 X121.572 Y56.795 E1.32652
G1 X122.004 Y56.791 E1.34089
G1 X163.303 Y56.791 E2.7145
G1 X164.161 Y56.802 E2.74304
G1 X165.097 Y56.855 E2.77422
G1 X166.026 Y56.988 E2.80543
G1 X166.939 Y57.2 E2.83661
G1 X167.832 Y57.488 E2.86781
G1 X168.696 Y57.852 E2.899
G1 X169.527 Y58.288 E2.93021
G1 X170.317 Y58.793 E2.9614
G1 X171.061 Y59.363 E2.99257
G1 X171.423 Y59.679 E3.00855
G1 X171.527 Y59.774 E3.01324
G1 X171.814 Y60.046 E3.02639
G1 X172.216 Y60.442 E3.04516
G1 X193.112 Y81.362 E4.0286
G1 X193.591 Y81.855 E4.05147
G1 X194.216 Y82.555 E4.08268
G1 X194.778 Y83.305 E4.11385
G1 X195.274 Y84.101 E4.14504
G1 X195.701 Y84.936 E4.17624
G1 X196.055 Y85.804 E4.20741
G1 X196.334 Y86.7 E4.23863
G1 X196.536 Y87.616 E4.26983
G1 X196.659 Y88.546 E4.30103
G1 X196.694 Y89.097 E4.31939
G1 X196.707 Y89.545 E4.3343
G1 X196.711 Y89.966 E4.3483
G1 X196.71 Y124.591 E5.49993
G1 X196.699 Y125.298 E5.52345
G1 X196.644 Y126.234 E5.55464
G1 X196.51 Y127.163 E5.58585
G1 X196.384 Y127.743 E5.60559
G1 X196.344 Y127.905 E5.61114
G1 X195.758 Y130.449 E5.69797
G1 X195.26 Y132.923 E5.78191
G1 X194.838 Y135.397 E5.86538
G1 X194.483 Y137.883 E5.94891
G1 X194.198 Y140.386 E6.0327
G1 X193.985 Y142.886 E6.11615
G1 X193.84 Y145.419 E6.20053
G1 X193.769 Y147.904 E6.28322
G1 X193.769 Y150.428 E6.36717
G1 X193.84 Y152.953 E6.45118
G1 X193.981 Y155.471 E6.53506
G1 X194.194 Y157.982 E6.61888
G1 X194.477 Y160.469 E6.70213
G1 X194.837 Y163.002 E6.78722
G1 X195.255 Y165.448 E6.86976
G1 X195.745 Y167.903 E6.95302
G1 X196.315 Y170.376 E7.03743
G1 X196.943 Y172.789 E7.12036
G1 X197.658 Y175.256 E7.20579
G1 X198.239 Y177.086 E7.26965
G1 X198.425 Y177.65 E7.2894
G1 X198.681 Y178.552 E7.32059
G1 X198.858 Y179.473 E7.35178
G1 X198.971 Y180.677 E7.392
G1 X198.984 Y181.123 E7.40684
G1 X198.988 Y181.544 E7.42085
G1 X198.987 Y216.155 E8.57201
G1 X198.977 Y216.857 E8.59536
G1 X198.924 Y217.793 E8.62655
G1 X198.791 Y218.721 E8.65773
G1 X198.579 Y219.635 E8.68893
G1 X198.291 Y220.528 E8.72014
G1 X197.927 Y221.392 E8.75132
G1 X197.491 Y222.223 E8.78254
G1 X196.986 Y223.013 E8.81372
G1 X196.416 Y223.757 E8.84489
G1 X196.044 Y224.179 E8.86361
G1 X195.904 Y224.33 E8.87045
G1 X195.693 Y224.552 E8.88064
G1 X195.42 Y224.829 E8.89358
G1 X174.496 Y245.774 E9.87827
G1 X173.964 Y246.293 E9.90299
G1 X173.266 Y246.918 E9.93415
G1 X172.516 Y247.482 E9.96536
G1 X171.722 Y247.98 E9.99654
G1 X170.887 Y248.409 E10.02776
G1 X170.02 Y248.765 E10.05893
G1 X169.125 Y249.046 E10.09013
G1 X168.209 Y249.249 E10.12134
G1 X167.28 Y249.374 E10.15252
G1 X166.64 Y249.413 E10.17384
G1 X166.256 Y249.423 E10.18662
G1 X165.697 Y249.429 E10.20521
G1 X124.263 Y249.428 E11.58331
G1 X123.561 Y249.418 E11.60666
G1 X122.625 Y249.365 E11.63785
G1 X121.697 Y249.232 E11.66903
G1 X120.783 Y249.02 E11.70023
G1 X119.89 Y248.732 E11.73144
G1 X119.026 Y248.368 E11.76262
G1 X118.195 Y247.932 E11.79384
G1 X117.405 Y247.427 E11.82502
G1 X116.661 Y246.857 E11.85619
G1 X116.245 Y246.49 E11.87464
G1 X115.909 Y246.174 E11.88999
G1 X115.471 Y245.743 E11.91042
G1 X94.603 Y224.851 E12.89256
G1 X94.125 Y224.358 E12.91539
G1 X93.501 Y223.658 E12.94658
G1 X92.939 Y222.906 E12.97781
G1 X92.444 Y222.11 E13.00899
G1 X92.018 Y221.275 E13.04016
G1 X91.665 Y220.406 E13.07136
G1 X91.387 Y219.51 E13.10256
G1 X91.186 Y218.594 E13.13375
G1 X91.034 Y217.204 E13.18026
G1 X91.028 Y217.073 E13.18462
G1 X91.016 Y216.675 E13.19787
G1 X91.012 Y216.254 E13.21187
G1 X91.013 Y181.629 E14.3635
G1 X91.024 Y180.923 E14.38699
G1 X91.079 Y179.986 E14.4182
G1 X91.213 Y179.058 E14.44939
G1 X91.332 Y178.504 E14.46824
G1 X91.387 Y178.277 E14.47601
G1 X91.955 Y175.816 E14.56001
G1 X92.46 Y173.302 E14.6453
G1 X92.884 Y170.835 E14.72855
G1 X93.239 Y168.348 E14.81211
G1 X93.522 Y165.865 E14.89523
G1 X93.738 Y163.332 E14.97978
G1 X93.882 Y160.815 E15.06363
G1 X93.953 Y158.327 E15.14642
G1 X93.955 Y155.802 E15.2304
G1 X93.884 Y153.281 E15.31428
G1 X93.743 Y150.765 E15.3981
G1 X93.528 Y148.235 E15.48255
G1 X93.248 Y145.758 E15.56546
G1 X92.892 Y143.251 E15.64968
G1 X92.471 Y140.789 E15.73275
G1 X91.976 Y138.313 E15.81674
G1 X91.419 Y135.888 E15.89949
G1 X90.782 Y133.436 E15.98375
G1 X90.066 Y130.968 E16.06922
G1 X89.467 Y129.083 E16.13501
G1 X89.298 Y128.571 E16.15294
G1 X89.042 Y127.668 E16.18416
G1 X88.864 Y126.748 E16.21532
G1 X88.756 Y125.628 E16.25275
G1 X88.75 Y125.497 E16.25711
G1 X88.738 Y125.098 E16.27039
G1 X88.734 Y124.673 E16.28452
G1 X88.735 Y90.065 E17.43559
G1 X88.745 Y89.363 E17.45894
G1 X88.798 Y88.427 E17.49012
G1 X88.931 Y87.499 E17.5213
G1 X89.143 Y86.585 E17.55251
G1 X89.431 Y85.692 E17.58372
G1 X89.795 Y84.828 E17.6149
G1 X90.231 Y83.997 E17.64611
G1 X90.736 Y83.207 E17.6773
G1 X91.306 Y82.463 E17.70847
G1 X91.678 Y82.041 E17.72718
G0 F6000 X91.971 Y82.313
G1 F1200 X92.111 Y82.162 E17.73403
G1 X92.315 Y81.948 E17.74386
G1 X92.585 Y81.674 E17.75666
G1 X113.541 Y60.697 E18.74286
G1 X114.041 Y60.21 E18.76607
G1 X114.728 Y59.596 E18.79672
G1 X115.465 Y59.045 E18.82733
G1 X116.248 Y58.56 E18.85796
G1 X117.069 Y58.145 E18.88856
G1 X117.924 Y57.802 E18.9192
G1 X118.805 Y57.535 E18.94981
G1 X119.706 Y57.345 E18.98044
G1 X121.079 Y57.209 E19.02633
G1 X121.576 Y57.195 E19.04287
G1 X122.008 Y57.191 E19.05724
G1 X163.303 Y57.191 E20.43071
G1 X164.155 Y57.202 E20.45905
G1 X165.074 Y57.255 E20.48967
G1 X165.985 Y57.388 E20.52029
G1 X166.881 Y57.599 E20.55091
G1 X167.756 Y57.887 E20.58155
G1 X168.602 Y58.25 E20.61217
G1 X169.413 Y58.685 E20.64277
G1 X170.184 Y59.189 E20.67341
G1 X171.153 Y59.975 E20.71491
G1 X171.257 Y60.07 E20.71959
G1 X171.533 Y60.331 E20.73223
G1 X171.933 Y60.725 E20.7509
G1 X192.826 Y81.64 E21.73416
G1 X193.305 Y82.133 E21.75703
G1 X193.917 Y82.821 E21.78765
G1 X194.467 Y83.559 E21.81826
G1 X194.951 Y84.342 E21.84888
G1 X195.366 Y85.164 E21.87951
G1 X195.707 Y86.019 E21.91012
G1 X195.973 Y86.901 E21.94076
G1 X196.162 Y87.802 E21.97138
G1 X196.294 Y89.113 E22.01521
G1 X196.307 Y89.549 E22.02972
G1 X196.311 Y89.97 E22.04372
G1 X196.31 Y124.585 E23.19502
G1 X196.299 Y125.292 E23.21854
G1 X196.244 Y126.211 E23.24916
G1 X196.111 Y127.122 E23.27978
G1 X195.996 Y127.648 E23.29769
G1 X195.961 Y127.79 E23.30255
G1 X195.363 Y130.387 E23.39119
G1 X194.868 Y132.842 E23.47448
G1 X194.44 Y135.351 E23.55914
G1 X194.088 Y137.817 E23.64199
G1 X193.801 Y140.336 E23.72632
G1 X193.585 Y142.869 E23.81087
G1 X193.442 Y145.384 E23.89465
G1 X193.369 Y147.928 E23.9793
G1 X193.369 Y150.439 E24.06282
G1 X193.44 Y152.988 E24.14763
G1 X193.581 Y155.492 E24.23105
G1 X193.796 Y158.025 E24.3156
G1 X194.077 Y160.499 E24.39841
G1 X194.44 Y163.054 E24.48424
G1 X194.864 Y165.529 E24.56776
G1 X195.35 Y167.966 E24.65041
G1 X195.93 Y170.486 E24.73642
G1 X196.557 Y172.896 E24.81925
G1 X197.275 Y175.373 E24.90502
G1 X197.866 Y177.233 E24.96993
G1 X198.045 Y177.775 E24.98892
G1 X198.295 Y178.661 E25.01954
G1 X198.468 Y179.565 E25.05015
G1 X198.571 Y180.693 E25.08782
G1 X198.584 Y181.127 E25.10227
G1 X198.588 Y181.548 E25.11627
G1 X198.587 Y216.149 E26.2671
G1 X198.577 Y216.851 E26.29045
G1 X198.524 Y217.77 E26.32107
G1 X198.391 Y218.681 E26.35169
G1 X198.18 Y219.577 E26.38231
G1 X197.892 Y220.452 E26.41295
G1 X197.529 Y221.298 E26.44357
G1 X197.094 Y222.109 E26.47417
G1 X196.59 Y222.88 E26.50481
G1 X195.751 Y223.907 E26.54892
G1 X195.611 Y224.058 E26.55577
G1 X195.407 Y224.272 E26.5656
G1 X195.137 Y224.546 E26.5784
G1 X174.217 Y245.487 E27.5629
G1 X173.685 Y246.006 E27.58762
G1 X172.999 Y246.62 E27.61824
G1 X172.262 Y247.172 E27.64887
G1 X171.48 Y247.658 E27.67949
G1 X170.658 Y248.074 E27.71013
G1 X169.804 Y248.417 E27.74074
G1 X168.923 Y248.685 E27.77137
G1 X168.023 Y248.875 E27.80196
G1 X167.109 Y248.987 E27.83259
G1 X166.627 Y249.013 E27.84865
G1 X166.252 Y249.023 E27.86112
G1 X165.697 Y249.029 E27.87958
G1 X124.269 Y249.028 E29.25749
G1 X123.567 Y249.018 E29.28084
G1 X122.648 Y248.965 E29.31145
G1 X121.737 Y248.832 E29.34207
G1 X120.841 Y248.621 E29.37269
G1 X119.966 Y248.333 E29.40333
G1 X119.12 Y247.97 E29.43395
G1 X118.309 Y247.535 E29.46456
G1 X117.538 Y247.031 E29.49519
G1 X116.516 Y246.197 E29.53907
G1 X116.408 Y246.097 E29.54396
G1 X116.189 Y245.888 E29.55403
G1 X115.754 Y245.46 E29.57433
G1 X94.89 Y224.573 E30.55625
G1 X94.412 Y224.08 E30.57909
G1 X93.8 Y223.391 E30.60974
G1 X93.251 Y222.653 E30.64033
G1 X92.767 Y221.869 E30.67098
G1 X92.354 Y221.047 E30.70157
G1 X92.013 Y220.191 E30.73222
G1 X91.748 Y219.31 E30.76282
G1 X91.56 Y218.408 E30.79346
G1 X91.433 Y217.186 E30.83433
G1 X91.427 Y217.055 E30.83869
G1 X91.416 Y216.671 E30.85147
G1 X91.412 Y216.25 E30.86547
G1 X91.413 Y181.635 E32.01677
G1 X91.424 Y180.929 E32.04025
G1 X91.479 Y180.01 E32.07087
G1 X91.612 Y179.099 E32.10149
G1 X91.721 Y178.598 E32.11855
G1 X92.359 Y175.839 E32.21273
G1 X92.847 Y173.412 E32.29507
G1 X93.279 Y170.893 E32.38008
G1 X93.634 Y168.413 E32.4634
G1 X93.923 Y165.873 E32.54843
G1 X94.135 Y163.388 E32.63138
G1 X94.28 Y160.85 E32.71593
G1 X94.353 Y158.303 E32.80068
G1 X94.355 Y155.791 E32.88423
G1 X94.284 Y153.248 E32.96884
G1 X94.143 Y150.743 E33.05229
G1 X93.929 Y148.228 E33.13624
G1 X93.643 Y145.694 E33.22106
G1 X93.289 Y143.199 E33.30488
G1 X92.864 Y140.716 E33.38866
G1 X92.363 Y138.21 E33.47366
G1 X91.81 Y135.802 E33.55584
G1 X91.161 Y133.305 E33.64165
G1 X90.46 Y130.887 E33.72538
G1 X89.832 Y128.912 E33.79431
G1 X89.678 Y128.446 E33.81063
G1 X89.427 Y127.56 E33.84126
G1 X89.255 Y126.655 E33.8719
G1 X89.155 Y125.61 E33.90682
G1 X89.149 Y125.479 E33.91118
G1 X89.138 Y125.094 E33.92399
G1 X89.134 Y124.669 E33.93812
G1 X89.135 Y90.071 E35.08886
G1 X89.145 Y89.369 E35.11221
G1 X89.198 Y88.45 E35.14283
G1 X89.331 Y87.539 E35.17345
G1 X89.542 Y86.643 E35.20406
G1 X89.83 Y85.768 E35.2347
G1 X90.193 Y84.922 E35.26532
G1 X90.628 Y84.111 E35.29593
G1 X91.132 Y83.34 E35.32657
G1 X91.971 Y82.313 E35.37067
G0 F6000 X92.264 Y82.585
G1 F1200 X92.404 Y82.434 E35.37752
G1 X92.6 Y82.228 E35.38698
G1 X92.868 Y81.956 E35.39968
G1 X113.82 Y60.983 E36.38569
G1 X114.32 Y60.496 E36.40891
G1 X114.994 Y59.895 E36.43894
G1 X115.719 Y59.356 E36.46899
G1 X116.489 Y58.884 E36.49903
G1 X117.297 Y58.481 E36.52906
G1 X118.138 Y58.151 E36.55911
G1 X119.004 Y57.897 E36.58913
G1 X119.89 Y57.721 E36.61917
G1 X121.093 Y57.609 E36.65935
G1 X121.58 Y57.595 E36.67556
G1 X122.012 Y57.591 E36.68993
G1 X163.303 Y57.591 E38.06327
G1 X164.149 Y57.602 E38.09141
G1 X165.051 Y57.655 E38.12147
G1 X165.944 Y57.787 E38.15149
G1 X166.823 Y57.998 E38.18156
G1 X167.679 Y58.286 E38.21159
G1 X168.506 Y58.648 E38.24162
G1 X169.298 Y59.082 E38.27166
G1 X170.048 Y59.585 E38.30169
G1 X170.883 Y60.27 E38.33762
G1 X170.987 Y60.365 E38.3423
G1 X171.253 Y60.617 E38.35449
G1 X171.65 Y61.007 E38.373
G1 X192.539 Y81.919 E39.35609
G1 X193.018 Y82.412 E39.37896
G1 X193.618 Y83.087 E39.40899
G1 X194.156 Y83.812 E39.43902
G1 X194.627 Y84.583 E39.46907
G1 X195.029 Y85.391 E39.49909
G1 X195.358 Y86.233 E39.52915
G1 X195.611 Y87.1 E39.55919
G1 X195.786 Y87.985 E39.5892
G1 X195.894 Y89.128 E39.62738
G1 X195.907 Y89.553 E39.64153
G1 X195.911 Y89.974 E39.65553
G1 X195.91 Y124.579 E40.8065
G1 X195.899 Y125.286 E40.83001
G1 X195.845 Y126.187 E40.86004
G1 X195.711 Y127.08 E40.89007
G1 X195.607 Y127.552 E40.90614
G1 X195.581 Y127.657 E40.90974
G1 X194.975 Y130.289 E40.99957
G1 X194.476 Y132.767 E41.08365
G1 X194.044 Y135.298 E41.16905
G1 X193.689 Y137.782 E41.2525
G1 X193.403 Y140.293 E41.33656
G1 X193.185 Y142.846 E41.42178
G1 X193.042 Y145.352 E41.50527
G1 X192.969 Y147.916 E41.59058
G1 X192.969 Y150.45 E41.67486
G1 X193.04 Y152.985 E41.75921
G1 X193.182 Y155.515 E41.84349
G1 X193.399 Y158.067 E41.92868
G1 X193.687 Y160.603 E42.01357
G1 X194.038 Y163.073 E42.09654
G1 X194.469 Y165.597 E42.18171
G1 X194.963 Y168.069 E42.26555
G1 X195.539 Y170.572 E42.35098
G1 X196.172 Y173.003 E42.43453
G1 X196.89 Y175.48 E42.52031
G1 X197.493 Y177.38 E42.58661
G1 X197.665 Y177.9 E42.60482
G1 X197.91 Y178.77 E42.63489
G1 X198.077 Y179.657 E42.66491
G1 X198.172 Y180.708 E42.7
G1 X198.184 Y181.131 E42.71408
G1 X198.188 Y181.552 E42.72808
G1 X198.187 Y216.143 E43.87858
G1 X198.177 Y216.845 E43.90193
G1 X198.124 Y217.747 E43.93199
G1 X197.992 Y218.64 E43.96201
G1 X197.781 Y219.518 E43.99204
G1 X197.493 Y220.374 E44.02208
G1 X197.131 Y221.202 E44.05214
G1 X196.697 Y221.994 E44.08218
G1 X196.194 Y222.744 E44.11221
G1 X195.458 Y223.635 E44.15065
G1 X195.318 Y223.786 E44.1575
G1 X195.122 Y223.992 E44.16696
G1 X194.854 Y224.264 E44.17966
G1 X173.938 Y245.201 E45.16398
G1 X173.406 Y245.72 E45.1887
G1 X172.732 Y246.322 E45.21875
G1 X172.008 Y246.861 E45.24877
G1 X171.239 Y247.334 E45.2788
G1 X170.431 Y247.738 E45.30885
G1 X169.59 Y248.068 E45.3389
G1 X168.724 Y248.323 E45.36892
G1 X167.838 Y248.5 E45.39897
G1 X166.614 Y248.614 E45.43986
G1 X166.247 Y248.623 E45.45207
G1 X165.697 Y248.629 E45.47036
G1 X124.275 Y248.628 E46.84807
G1 X123.573 Y248.618 E46.87142
G1 X122.671 Y248.565 E46.90147
G1 X121.778 Y248.433 E46.93149
G1 X120.9 Y248.222 E46.96153
G1 X120.044 Y247.934 E46.99157
G1 X119.216 Y247.572 E47.02162
G1 X118.424 Y247.138 E47.05166
G1 X117.674 Y246.635 E47.0817
G1 X116.788 Y245.903 E47.11992
G1 X116.469 Y245.603 E47.13448
G1 X116.037 Y245.178 E47.15464
G1 X95.177 Y224.294 E48.1364
G1 X94.699 Y223.801 E48.15924
G1 X94.1 Y223.126 E48.18925
G1 X93.562 Y222.4 E48.21931
G1 X93.091 Y221.629 E48.24936
G1 X92.691 Y220.82 E48.27937
G1 X92.363 Y219.978 E48.30943
G1 X92.111 Y219.111 E48.33946
G1 X91.936 Y218.225 E48.36949
G1 X91.833 Y217.168 E48.40482
G1 X91.827 Y217.037 E48.40918
G1 X91.816 Y216.667 E48.42149
G1 X91.812 Y216.246 E48.43549
G1 X91.813 Y181.641 E49.58646
G1 X91.824 Y180.935 E49.60995
G1 X91.878 Y180.034 E49.63997
G1 X92.012 Y179.14 E49.67003
G1 X92.11 Y178.692 E49.68529
G1 X92.746 Y175.943 E49.77913
G1 X93.239 Y173.486 E49.86248
G1 X93.677 Y170.94 E49.94841
G1 X94.028 Y168.482 E50.03099
G1 X94.32 Y165.913 E50.11698
G1 X94.537 Y163.377 E50.20164
G1 X94.679 Y160.885 E50.28466
G1 X94.753 Y158.315 E50.37017
G1 X94.755 Y155.78 E50.45449
G1 X94.684 Y153.249 E50.5387
G1 X94.542 Y150.722 E50.62288
G1 X94.324 Y148.15 E50.70873
G1 X94.042 Y145.664 E50.79195
G1 X93.685 Y143.141 E50.8767
G1 X93.257 Y140.641 E50.96106
G1 X92.76 Y138.155 E51.04538
G1 X92.191 Y135.677 E51.12995
G1 X91.546 Y133.198 E51.21514
G1 X90.845 Y130.78 E51.29888
G1 X90.23 Y128.844 E51.36644
G1 X90.057 Y128.32 E51.38479
G1 X89.813 Y127.451 E51.41481
G1 X89.646 Y126.563 E51.44487
G1 X89.555 Y125.592 E51.4773
G1 X89.549 Y125.461 E51.48167
G1 X89.538 Y125.09 E51.49401
G1 X89.534 Y124.665 E51.50815
G1 X89.535 Y90.077 E52.65855
G1 X89.545 Y89.375 E52.6819
G1 X89.598 Y88.473 E52.71195
G1 X89.73 Y87.58 E52.74198
G1 X89.941 Y86.702 E52.77201
G1 X90.229 Y85.846 E52.80205
G1 X90.591 Y85.018 E52.8321
G1 X91.025 Y84.226 E52.86214
G1 X91.528 Y83.476 E52.89218
G1 X92.264 Y82.585 E52.93062
G1 F3600 E47.93062
;MESH:battery-stack-assembly_plate.stl
G0 F6000 X138.583 Y107.321
G0 X136.704 Y107.321
G0 X138.469 Y110.411
G0 X139.633 Y111.574
G0 X142.722 Y113.147
;TYPE:WALL-INNER
G1 F3600 E52.93062
