;FLAVOR:Marlin
;TIME:8244
;Filament used: 4.99916m
;Layer height: 0.2
;MINX:54.52
;MINY:59.577
;MINZ:0.2
;MAXX:171.327
;MAXY:156.519
;MAXZ:31.2
;Generated with Creality Slicer 4.8.2-254
M140 S60
M105
M190 S60
M104 S200
M105
M109 S200
M82 ;absolute extrusion mode

G28 ;Home

G92 E0 ;Reset Extruder
G1 Z2.0 F3000 ;Move Z Axis up
G1 X10.1 Y20 Z0.28 F5000.0 ;Move to start position
G1 X10.1 Y200.0 Z0.28 F1500.0 E15 ;Draw the first line
G1 X10.4 Y200.0 Z0.28 F5000.0 ;Move to side a little
G1 X10.4 Y20 Z0.28 F1500.0 E30 ;Draw the second line
G92 E0 ;Reset Extruder
G1 Z2.0 F3000 ;Move Z Axis up

G92 E0
G92 E0
G1 F3600 E-5
;LAYER_COUNT:156
;LAYER:0
M107
G0 F6000 X57.373 Y62.144 Z0.2
;TYPE:SKIRT
G1 F3600 E0
G1 F1200 X57.959 Y61.614 E0.02628
G1 X58.355 Y61.311 E0.04286
G1 X59.019 Y60.883 E0.06914
G1 X59.371 Y60.691 E0.08247
G1 X59.734 Y60.506 E0.09603
G1 X60.668 Y60.105 E0.12983
G1 X60.699 Y60.094 E0.13093
G1 X61.455 Y59.868 E0.15717
G1 X62.114 Y59.737 E0.17952
G1 X62.547 Y59.67 E0.19409
G1 X63.333 Y59.589 E0.22037
G1 X63.739 Y59.578 E0.23388
G1 X70.43 Y59.577 E0.45642
G1 X71.555 Y59.658 E0.49394
G1 X71.816 Y59.696 E0.50271
G1 X72.59 Y59.85 E0.52896
G1 X73.346 Y60.08 E0.55524
G1 X73.904 Y60.307 E0.57528
G1 X74.143 Y60.415 E0.584
G1 X74.845 Y60.776 E0.61026
G1 X75.507 Y61.207 E0.63653
G1 X76.012 Y61.605 E0.65792
G1 X76.21 Y61.775 E0.6666
G1 X76.782 Y62.319 E0.69285
G1 X77.297 Y62.918 E0.71912
G1 X77.729 Y63.536 E0.7442
G1 X77.872 Y63.763 E0.75313
G1 X78.258 Y64.451 E0.77936
G1 X78.573 Y65.175 E0.80563
G1 X78.783 Y65.817 E0.82809
G1 X78.853 Y66.067 E0.83673
G1 X79.027 Y66.837 E0.86298
G1 X79.123 Y67.621 E0.88925
G1 X79.141 Y68.318 E0.91244
G1 X79.136 Y68.582 E0.92123
G1 X79.081 Y69.369 E0.94747
G1 X78.946 Y70.148 E0.97376
G1 X78.771 Y70.795 E0.99605
G1 X78.69 Y71.05 E1.00495
G1 X78.413 Y71.79 E1.03123
G1 X78.063 Y72.498 E1.0575
G1 X77.669 Y73.129 E1.08224
G1 X77.516 Y73.35 E1.09118
G1 X77.209 Y73.763 E1.1083
G1 X76.635 Y74.486 E1.139
G1 X76.494 Y74.82 E1.15106
G1 X76.485 Y75.204 E1.16384
G1 X76.611 Y75.547 E1.17599
G1 X76.861 Y75.832 E1.1886
G1 X77.194 Y76.003 E1.20105
G1 X78.092 Y76.185 E1.23153
G1 X78.484 Y76.275 E1.2449
G1 X78.733 Y76.339 E1.25345
G1 X79.487 Y76.574 E1.27972
G1 X80.213 Y76.884 E1.30598
G1 X80.71 Y77.149 E1.32471
G1 X80.932 Y77.278 E1.33325
G1 X81.594 Y77.709 E1.35952
G1 X82.209 Y78.204 E1.38578
G1 X82.754 Y78.742 E1.41125
G1 X82.937 Y78.941 E1.42024
G1 X83.442 Y79.549 E1.44653
G1 X83.882 Y80.204 E1.47278
G1 X84.214 Y80.817 E1.49596
G1 X84.328 Y81.052 E1.50465
G1 X84.636 Y81.779 E1.53091
G1 X84.869 Y82.533 E1.55716
G1 X85 Y83.151 E1.57817
G1 X85.046 Y83.422 E1.58731
G1 X85.139 Y84.206 E1.61357
G1 X85.156 Y84.726 E1.63088
G1 X85.157 Y91.524 E1.85698
G1 X85.117 Y92.313 E1.88326
G1 X85.055 Y92.783 E1.89902
G1 X84.988 Y93.193 E1.91284
G1 X84.79 Y94.078 E1.943
G1 X84.782 Y94.106 E1.94397
G1 X84.527 Y94.853 E1.97023
G1 X84.239 Y95.489 E1.99345
G1 X84.054 Y95.854 E2.00706
G1 X83.662 Y96.54 E2.03334
G1 X83.288 Y97.073 E2.05499
G1 X82.593 Y97.868 E2.09011
G1 X82.303 Y98.158 E2.10375
G1 X81.717 Y98.688 E2.13003
G1 X81.321 Y98.991 E2.14662
G1 X80.657 Y99.419 E2.17289
G1 X80.305 Y99.611 E2.18623
G1 X79.942 Y99.796 E2.19978
G1 X79.008 Y100.197 E2.23359
G1 X78.977 Y100.208 E2.23468
G1 X78.221 Y100.434 E2.26093
G1 X77.564 Y100.565 E2.28321
G1 X77.132 Y100.632 E2.29775
G1 X76.347 Y100.713 E2.324
G1 X75.937 Y100.724 E2.33764
G1 X67.438 Y100.724 E2.62032
G1 X66.649 Y100.684 E2.64659
G1 X66.183 Y100.622 E2.66223
G1 X65.772 Y100.555 E2.67608
G1 X64.811 Y100.336 E2.70886
G1 X64.039 Y100.065 E2.73607
G1 X63.452 Y99.795 E2.75756
G1 X63.082 Y99.606 E2.77138
G1 X62.072 Y98.99 E2.81073
G1 X62.047 Y98.972 E2.81175
G1 X61.431 Y98.479 E2.838
G1 X61.09 Y98.157 E2.85359
G1 X60.806 Y97.873 E2.86695
G1 X60.276 Y97.287 E2.89323
G1 X59.954 Y96.864 E2.91091
G1 X59.348 Y95.864 E2.9498
G1 X59.163 Y95.5 E2.96339
G1 X58.742 Y94.509 E2.9992
G1 X58.732 Y94.48 E3.00022
G1 X58.513 Y93.721 E3.02649
G1 X58.399 Y93.138 E3.04625
G1 X58.332 Y92.708 E3.06072
G1 X58.25 Y91.922 E3.08701
G1 X58.239 Y91.508 E3.10078
G1 X58.238 Y86.26 E3.27533
G1 X57.215 Y85.237 E3.32345
G1 X56.527 Y84.45 E3.35822
G1 X56.315 Y84.172 E3.36985
G1 X55.802 Y83.41 E3.4004
G1 X55.789 Y83.388 E3.40125
G1 X55.298 Y82.406 E3.43777
G1 X55.165 Y82.085 E3.44932
G1 X54.824 Y81.068 E3.485
G1 X54.818 Y81.045 E3.48579
G1 X54.628 Y80.062 E3.51909
G1 X54.583 Y79.709 E3.53093
G1 X54.52 Y78.723 E3.56379
G1 X54.52 Y68.777 E3.89459
G1 X54.56 Y67.988 E3.92087
G1 X54.622 Y67.522 E3.9365
G1 X54.689 Y67.111 E3.95035
G1 X54.908 Y66.15 E3.98314
G1 X55.179 Y65.378 E4.01035
G1 X55.445 Y64.798 E4.03157
G1 X55.631 Y64.433 E4.0452
G1 X56.234 Y63.44 E4.08384
G1 X56.254 Y63.412 E4.08498
G1 X56.745 Y62.794 E4.11123
G1 X57.086 Y62.431 E4.1278
G1 X57.373 Y62.144 E4.1413
G0 F6000 X57.655 Y62.426
G1 F1200 X58.227 Y61.912 E4.16688
G1 X58.589 Y61.636 E4.18202
G1 X59.553 Y61.048 E4.21957
G1 X59.916 Y60.863 E4.23312
G1 X60.801 Y60.482 E4.26517
G1 X60.832 Y60.471 E4.26627
G1 X61.57 Y60.252 E4.29187
G1 X62.175 Y60.132 E4.31238
G1 X62.608 Y60.065 E4.32696
G1 X63.739 Y59.978 E4.36469
G1 X70.43 Y59.977 E4.58723
G1 X71.497 Y60.054 E4.62281
G1 X71.758 Y60.092 E4.63158
G1 X72.512 Y60.242 E4.65715
G1 X73.247 Y60.47 E4.68275
G1 X73.739 Y60.672 E4.70044
G1 X73.978 Y60.78 E4.70916
G1 X74.662 Y61.132 E4.73475
G1 X75.305 Y61.554 E4.76033
G1 X75.752 Y61.909 E4.77931
G1 X75.95 Y62.079 E4.78799
G1 X76.506 Y62.609 E4.81354
G1 X77.005 Y63.195 E4.83914
G1 X77.39 Y63.749 E4.86158
G1 X77.533 Y63.976 E4.8705
G1 X77.909 Y64.647 E4.89608
G1 X78.213 Y65.354 E4.92168
G1 X78.398 Y65.925 E4.94164
G1 X78.468 Y66.175 E4.95028
G1 X78.637 Y66.925 E4.97585
G1 X78.726 Y67.689 E5.00143
G1 X78.741 Y68.31 E5.02209
G1 X78.736 Y68.574 E5.03087
G1 X78.681 Y69.341 E5.05645
G1 X78.547 Y70.099 E5.08205
G1 X78.39 Y70.674 E5.10188
G1 X78.309 Y70.929 E5.11078
G1 X78.038 Y71.649 E5.13636
G1 X77.694 Y72.337 E5.16195
G1 X77.34 Y72.901 E5.1841
G1 X77.187 Y73.122 E5.19304
G1 X76.896 Y73.514 E5.20927
G1 X76.297 Y74.267 E5.24128
G1 X76.176 Y74.496 E5.24989
G1 X76.1 Y74.741 E5.25842
G1 X76.07 Y75.008 E5.26736
G1 X76.089 Y75.269 E5.27606
G1 X76.153 Y75.514 E5.28448
G1 X76.269 Y75.759 E5.2935
G1 X76.417 Y75.962 E5.30186
G1 X76.614 Y76.148 E5.31087
G1 X76.829 Y76.286 E5.31936
G1 X77.082 Y76.389 E5.32845
G1 X78.012 Y76.577 E5.36001
G1 X78.384 Y76.662 E5.3727
G1 X78.633 Y76.726 E5.38125
G1 X79.367 Y76.956 E5.40683
G1 X80.073 Y77.261 E5.43241
G1 X80.509 Y77.495 E5.44887
G1 X80.731 Y77.624 E5.45741
G1 X81.375 Y78.044 E5.48298
G1 X81.972 Y78.529 E5.50857
G1 X82.46 Y79.013 E5.53143
G1 X82.643 Y79.212 E5.54042
G1 X83.133 Y79.804 E5.56598
G1 X83.56 Y80.445 E5.59159
G1 X83.854 Y80.991 E5.61222
G1 X83.968 Y81.226 E5.62091
G1 X84.267 Y81.935 E5.6465
G1 X84.491 Y82.671 E5.67209
G1 X84.606 Y83.218 E5.69068
G1 X84.652 Y83.489 E5.69982
G1 X84.741 Y84.253 E5.7254
G1 X84.756 Y84.726 E5.74114
G1 X84.757 Y91.524 E5.96725
G1 X84.717 Y92.292 E5.99283
G1 X84.66 Y92.718 E6.00712
G1 X84.593 Y93.128 E6.02094
G1 X84.405 Y93.968 E6.04957
G1 X84.397 Y93.996 E6.05054
G1 X84.148 Y94.724 E6.07613
G1 X83.883 Y95.308 E6.09746
G1 X83.698 Y95.673 E6.11107
G1 X83.315 Y96.341 E6.13668
G1 X82.97 Y96.831 E6.15661
G1 X82.311 Y97.586 E6.18994
G1 X82.021 Y97.876 E6.20358
G1 X81.449 Y98.39 E6.22916
G1 X81.087 Y98.666 E6.2443
G1 X80.123 Y99.254 E6.28186
G1 X79.76 Y99.439 E6.29541
G1 X78.875 Y99.82 E6.32745
G1 X78.844 Y99.831 E6.32855
G1 X78.106 Y100.05 E6.35415
G1 X77.503 Y100.17 E6.3746
G1 X77.071 Y100.237 E6.38914
G1 X75.937 Y100.324 E6.42697
G1 X67.438 Y100.324 E6.70965
G1 X66.67 Y100.284 E6.73523
G1 X66.247 Y100.228 E6.74942
G1 X65.836 Y100.161 E6.76327
G1 X64.925 Y99.952 E6.79435
G1 X64.173 Y99.688 E6.82086
G1 X63.634 Y99.439 E6.84061
G1 X63.264 Y99.25 E6.85443
G1 X62.306 Y98.665 E6.89176
G1 X62.281 Y98.647 E6.89279
G1 X61.681 Y98.166 E6.91837
G1 X61.372 Y97.875 E6.93248
G1 X61.088 Y97.591 E6.94584
G1 X60.574 Y97.019 E6.97142
G1 X60.279 Y96.631 E6.98763
G1 X59.704 Y95.683 E7.02451
G1 X59.519 Y95.319 E7.03809
G1 X59.12 Y94.378 E7.07208
G1 X59.11 Y94.349 E7.0731
G1 X58.898 Y93.61 E7.09867
G1 X58.794 Y93.076 E7.11677
G1 X58.727 Y92.646 E7.13124
G1 X58.639 Y91.508 E7.16921
G1 X58.638 Y86.095 E7.34924
G1 X57.497 Y84.954 E7.40291
G1 X56.845 Y84.207 E7.43589
G1 X56.633 Y83.929 E7.44752
G1 X56.146 Y83.207 E7.47648
G1 X56.133 Y83.185 E7.47733
G1 X55.668 Y82.253 E7.51198
G1 X55.535 Y81.932 E7.52353
G1 X55.211 Y80.967 E7.55739
G1 X55.205 Y80.944 E7.55818
G1 X55.024 Y80.012 E7.58976
G1 X54.979 Y79.659 E7.60159
G1 X54.92 Y78.723 E7.63279
G1 X54.92 Y68.777 E7.96359
G1 X54.96 Y68.009 E7.98917
G1 X55.016 Y67.586 E8.00336
G1 X55.083 Y67.175 E8.01721
G1 X55.292 Y66.264 E8.0483
G1 X55.556 Y65.512 E8.07481
G1 X55.802 Y64.979 E8.09433
G1 X55.988 Y64.614 E8.10796
G1 X56.559 Y63.673 E8.14457
G1 X56.579 Y63.645 E8.14571
G1 X57.058 Y63.043 E8.1713
G1 X57.368 Y62.713 E8.18636
G1 X57.655 Y62.426 E8.19986
G0 F6000 X57.938 Y62.709
G1 F1200 X58.495 Y62.209 E8.22475
G1 X58.823 Y61.96 E8.23845
G1 X59.734 Y61.404 E8.27395
G1 X60.097 Y61.219 E8.2875
G1 X60.935 Y60.859 E8.31783
G1 X60.966 Y60.848 E8.31893
G1 X61.683 Y60.636 E8.3438
G1 X62.237 Y60.527 E8.36258
G1 X62.67 Y60.46 E8.37715
G1 X63.739 Y60.378 E8.41281
G1 X70.43 Y60.377 E8.63535
G1 X71.44 Y60.45 E8.66903
G1 X71.701 Y60.488 E8.6778
G1 X72.434 Y60.635 E8.70267
G1 X73.148 Y60.86 E8.72757
G1 X73.575 Y61.036 E8.74293
G1 X73.814 Y61.144 E8.75165
G1 X74.478 Y61.488 E8.77653
G1 X75.102 Y61.901 E8.80141
G1 X75.491 Y62.212 E8.81798
G1 X75.689 Y62.382 E8.82666
G1 X76.23 Y62.899 E8.85155
G1 X76.712 Y63.471 E8.87643
G1 X77.052 Y63.962 E8.89629
G1 X77.195 Y64.189 E8.90521
G1 X77.559 Y64.842 E8.93008
G1 X77.852 Y65.531 E8.95498
G1 X78.013 Y66.033 E8.97251
G1 X78.083 Y66.283 E8.98115
G1 X78.246 Y67.013 E9.00603
G1 X78.33 Y67.756 E9.0309
G1 X78.341 Y68.303 E9.04909
G1 X78.336 Y68.567 E9.05788
G1 X78.282 Y69.313 E9.08275
G1 X78.148 Y70.049 E9.10764
G1 X78.009 Y70.553 E9.12502
G1 X77.928 Y70.808 E9.13392
G1 X77.663 Y71.508 E9.15882
G1 X77.326 Y72.176 E9.1837
G1 X77.011 Y72.673 E9.20327
G1 X76.858 Y72.894 E9.21221
G1 X76.583 Y73.265 E9.22757
G1 X75.963 Y74.046 E9.26074
G1 X75.805 Y74.344 E9.27196
G1 X75.708 Y74.658 E9.28289
G1 X75.669 Y75.002 E9.2944
G1 X75.693 Y75.336 E9.30554
G1 X75.775 Y75.65 E9.31634
G1 X75.923 Y75.962 E9.32782
G1 X76.119 Y76.232 E9.33892
G1 X76.363 Y76.461 E9.35005
G1 X76.65 Y76.646 E9.3614
G1 X76.963 Y76.772 E9.37263
G1 X77.933 Y76.969 E9.40555
G1 X78.285 Y77.049 E9.41755
G1 X78.534 Y77.113 E9.4261
G1 X79.247 Y77.338 E9.45097
G1 X79.933 Y77.638 E9.47587
G1 X80.308 Y77.841 E9.49006
G1 X80.53 Y77.97 E9.4986
G1 X81.156 Y78.379 E9.52347
G1 X81.734 Y78.854 E9.54835
G1 X82.166 Y79.284 E9.56862
G1 X82.349 Y79.483 E9.57762
G1 X82.825 Y80.06 E9.60249
G1 X83.237 Y80.684 E9.62736
G1 X83.494 Y81.166 E9.64553
G1 X83.608 Y81.401 E9.65422
G1 X83.898 Y82.09 E9.67908
G1 X84.113 Y82.807 E9.70398
G1 X84.211 Y83.285 E9.72021
G1 X84.257 Y83.556 E9.72935
G1 X84.343 Y84.299 E9.75423
G1 X84.356 Y84.726 E9.76844
G1 X84.357 Y91.524 E9.99454
G1 X84.317 Y92.271 E10.01942
G1 X84.265 Y92.654 E10.03228
G1 X84.198 Y93.064 E10.04609
G1 X84.021 Y93.858 E10.07315
G1 X84.013 Y93.886 E10.07412
G1 X83.769 Y94.593 E10.099
G1 X83.526 Y95.128 E10.11854
G1 X83.341 Y95.493 E10.13215
G1 X82.967 Y96.141 E10.15703
G1 X82.651 Y96.589 E10.17527
G1 X82.028 Y97.303 E10.20678
G1 X81.738 Y97.593 E10.22043
G1 X81.181 Y98.093 E10.24532
G1 X80.853 Y98.342 E10.25902
G1 X79.942 Y98.898 E10.29451
G1 X79.579 Y99.083 E10.30807
G1 X78.741 Y99.443 E10.3384
G1 X78.71 Y99.454 E10.3395
G1 X77.993 Y99.666 E10.36436
G1 X77.442 Y99.774 E10.38304
G1 X77.01 Y99.841 E10.39758
G1 X75.937 Y99.924 E10.43337
G1 X67.438 Y99.924 E10.71605
G1 X66.691 Y99.884 E10.74093
G1 X66.312 Y99.833 E10.75365
G1 X65.901 Y99.766 E10.7675
G1 X65.038 Y99.569 E10.79694
G1 X65.011 Y99.561 E10.79788
G1 X64.307 Y99.31 E10.82274
G1 X63.816 Y99.083 E10.84073
G1 X63.446 Y98.894 E10.85455
G1 X62.54 Y98.341 E10.88985
G1 X62.515 Y98.323 E10.89088
G1 X61.932 Y97.854 E10.91576
G1 X61.655 Y97.592 E10.92844
G1 X61.371 Y97.308 E10.9418
G1 X60.871 Y96.751 E10.9667
G1 X60.605 Y96.399 E10.98137
G1 X60.061 Y95.502 E11.01627
G1 X59.876 Y95.138 E11.02985
G1 X59.498 Y94.248 E11.06201
G1 X59.488 Y94.219 E11.06303
G1 X59.283 Y93.5 E11.08789
G1 X59.189 Y93.015 E11.10433
G1 X59.122 Y92.585 E11.1188
G1 X59.039 Y91.508 E11.15473
G1 X59.038 Y85.929 E11.34029
G1 X57.78 Y84.671 E11.39946
G1 X57.163 Y83.965 E11.43064
G1 X56.951 Y83.687 E11.44227
G1 X56.491 Y83.003 E11.46969
G1 X56.478 Y82.981 E11.47054
G1 X56.037 Y82.099 E11.50334
G1 X55.904 Y81.778 E11.51489
G1 X55.598 Y80.866 E11.54689
G1 X55.592 Y80.843 E11.54768
G1 X55.421 Y79.961 E11.57756
G1 X55.376 Y79.608 E11.58939
G1 X55.32 Y78.723 E11.61889
G1 X55.32 Y68.777 E11.94969
G1 X55.36 Y68.03 E11.97458
G1 X55.411 Y67.651 E11.98729
G1 X55.478 Y67.24 E12.00114
G1 X55.675 Y66.377 E12.03059
G1 X55.683 Y66.35 E12.03152
G1 X55.934 Y65.646 E12.05638
G1 X56.158 Y65.161 E12.07415
G1 X56.344 Y64.796 E12.08778
G1 X56.885 Y63.905 E12.12245
G1 X56.905 Y63.877 E12.12359
G1 X57.372 Y63.293 E12.14846
G1 X57.651 Y62.996 E12.16201
G1 X57.938 Y62.709 E12.17551
G0 F6000 X58.221 Y62.992
G1 F1200 X59.032 Y62.303 E12.21091
G1 X59.057 Y62.285 E12.21193
G1 X59.916 Y61.761 E12.2454
G1 X60.279 Y61.576 E12.25895
G1 X61.069 Y61.236 E12.28756
G1 X61.1 Y61.225 E12.28865
G1 X61.797 Y61.02 E12.31281
G1 X62.298 Y60.923 E12.32979
G1 X62.731 Y60.856 E12.34436
G1 X63.739 Y60.778 E12.37799
G1 X70.43 Y60.777 E12.60053
G1 X71.382 Y60.846 E12.63228
G1 X71.643 Y60.884 E12.64105
G1 X72.355 Y61.028 E12.66521
G1 X73.047 Y61.249 E12.68937
G1 X73.41 Y61.401 E12.70246
G1 X73.649 Y61.509 E12.71118
G1 X74.293 Y61.844 E12.73533
G1 X74.897 Y62.248 E12.7595
G1 X75.23 Y62.515 E12.77369
G1 X75.428 Y62.685 E12.78237
G1 X75.953 Y63.188 E12.80655
G1 X76.418 Y63.746 E12.83071
G1 X76.713 Y64.175 E12.84803
G1 X76.856 Y64.402 E12.85695
G1 X77.209 Y65.037 E12.88112
G1 X77.49 Y65.707 E12.90528
G1 X77.628 Y66.14 E12.9204
G1 X77.698 Y66.39 E12.92903
G1 X77.855 Y67.1 E12.95322
G1 X77.933 Y67.822 E12.97737
G1 X77.941 Y68.295 E12.99311
G1 X77.936 Y68.559 E13.00189
G1 X77.882 Y69.283 E13.02603
G1 X77.749 Y69.997 E13.05019
G1 X77.627 Y70.432 E13.06522
G1 X77.546 Y70.687 E13.07412
G1 X77.289 Y71.366 E13.09826
G1 X76.958 Y72.013 E13.12244
G1 X76.682 Y72.446 E13.13951
G1 X76.529 Y72.667 E13.14845
G1 X76.27 Y73.016 E13.16291
G1 X75.625 Y73.827 E13.19737
G1 X75.432 Y74.192 E13.21111
G1 X75.316 Y74.569 E13.22423
G1 X75.267 Y74.995 E13.23849
G1 X75.296 Y75.401 E13.25203
G1 X75.399 Y75.792 E13.26547
G1 X75.576 Y76.165 E13.27921
G1 X75.818 Y76.498 E13.2929
G1 X76.115 Y76.778 E13.30647
G1 X76.465 Y77.002 E13.32029
G1 X76.847 Y77.157 E13.33401
G1 X77.853 Y77.361 E13.36815
G1 X78.185 Y77.437 E13.37947
G1 X78.434 Y77.501 E13.38803
G1 X79.126 Y77.72 E13.41217
G1 X80.107 Y78.186 E13.44829
G1 X80.329 Y78.315 E13.45683
G1 X80.936 Y78.714 E13.48099
G1 X81.495 Y79.178 E13.50515
G1 X81.871 Y79.554 E13.52284
G1 X82.054 Y79.753 E13.53183
G1 X82.516 Y80.314 E13.556
G1 X82.913 Y80.923 E13.58018
G1 X83.134 Y81.34 E13.59588
G1 X83.248 Y81.575 E13.60457
G1 X83.529 Y82.245 E13.62873
G1 X83.734 Y82.942 E13.65289
G1 X83.817 Y83.352 E13.66681
G1 X83.863 Y83.623 E13.67595
G1 X83.945 Y84.344 E13.70009
G1 X83.956 Y84.726 E13.7128
G1 X83.957 Y91.524 E13.9389
G1 X83.871 Y92.589 E13.97444
G1 X83.804 Y92.999 E13.98825
G1 X83.636 Y93.748 E14.01378
G1 X83.628 Y93.776 E14.01475
G1 X83.39 Y94.463 E14.03893
G1 X83.169 Y94.947 E14.05663
G1 X82.984 Y95.312 E14.07024
G1 X82.62 Y95.941 E14.09441
G1 X82.333 Y96.347 E14.11095
G1 X81.745 Y97.02 E14.14067
G1 X81.455 Y97.31 E14.15431
G1 X80.644 Y97.999 E14.18971
G1 X80.619 Y98.017 E14.19073
G1 X79.76 Y98.541 E14.2242
G1 X79.397 Y98.726 E14.23775
G1 X78.607 Y99.066 E14.26636
G1 X78.576 Y99.077 E14.26745
G1 X77.879 Y99.282 E14.29161
G1 X77.381 Y99.379 E14.30849
G1 X76.949 Y99.446 E14.32303
G1 X75.937 Y99.524 E14.35679
G1 X67.438 Y99.524 E14.63947
G1 X66.376 Y99.438 E14.6749
G1 X65.965 Y99.371 E14.68875
G1 X65.152 Y99.185 E14.71649
G1 X65.125 Y99.177 E14.71743
G1 X64.441 Y98.933 E14.74158
