;FLAVOR:Marlin
;TIME:8253
;Filament used: 6.14318m
;Layer height: 0.16
;MINX:101.012
;MINY:104.47
;MINZ:0.2
;MAXX:208.988
;MAXY:205.53
;MAXZ:3
;Generated with Creality Slicer 4.8.2-205
M140 S60
M105
M190 S60
M104 S200
M105
M109 S200
M82 ;absolute extrusion mode

G28 ;Home

G92 E0 ;Reset Extruder
G1 Z2.0 F3000 ;Move Z Axis up
G1 X10.1 Y20 Z0.28 F5000.0 ;Move to start position
G1 X10.1 Y200.0 Z0.28 F1500.0 E15 ;Draw the first line
G1 X10.4 Y200.0 Z0.28 F5000.0 ;Move to side a little
G1 X10.4 Y20 Z0.28 F1500.0 E30 ;Draw the second line
G92 E0 ;Reset Extruder
G1 Z2.0 F3000 ;Move Z Axis up

G92 E0
G92 E0
G1 F3600 E-5
;LAYER_COUNT:16
;LAYER:0
M107
G0 F6000 X125.542 Y108.087 Z0.2
;TYPE:SKIRT
G1 F3600 E0
G1 F1200 X126.042 Y107.6 E0.02321
G1 X126.741 Y106.975 E0.0544
G1 X127.491 Y106.412 E0.08559
G1 X128.286 Y105.914 E0.11679
G1 X129.121 Y105.486 E0.148
G1 X129.989 Y105.131 E0.17919
G1 X130.884 Y104.851 E0.21038
G1 X131.799 Y104.648 E0.24156
G1 X132.729 Y104.524 E0.27276
G1 X133.36 Y104.486 E0.29379
G1 X133.744 Y104.476 E0.30656
G1 X134.303 Y104.47 E0.32516
G1 X175.58 Y104.47 E1.69804
G1 X176.439 Y104.481 E1.72661
G1 X177.375 Y104.534 E1.75779
G1 X178.303 Y104.667 E1.78897
G1 X179.217 Y104.879 E1.82018
G1 X180.11 Y105.167 E1.85139
G1 X180.974 Y105.531 E1.88257
G1 X181.805 Y105.967 E1.91378
G1 X182.595 Y106.472 E1.94497
G1 X183.339 Y107.042 E1.97614
G1 X183.752 Y107.406 E1.99445
G1 X184.094 Y107.728 E2.01007
G1 X184.493 Y108.121 E2.0287
G1 X205.397 Y129.048 E3.0125
G1 X205.876 Y129.542 E3.03539
G1 X206.5 Y130.242 E3.06658
G1 X207.061 Y130.993 E3.09776
G1 X207.557 Y131.79 E3.12898
G1 X207.983 Y132.625 E3.16016
G1 X208.336 Y133.494 E3.19135
G1 X208.614 Y134.39 E3.22255
G1 X208.815 Y135.306 E3.25375
G1 X208.937 Y136.236 E3.28494
G1 X208.971 Y136.776 E3.30294
G1 X208.984 Y137.224 E3.31785
G1 X208.988 Y137.645 E3.33185
G1 X208.987 Y172.256 E4.48302
G1 X208.977 Y172.958 E4.50637
G1 X208.924 Y173.894 E4.53755
G1 X208.791 Y174.822 E4.56873
G1 X208.579 Y175.736 E4.59994
G1 X208.291 Y176.629 E4.63114
G1 X207.927 Y177.493 E4.66233
G1 X207.491 Y178.324 E4.69354
G1 X206.986 Y179.114 E4.72472
G1 X206.416 Y179.858 E4.7559
G1 X206.044 Y180.28 E4.77461
G1 X205.904 Y180.431 E4.78146
G1 X205.693 Y180.653 E4.79164
G1 X205.42 Y180.93 E4.80458
G1 X184.496 Y201.875 E5.78927
G1 X183.964 Y202.394 E5.81399
G1 X183.266 Y203.019 E5.84515
G1 X182.516 Y203.583 E5.87637
G1 X181.722 Y204.081 E5.90754
G1 X180.887 Y204.51 E5.93876
G1 X180.02 Y204.866 E5.96994
G1 X179.125 Y205.147 E6.00114
G1 X178.209 Y205.35 E6.03234
G1 X177.28 Y205.475 E6.06352
G1 X176.64 Y205.514 E6.08484
G1 X176.256 Y205.524 E6.09762
G1 X175.697 Y205.53 E6.11621
G1 X134.263 Y205.529 E7.49431
G1 X133.561 Y205.519 E7.51767
G1 X132.625 Y205.466 E7.54885
G1 X131.697 Y205.333 E7.58003
G1 X130.783 Y205.121 E7.61123
G1 X129.89 Y204.833 E7.64244
G1 X129.026 Y204.469 E7.67363
G1 X128.195 Y204.033 E7.70484
G1 X127.405 Y203.528 E7.73602
G1 X126.661 Y202.958 E7.7672
G1 X126.245 Y202.591 E7.78565
G1 X125.909 Y202.275 E7.80099
G1 X125.471 Y201.844 E7.82143
G1 X104.603 Y180.952 E8.80356
G1 X104.125 Y180.459 E8.8264
G1 X103.501 Y179.759 E8.85759
G1 X102.939 Y179.007 E8.88881
G1 X102.444 Y178.211 E8.91999
G1 X102.018 Y177.376 E8.95117
G1 X101.665 Y176.507 E8.98236
G1 X101.387 Y175.611 E9.01356
G1 X101.186 Y174.695 E9.04476
G1 X101.034 Y173.305 E9.09126
G1 X101.028 Y173.174 E9.09562
G1 X101.016 Y172.776 E9.10887
G1 X101.012 Y172.355 E9.12287
G1 X101.013 Y137.744 E10.27404
G1 X101.023 Y137.042 E10.29739
G1 X101.076 Y136.106 E10.32857
G1 X101.209 Y135.178 E10.35975
G1 X101.421 Y134.264 E10.39096
G1 X101.709 Y133.371 E10.42217
G1 X102.073 Y132.507 E10.45335
G1 X102.509 Y131.676 E10.48456
G1 X103.014 Y130.886 E10.51575
G1 X103.584 Y130.142 E10.54692
G1 X103.956 Y129.72 E10.56563
G1 X104.096 Y129.569 E10.57248
G1 X104.307 Y129.347 E10.58267
G1 X104.58 Y129.07 E10.5956
G1 X125.542 Y108.087 E11.58208
G0 F6000 X125.821 Y108.374
G1 F1200 X126.321 Y107.887 E11.6053
G1 X127.008 Y107.273 E11.63594
G1 X127.745 Y106.722 E11.66655
G1 X128.528 Y106.237 E11.69718
G1 X129.349 Y105.822 E11.72778
G1 X130.204 Y105.479 E11.75842
G1 X131.085 Y105.212 E11.78904
G1 X131.986 Y105.022 E11.81967
G1 X132.9 Y104.912 E11.85028
G1 X133.373 Y104.886 E11.86604
G1 X133.748 Y104.876 E11.87852
G1 X134.303 Y104.87 E11.89698
G1 X175.58 Y104.87 E13.26986
G1 X176.433 Y104.881 E13.29823
G1 X177.352 Y104.934 E13.32885
G1 X178.263 Y105.067 E13.35947
G1 X179.159 Y105.278 E13.39008
G1 X180.034 Y105.566 E13.42072
G1 X180.88 Y105.929 E13.45134
G1 X181.691 Y106.364 E13.48195
G1 X182.462 Y106.868 E13.51259
G1 X183.481 Y107.699 E13.55632
G1 X183.588 Y107.798 E13.56117
G1 X183.814 Y108.014 E13.57157
G1 X184.21 Y108.403 E13.59003
G1 X205.11 Y129.326 E14.57364
G1 X205.589 Y129.82 E14.59653
G1 X206.201 Y130.508 E14.62715
G1 X206.75 Y131.247 E14.65777
G1 X207.234 Y132.03 E14.68839
G1 X207.647 Y132.853 E14.71902
G1 X207.988 Y133.708 E14.74963
G1 X208.253 Y134.59 E14.78026
G1 X208.441 Y135.491 E14.81088
G1 X208.571 Y136.792 E14.85436
G1 X208.584 Y137.228 E14.86887
G1 X208.588 Y137.649 E14.88287
G1 X208.587 Y172.25 E16.03371
G1 X208.577 Y172.952 E16.05706
G1 X208.524 Y173.871 E16.08768
G1 X208.391 Y174.782 E16.1183
G1 X208.18 Y175.678 E16.14891
G1 X207.892 Y176.553 E16.17955
G1 X207.529 Y177.399 E16.21017
G1 X207.094 Y178.21 E16.24078
G1 X206.59 Y178.981 E16.27142
G1 X205.751 Y180.008 E16.31552
G1 X205.611 Y180.159 E16.32237
G1 X205.407 Y180.373 E16.33221
G1 X205.137 Y180.647 E16.345
G1 X184.217 Y201.588 E17.32951
G1 X183.685 Y202.107 E17.35423
G1 X182.999 Y202.721 E17.38485
G1 X182.262 Y203.273 E17.41547
G1 X181.48 Y203.759 E17.4461
G1 X180.658 Y204.175 E17.47674
G1 X179.804 Y204.518 E17.50735
G1 X178.923 Y204.786 E17.53798
G1 X178.023 Y204.976 E17.56857
G1 X177.109 Y205.088 E17.5992
G1 X176.627 Y205.114 E17.61525
G1 X176.252 Y205.124 E17.62773
G1 X175.697 Y205.13 E17.64619
G1 X134.269 Y205.129 E19.02409
G1 X133.567 Y205.119 E19.04744
G1 X132.648 Y205.066 E19.07806
G1 X131.737 Y204.933 E19.10868
G1 X130.841 Y204.722 E19.1393
G1 X129.966 Y204.434 E19.16993
G1 X129.12 Y204.071 E19.20055
G1 X128.309 Y203.636 E19.23116
G1 X127.538 Y203.132 E19.2618
G1 X126.516 Y202.298 E19.30567
G1 X126.408 Y202.198 E19.31057
G1 X126.189 Y201.989 E19.32064
G1 X125.754 Y201.561 E19.34093
G1 X104.89 Y180.674 E20.32285
G1 X104.412 Y180.181 E20.34569
G1 X103.8 Y179.492 E20.37634
G1 X103.251 Y178.754 E20.40694
G1 X102.767 Y177.97 E20.43758
G1 X102.354 Y177.148 E20.46818
G1 X102.013 Y176.292 E20.49882
G1 X101.748 Y175.411 E20.52942
G1 X101.56 Y174.509 E20.56007
G1 X101.433 Y173.287 E20.60093
G1 X101.427 Y173.156 E20.60529
G1 X101.416 Y172.772 E20.61807
G1 X101.412 Y172.351 E20.63207
G1 X101.413 Y137.75 E21.78291
G1 X101.423 Y137.048 E21.80626
G1 X101.476 Y136.129 E21.83688
G1 X101.609 Y135.218 E21.8675
G1 X101.82 Y134.322 E21.89811
G1 X102.108 Y133.447 E21.92875
G1 X102.471 Y132.601 E21.95937
G1 X102.906 Y131.79 E21.98998
G1 X103.41 Y131.019 E22.02062
G1 X104.249 Y129.992 E22.06472
G1 X104.389 Y129.841 E22.07157
G1 X104.593 Y129.627 E22.08141
G1 X104.863 Y129.353 E22.0942
G1 X125.821 Y108.374 E23.08049
G0 F6000 X126.1 Y108.66
G1 F1200 X126.6 Y108.173 E23.10371
G1 X127.274 Y107.572 E23.13374
G1 X127.999 Y107.033 E23.16379
G1 X128.769 Y106.561 E23.19383
G1 X129.577 Y106.158 E23.22386
G1 X130.418 Y105.828 E23.25391
G1 X131.284 Y105.574 E23.28393
G1 X132.17 Y105.398 E23.31397
G1 X133.386 Y105.285 E23.35459
G1 X133.753 Y105.276 E23.3668
G1 X134.303 Y105.27 E23.38509
G1 X175.58 Y105.27 E24.75797
G1 X176.427 Y105.281 E24.78615
G1 X177.329 Y105.334 E24.8162
G1 X178.222 Y105.466 E24.84622
G1 X179.1 Y105.677 E24.87626
G1 X179.956 Y105.965 E24.9063
G1 X180.784 Y106.327 E24.93635
G1 X181.576 Y106.761 E24.96639
G1 X182.326 Y107.264 E24.99643
G1 X183.209 Y107.993 E25.03451
G1 X183.316 Y108.092 E25.03936
G1 X183.533 Y108.299 E25.04933
G1 X183.927 Y108.686 E25.0677
G1 X204.823 Y129.605 E26.05113
G1 X205.302 Y130.099 E26.07401
G1 X205.901 Y130.774 E26.10403
G1 X206.438 Y131.5 E26.13406
G1 X206.909 Y132.271 E26.16411
G1 X207.31 Y133.08 E26.19414
G1 X207.638 Y133.921 E26.22417
G1 X207.89 Y134.789 E26.25423
G1 X208.064 Y135.675 E26.28426
G1 X208.171 Y136.807 E26.32208
G1 X208.184 Y137.232 E26.33622
G1 X208.188 Y137.653 E26.35023
G1 X208.187 Y172.244 E27.50073
G1 X208.177 Y172.946 E27.52408
G1 X208.124 Y173.848 E27.55413
G1 X207.992 Y174.741 E27.58415
G1 X207.781 Y175.619 E27.61419
G1 X207.493 Y176.475 E27.64423
G1 X207.131 Y177.303 E27.67428
G1 X206.697 Y178.095 E27.70432
G1 X206.194 Y178.845 E27.73436
G1 X205.458 Y179.736 E27.77279
G1 X205.318 Y179.887 E27.77964
G1 X205.122 Y180.093 E27.7891
G1 X204.854 Y180.365 E27.8018
G1 X183.938 Y201.302 E28.78612
G1 X183.406 Y201.821 E28.81084
G1 X182.732 Y202.423 E28.8409
G1 X182.008 Y202.962 E28.87092
G1 X181.239 Y203.435 E28.90095
G1 X180.431 Y203.839 E28.93099
G1 X179.59 Y204.169 E28.96104
G1 X178.724 Y204.424 E28.99107
G1 X177.838 Y204.601 E29.02112
G1 X176.614 Y204.715 E29.062
G1 X176.247 Y204.724 E29.07421
G1 X175.697 Y204.73 E29.09251
G1 X134.275 Y204.729 E30.47021
G1 X133.573 Y204.719 E30.49356
G1 X132.671 Y204.666 E30.52361
G1 X131.778 Y204.534 E30.55364
G1 X130.9 Y204.323 E30.58367
G1 X130.044 Y204.035 E30.61371
G1 X129.216 Y203.673 E30.64377
G1 X128.424 Y203.239 E30.6738
G1 X127.674 Y202.736 E30.70384
G1 X126.788 Y202.004 E30.74206
G1 X126.469 Y201.704 E30.75663
G1 X126.037 Y201.279 E30.77678
G1 X105.177 Y180.395 E31.75854
G1 X104.699 Y179.902 E31.78138
G1 X104.1 Y179.227 E31.81139
G1 X103.562 Y178.501 E31.84145
G1 X103.091 Y177.73 E31.8715
G1 X102.691 Y176.921 E31.90152
G1 X102.363 Y176.079 E31.93157
G1 X102.111 Y175.212 E31.9616
G1 X101.936 Y174.326 E31.99164
G1 X101.833 Y173.269 E32.02696
G1 X101.827 Y173.138 E32.03132
G1 X101.816 Y172.768 E32.04363
G1 X101.812 Y172.347 E32.05764
G1 X101.813 Y137.756 E33.20814
G1 X101.823 Y137.054 E33.23149
G1 X101.876 Y136.152 E33.26154
G1 X102.008 Y135.259 E33.29157
G1 X102.219 Y134.381 E33.3216
G1 X102.507 Y133.525 E33.35164
G1 X102.869 Y132.697 E33.38169
G1 X103.303 Y131.905 E33.41173
G1 X103.806 Y131.155 E33.44177
G1 X104.542 Y130.264 E33.48021
G1 X104.682 Y130.113 E33.48706
G1 X104.878 Y129.907 E33.49651
G1 X105.146 Y129.635 E33.50921
G1 X126.1 Y108.66 E34.49532
G1 F3600 E29.49532
;MESH:AC Base Plate.stl
G0 F6000 X174.835 Y126.942
G0 X173.049 Y127.523
G0 X176.287 Y129.683
;TYPE:WALL-INNER
G1 F3600 E34.49532
G1 F1200 X177.28 Y129.525 E34.52876
G1 X178.175 Y129.07 E34.56216
G1 X178.885 Y128.358 E34.5956
G1 X179.343 Y127.463 E34.62904
G1 X179.499 Y126.47 E34.66247
G1 X179.343 Y125.477 E34.6959
G1 X178.885 Y124.582 E34.72934
G1 X178.175 Y123.87 E34.76278
G1 X177.28 Y123.415 E34.79618
G1 X176.287 Y123.257 E34.82962
G1 X175.295 Y123.415 E34.86303
G1 X174.399 Y123.87 E34.89645
G1 X173.732 Y124.537 E34.92783
G1 X173.616 Y124.726 E34.9352
G1 X173.232 Y125.475 E34.9632
G1 X173.074 Y126.47 E34.99671
G1 X173.232 Y127.463 E35.03015
G1 X173.687 Y128.358 E35.06354
G1 X174.399 Y129.07 E35.09703
G1 X175.295 Y129.525 E35.13046
G1 X176.287 Y129.683 E35.16387
G0 F6000 X176.287 Y129.278
G1 F1200 X177.155 Y129.14 E35.1931
G1 X177.937 Y128.742 E35.22228
G1 X178.558 Y128.12 E35.25152
G1 X178.958 Y127.338 E35.28073
G1 X179.094 Y126.47 E35.30995
G1 X178.958 Y125.602 E35.33918
G1 X178.558 Y124.82 E35.36839
G1 X177.937 Y124.198 E35.39762
G1 X177.155 Y123.8 E35.42681
G1 X176.287 Y123.662 E35.45604
G1 X175.42 Y123.8 E35.48524
G1 X174.637 Y124.198 E35.51445
G1 X174.048 Y124.786 E35.54214
G1 X173.965 Y124.922 E35.54743
G1 X173.617 Y125.601 E35.57281
G1 X173.479 Y126.47 E35.60208
G1 X173.617 Y127.338 E35.63131
G1 X174.015 Y128.12 E35.66049
G1 X174.637 Y128.742 E35.68975
G1 X175.42 Y129.14 E35.71896
G1 X176.287 Y129.278 E35.74816
G0 F6000 X176.287 Y128.873
;TYPE:WALL-OUTER
G1 F1200 X177.03 Y128.755 E35.77319
G1 X177.699 Y128.414 E35.79816
G1 X178.231 Y127.882 E35.82318
G1 X178.573 Y127.213 E35.84817
G1 X178.689 Y126.47 E35.87319
G1 X178.573 Y125.727 E35.8982
G1 X178.231 Y125.058 E35.92319
G1 X177.699 Y124.526 E35.94821
G1 X177.03 Y124.185 E35.97319
G1 X176.287 Y124.067 E35.99821
G1 X175.545 Y124.185 E36.0232
G1 X174.875 Y124.526 E36.0482
G1 X174.364 Y125.035 E36.07219
G1 X174.314 Y125.117 E36.07539
G1 X174.002 Y125.727 E36.09817
G1 X173.884 Y126.47 E36.1232
G1 X174.002 Y127.213 E36.14822
G1 X174.343 Y127.882 E36.17319
G1 X174.875 Y128.414 E36.19822
G1 X175.545 Y128.755 E36.22322
G1 X176.287 Y128.873 E36.24821
G0 F6000 X176.287 Y129.313
G1 F3600 E31.24821
G0 F6000 X173.531 Y128.472
G0 X175.05 Y127.367
G0 X156.662 Y125.288
G0 X157.766 Y126.808
G0 X155 Y127.512
;TYPE:WALL-INNER
G1 F3600 E36.24821
G1 F1200 X156.395 Y127.292 E36.29518
G1 X157.652 Y126.652 E36.3421
G1 X158.652 Y125.652 E36.38913
G1 X159.292 Y124.395 E36.43605
G1 X159.512 Y123 E36.48302
G1 X159.292 Y121.605 E36.52999
G1 X158.652 Y120.348 E36.57691
G1 X157.652 Y119.348 E36.62394
G1 X156.395 Y118.708 E36.67086
G1 X155 Y118.488 E36.71783
G1 X153.605 Y118.708 E36.7648
G1 X152.348 Y119.348 E36.81172
G1 X151.348 Y120.348 E36.85875
G1 X150.708 Y121.605 E36.90567
G1 X150.488 Y123 E36.95264
G1 X150.708 Y124.395 E36.99961
G1 X151.348 Y125.652 E37.04653
G1 X152.348 Y126.652 E37.09356
G1 X153.605 Y127.292 E37.14048
G1 X155 Y127.512 E37.18745
G0 F6000 X155 Y127.107
G1 F1200 X156.27 Y126.907 E37.23021
G1 X157.414 Y126.324 E37.27292
G1 X158.324 Y125.414 E37.31572
G1 X158.907 Y124.27 E37.35842
G1 X159.107 Y123 E37.40119
G1 X158.907 Y121.73 E37.44395
G1 X158.324 Y120.586 E37.48665
G1 X157.414 Y119.676 E37.52946
G1 X156.27 Y119.093 E37.57216
G1 X155 Y118.893 E37.61492
G1 X153.73 Y119.093 E37.65768
G1 X152.586 Y119.676 E37.70039
G1 X151.676 Y120.586 E37.74319
G1 X151.093 Y121.73 E37.7859
G1 X150.893 Y123 E37.82866
G1 X151.093 Y124.27 E37.87142
G1 X151.676 Y125.414 E37.91413
G1 X152.586 Y126.324 E37.95693
G1 X153.73 Y126.907 E37.99963
G1 X155 Y127.107 E38.0424
G0 F6000 X155 Y126.702
;TYPE:WALL-OUTER
G1 F1200 X156.145 Y126.522 E38.08095
G1 X157.176 Y125.996 E38.11944
G1 X157.996 Y125.176 E38.15801
G1 X158.522 Y124.145 E38.19651
G1 X158.702 Y123 E38.23506
G1 X158.522 Y121.855 E38.27361
G1 X157.996 Y120.824 E38.31211
G1 X157.176 Y120.004 E38.35068
G1 X156.145 Y119.478 E38.38917
G1 X155 Y119.298 E38.42772
G1 X153.855 Y119.478 E38.46627
G1 X152.824 Y120.004 E38.50477
G1 X152.004 Y120.824 E38.54334
G1 X151.478 Y121.855 E38.58184
G1 X151.298 Y123 E38.62039
G1 X151.478 Y124.145 E38.65894
G1 X152.004 Y125.176 E38.69743
G1 X152.824 Y125.996 E38.736
G1 X153.855 Y126.522 E38.7745
G1 X155 Y126.702 E38.81305
G0 F6000 X155 Y127.142
G1 F3600 E33.81305
G0 F6000 X153.545 Y127.475
G0 X154.127 Y125.69
G0 X150.305 Y141.522
G0 X150.887 Y139.737
G0 X152.029 Y141.837
G0 X152.135 Y142.5
G0 X152.029 Y143.163
G0 X151.724 Y143.76
G0 X151.456 Y144.028
G0 X149.989 Y145.212
;TYPE:WALL-INNER
G1 F3600 E38.81305
G1 F1200 X150.827 Y145.08 E38.84127
G1 X151.583 Y144.693 E38.86951
G1 X152.184 Y144.094 E38.89774
G1 X152.568 Y143.338 E38.92594
G1 X152.702 Y142.5 E38.95416
G1 X152.568 Y141.662 E38.98239
G1 X152.184 Y140.906 E39.01059
G1 X151.583 Y140.307 E39.03882
G1 X150.827 Y139.92 E39.06706
G1 X149.989 Y139.788 E39.09528
G1 X149.15 Y139.92 E39.12353
G1 X148.394 Y140.307 E39.15177
G1 X147.793 Y140.906 E39.18
G1 X147.409 Y141.663 E39.20823
G1 X147.277 Y142.5 E39.23641
G1 X147.409 Y143.337 E39.26459
G1 X147.793 Y144.094 E39.29283
G1 X148.394 Y144.693 E39.32105
G1 X149.15 Y145.08 E39.3493
G1 X149.989 Y145.212 E39.37755
G0 F6000 X149.989 Y144.807
G1 F1200 X150.702 Y144.695 E39.40155
G1 X151.345 Y144.366 E39.42557
G1 X151.856 Y143.856 E39.44959
G1 X152.183 Y143.213 E39.47358
G1 X152.297 Y142.5 E39.49759
G1 X152.183 Y141.787 E39.52161
G1 X151.856 Y141.144 E39.5456
G1 X151.345 Y140.634 E39.56962
G1 X150.702 Y140.305 E39.59364
G1 X149.989 Y140.193 E39.61764
G1 X149.275 Y140.305 E39.64168
G1 X148.632 Y140.634 E39.66571
G1 X148.121 Y141.144 E39.68972
G1 X147.794 Y141.788 E39.71374
G1 X147.682 Y142.5 E39.73771
G1 X147.794 Y143.212 E39.76169
G1 X148.121 Y143.856 E39.78571
G1 X148.632 Y144.366 E39.80972
G1 X149.275 Y144.695 E39.83374
G1 X149.989 Y144.807 E39.85778
G0 F6000 X149.989 Y144.402
;TYPE:WALL-OUTER
