;FLAVOR:Marlin
;TIME:7407
;Filament used: 5.30396m
;Layer height: 0.16
;MINX:101.012
;MINY:104.47
;MINZ:0.2
;MAXX:208.988
;MAXY:205.53
;MAXZ:3
;Generated with Creality Slicer 4.8.2-205
M140 S60
M105
M190 S60
M104 S200
M105
M109 S200
M82 ;absolute extrusion mode

G28 ;Home

G92 E0 ;Reset Extruder
G1 Z2.0 F3000 ;Move Z Axis up
G1 X10.1 Y20 Z0.28 F5000.0 ;Move to start position
G1 X10.1 Y200.0 Z0.28 F1500.0 E15 ;Draw the first line
G1 X10.4 Y200.0 Z0.28 F5000.0 ;Move to side a little
G1 X10.4 Y20 Z0.28 F1500.0 E30 ;Draw the second line
G92 E0 ;Reset Extruder
G1 Z2.0 F3000 ;Move Z Axis up

G92 E0
G92 E0
G1 F3600 E-5
;LAYER_COUNT:16
;LAYER:0
M107
G0 F6000 X125.542 Y108.087 Z0.2
;TYPE:SKIRT
G1 F3600 E0
G1 F1200 X126.042 Y107.6 E0.02321
G1 X126.741 Y106.975 E0.0544
G1 X127.491 Y106.412 E0.08559
G1 X128.286 Y105.914 E0.11679
G1 X129.121 Y105.486 E0.148
G1 X129.989 Y105.131 E0.17919
G1 X130.884 Y104.851 E0.21038
G1 X131.799 Y104.648 E0.24156
G1 X132.729 Y104.524 E0.27276
G1 X133.36 Y104.486 E0.29379
G1 X133.744 Y104.476 E0.30656
G1 X134.303 Y104.47 E0.32516
G1 X175.58 Y104.47 E1.69804
G1 X176.439 Y104.481 E1.72661
G1 X177.375 Y104.534 E1.75779
G1 X178.303 Y104.667 E1.78897
G1 X179.217 Y104.879 E1.82018
G1 X180.11 Y105.167 E1.85139
G1 X180.974 Y105.531 E1.88257
G1 X181.805 Y105.967 E1.91378
G1 X182.595 Y106.472 E1.94497
G1 X183.339 Y107.042 E1.97614
G1 X183.752 Y107.406 E1.99445
G1 X184.094 Y107.728 E2.01007
G1 X184.493 Y108.121 E2.0287
G1 X205.397 Y129.048 E3.0125
G1 X205.876 Y129.542 E3.03539
G1 X206.5 Y130.242 E3.06658
G1 X207.061 Y130.993 E3.09776
G1 X207.557 Y131.79 E3.12898
G1 X207.983 Y132.625 E3.16016
G1 X208.336 Y133.494 E3.19135
G1 X208.614 Y134.39 E3.22255
G1 X208.815 Y135.306 E3.25375
G1 X208.937 Y136.236 E3.28494
G1 X208.971 Y136.776 E3.30294
G1 X208.984 Y137.224 E3.31785
G1 X208.988 Y137.645 E3.33185
G1 X208.987 Y172.256 E4.48302
G1 X208.977 Y172.958 E4.50637
G1 X208.924 Y173.894 E4.53755
G1 X208.791 Y174.822 E4.56873
G1 X208.579 Y175.736 E4.59994
G1 X208.291 Y176.629 E4.63114
G1 X207.927 Y177.493 E4.66233
G1 X207.491 Y178.324 E4.69354
G1 X206.986 Y179.114 E4.72472
G1 X206.416 Y179.858 E4.7559
G1 X206.044 Y180.28 E4.77461
G1 X205.904 Y180.431 E4.78146
G1 X205.693 Y180.653 E4.79164
G1 X205.42 Y180.93 E4.80458
G1 X184.496 Y201.875 E5.78927
G1 X183.964 Y202.394 E5.81399
G1 X183.266 Y203.019 E5.84515
G1 X182.516 Y203.583 E5.87637
G1 X181.722 Y204.081 E5.90754
G1 X180.887 Y204.51 E5.93876
G1 X180.02 Y204.866 E5.96994
G1 X179.125 Y205.147 E6.00114
G1 X178.209 Y205.35 E6.03234
G1 X177.28 Y205.475 E6.06352
G1 X176.64 Y205.514 E6.08484
G1 X176.256 Y205.524 E6.09762
G1 X175.697 Y205.53 E6.11621
G1 X134.263 Y205.529 E7.49431
G1 X133.561 Y205.519 E7.51767
G1 X132.625 Y205.466 E7.54885
G1 X131.697 Y205.333 E7.58003
G1 X130.783 Y205.121 E7.61123
G1 X129.89 Y204.833 E7.64244
G1 X129.026 Y204.469 E7.67363
G1 X128.195 Y204.033 E7.70484
G1 X127.405 Y203.528 E7.73602
G1 X126.661 Y202.958 E7.7672
G1 X126.245 Y202.591 E7.78565
G1 X125.909 Y202.275 E7.80099
G1 X125.471 Y201.844 E7.82143
G1 X104.603 Y180.952 E8.80356
G1 X104.125 Y180.459 E8.8264
G1 X103.501 Y179.759 E8.85759
G1 X102.939 Y179.007 E8.88881
G1 X102.444 Y178.211 E8.91999
G1 X102.018 Y177.376 E8.95117
G1 X101.665 Y176.507 E8.98236
G1 X101.387 Y175.611 E9.01356
G1 X101.186 Y174.695 E9.04476
G1 X101.034 Y173.305 E9.09126
G1 X101.028 Y173.174 E9.09562
G1 X101.016 Y172.776 E9.10887
G1 X101.012 Y172.355 E9.12287
G1 X101.013 Y137.744 E10.27404
G1 X101.023 Y137.042 E10.29739
G1 X101.076 Y136.106 E10.32857
G1 X101.209 Y135.178 E10.35975
G1 X101.421 Y134.264 E10.39096
G1 X101.709 Y133.371 E10.42217
G1 X102.073 Y132.507 E10.45335
G1 X102.509 Y131.676 E10.48456
G1 X103.014 Y130.886 E10.51575
G1 X103.584 Y130.142 E10.54692
G1 X103.956 Y129.72 E10.56563
G1 X104.096 Y129.569 E10.57248
G1 X104.307 Y129.347 E10.58267
G1 X104.58 Y129.07 E10.5956
G1 X125.542 Y108.087 E11.58208
G0 F6000 X125.821 Y108.374
G1 F1200 X126.321 Y107.887 E11.6053
G1 X127.008 Y107.273 E11.63594
G1 X127.745 Y106.722 E11.66655
G1 X128.528 Y106.237 E11.69718
G1 X129.349 Y105.822 E11.72778
G1 X130.204 Y105.479 E11.75842
G1 X131.085 Y105.212 E11.78904
G1 X131.986 Y105.022 E11.81967
G1 X132.9 Y104.912 E11.85028
G1 X133.373 Y104.886 E11.86604
G1 X133.748 Y104.876 E11.87852
G1 X134.303 Y104.87 E11.89698
G1 X175.58 Y104.87 E13.26986
G1 X176.433 Y104.881 E13.29823
G1 X177.352 Y104.934 E13.32885
G1 X178.263 Y105.067 E13.35947
G1 X179.159 Y105.278 E13.39008
G1 X180.034 Y105.566 E13.42072
G1 X180.88 Y105.929 E13.45134
G1 X181.691 Y106.364 E13.48195
G1 X182.462 Y106.868 E13.51259
G1 X183.481 Y107.699 E13.55632
G1 X183.588 Y107.798 E13.56117
G1 X183.814 Y108.014 E13.57157
G1 X184.21 Y108.403 E13.59003
G1 X205.11 Y129.326 E14.57364
G1 X205.589 Y129.82 E14.59653
G1 X206.201 Y130.508 E14.62715
G1 X206.75 Y131.247 E14.65777
G1 X207.234 Y132.03 E14.68839
G1 X207.647 Y132.853 E14.71902
G1 X207.988 Y133.708 E14.74963
G1 X208.253 Y134.59 E14.78026
G1 X208.441 Y135.491 E14.81088
G1 X208.571 Y136.792 E14.85436
G1 X208.584 Y137.228 E14.86887
G1 X208.588 Y137.649 E14.88287
G1 X208.587 Y172.25 E16.03371
G1 X208.577 Y172.952 E16.05706
G1 X208.524 Y173.871 E16.08768
G1 X208.391 Y174.782 E16.1183
G1 X208.18 Y175.678 E16.14891
G1 X207.892 Y176.553 E16.17955
G1 X207.529 Y177.399 E16.21017
G1 X207.094 Y178.21 E16.24078
G1 X206.59 Y178.981 E16.27142
G1 X205.751 Y180.008 E16.31552
G1 X205.611 Y180.159 E16.32237
G1 X205.407 Y180.373 E16.33221
G1 X205.137 Y180.647 E16.345
G1 X184.217 Y201.588 E17.32951
G1 X183.685 Y202.107 E17.35423
G1 X182.999 Y202.721 E17.38485
G1 X182.262 Y203.273 E17.41547
G1 X181.48 Y203.759 E17.4461
G1 X180.658 Y204.175 E17.47674
G1 X179.804 Y204.518 E17.50735
G1 X178.923 Y204.786 E17.53798
G1 X178.023 Y204.976 E17.56857
G1 X177.109 Y205.088 E17.5992
G1 X176.627 Y205.114 E17.61525
G1 X176.252 Y205.124 E17.62773
G1 X175.697 Y205.13 E17.64619
G1 X134.269 Y205.129 E19.02409
G1 X133.567 Y205.119 E19.04744
G1 X132.648 Y205.066 E19.07806
G1 X131.737 Y204.933 E19.10868
G1 X130.841 Y204.722 E19.1393
G1 X129.966 Y204.434 E19.16993
G1 X129.12 Y204.071 E19.20055
G1 X128.309 Y203.636 E19.23116
G1 X127.538 Y203.132 E19.2618
G1 X126.516 Y202.298 E19.30567
G1 X126.408 Y202.198 E19.31057
G1 X126.189 Y201.989 E19.32064
G1 X125.754 Y201.561 E19.34093
G1 X104.89 Y180.674 E20.32285
G1 X104.412 Y180.181 E20.34569
G1 X103.8 Y179.492 E20.37634
G1 X103.251 Y178.754 E20.40694
G1 X102.767 Y177.97 E20.43758
G1 X102.354 Y177.148 E20.46818
G1 X102.013 Y176.292 E20.49882
G1 X101.748 Y175.411 E20.52942
G1 X101.56 Y174.509 E20.56007
G1 X101.433 Y173.287 E20.60093
G1 X101.427 Y173.156 E20.60529
G1 X101.416 Y172.772 E20.61807
G1 X101.412 Y172.351 E20.63207
G1 X101.413 Y137.75 E21.78291
G1 X101.423 Y137.048 E21.80626
G1 X101.476 Y136.129 E21.83688
G1 X101.609 Y135.218 E21.8675
G1 X101.82 Y134.322 E21.89811
G1 X102.108 Y133.447 E21.92875
G1 X102.471 Y132.601 E21.95937
G1 X102.906 Y131.79 E21.98998
G1 X103.41 Y131.019 E22.02062
G1 X104.249 Y129.992 E22.06472
G1 X104.389 Y129.841 E22.07157
G1 X104.593 Y129.627 E22.08141
G1 X104.863 Y129.353 E22.0942
G1 X125.821 Y108.374 E23.08049
G0 F6000 X126.1 Y108.66
G1 F1200 X126.6 Y108.173 E23.10371
G1 X127.274 Y107.572 E23.13374
G1 X127.999 Y107.033 E23.16379
G1 X128.769 Y106.561 E23.19383
G1 X129.577 Y106.158 E23.22386
G1 X130.418 Y105.828 E23.25391
G1 X131.284 Y105.574 E23.28393
G1 X132.17 Y105.398 E23.31397
G1 X133.386 Y105.285 E23.35459
G1 X133.753 Y105.276 E23.3668
G1 X134.303 Y105.27 E23.38509
G1 X175.58 Y105.27 E24.75797
G1 X176.427 Y105.281 E24.78615
G1 X177.329 Y105.334 E24.8162
G1 X178.222 Y105.466 E24.84622
G1 X179.1 Y105.677 E24.87626
G1 X179.956 Y105.965 E24.9063
G1 X180.784 Y106.327 E24.93635
G1 X181.576 Y106.761 E24.96639
G1 X182.326 Y107.264 E24.99643
G1 X183.209 Y107.993 E25.03451
G1 X183.316 Y108.092 E25.03936
G1 X183.533 Y108.299 E25.04933
G1 X183.927 Y108.686 E25.0677
G1 X204.823 Y129.605 E26.05113
G1 X205.302 Y130.099 E26.07401
G1 X205.901 Y130.774 E26.10403
G1 X206.438 Y131.5 E26.13406
G1 X206.909 Y132.271 E26.16411
G1 X207.31 Y133.08 E26.19414
G1 X207.638 Y133.921 E26.22417
G1 X207.89 Y134.789 E26.25423
G1 X208.064 Y135.675 E26.28426
G1 X208.171 Y136.807 E26.32208
G1 X208.184 Y137.232 E26.33622
G1 X208.188 Y137.653 E26.35023
G1 X208.187 Y172.244 E27.50073
G1 X208.177 Y172.946 E27.52408
G1 X208.124 Y173.848 E27.55413
G1 X207.992 Y174.741 E27.58415
G1 X207.781 Y175.619 E27.61419
G1 X207.493 Y176.475 E27.64423
G1 X207.131 Y177.303 E27.67428
G1 X206.697 Y178.095 E27.70432
G1 X206.194 Y178.845 E27.73436
G1 X205.458 Y179.736 E27.77279
G1 X205.318 Y179.887 E27.77964
G1 X205.122 Y180.093 E27.7891
G1 X204.854 Y180.365 E27.8018
G1 X183.938 Y201.302 E28.78612
G1 X183.406 Y201.821 E28.81084
G1 X182.732 Y202.423 E28.8409
G1 X182.008 Y202.962 E28.87092
G1 X181.239 Y203.435 E28.90095
G1 X180.431 Y203.839 E28.93099
G1 X179.59 Y204.169 E28.96104
G1 X178.724 Y204.424 E28.99107
G1 X177.838 Y204.601 E29.02112
G1 X176.614 Y204.715 E29.062
G1 X176.247 Y204.724 E29.07421
G1 X175.697 Y204.73 E29.09251
G1 X134.275 Y204.729 E30.47021
G1 X133.573 Y204.719 E30.49356
G1 X132.671 Y204.666 E30.52361
G1 X131.778 Y204.534 E30.55364
G1 X130.9 Y204.323 E30.58367
G1 X130.044 Y204.035 E30.61371
G1 X129.216 Y203.673 E30.64377
G1 X128.424 Y203.239 E30.6738
G1 X127.674 Y202.736 E30.70384
G1 X126.788 Y202.004 E30.74206
G1 X126.469 Y201.704 E30.75663
G1 X126.037 Y201.279 E30.77678
G1 X105.177 Y180.395 E31.75854
G1 X104.699 Y179.902 E31.78138
G1 X104.1 Y179.227 E31.81139
G1 X103.562 Y178.501 E31.84145
G1 X103.091 Y177.73 E31.8715
G1 X102.691 Y176.921 E31.90152
G1 X102.363 Y176.079 E31.93157
G1 X102.111 Y175.212 E31.9616
G1 X101.936 Y174.326 E31.99164
G1 X101.833 Y173.269 E32.02696
G1 X101.827 Y173.138 E32.03132
G1 X101.816 Y172.768 E32.04363
G1 X101.812 Y172.347 E32.05764
G1 X101.813 Y137.756 E33.20814
G1 X101.823 Y137.054 E33.23149
G1 X101.876 Y136.152 E33.26154
G1 X102.008 Y135.259 E33.29157
G1 X102.219 Y134.381 E33.3216
G1 X102.507 Y133.525 E33.35164
G1 X102.869 Y132.697 E33.38169
G1 X103.303 Y131.905 E33.41173
G1 X103.806 Y131.155 E33.44177
G1 X104.542 Y130.264 E33.48021
G1 X104.682 Y130.113 E33.48706
G1 X104.878 Y129.907 E33.49651
G1 X105.146 Y129.635 E33.50921
G1 X126.1 Y108.66 E34.49532
G1 F3600 E29.49532
;MESH:AC Base Plate Servo.stl
G0 F6000 X168.363 Y145.405
G0 X168.363 Y143.57
G0 X186.213 Y144.312
G0 X186.214 Y160.481
G0 X188.223 Y162.384
;TYPE:WALL-INNER
G1 F3600 E34.49532
G1 F1200 X189 Y162.508 E34.52149
G1 X189.777 Y162.384 E34.54766
G1 X190.477 Y162.028 E34.57378
G1 X191.034 Y161.471 E34.59998
G1 X191.39 Y160.771 E34.6261
G1 X191.512 Y159.995 E34.65223
G1 X191.39 Y159.219 E34.67835
G1 X191.034 Y158.518 E34.7045
G1 X190.477 Y157.961 E34.7307
G1 X189.776 Y157.605 E34.75685
G1 X189 Y157.483 E34.78298
G1 X188.224 Y157.605 E34.80911
G1 X187.523 Y157.961 E34.83525
G1 X187.152 Y158.332 E34.85271
G1 X186.966 Y158.518 E34.86145
G1 X186.785 Y158.874 E34.87474
G1 X186.785 Y158.518 E34.87714
G1 X186.785 Y158.255 E34.88368
G1 X186.785 Y151.828 E35.09744
G1 X186.785 Y151.565 E35.10619
G1 X186.785 Y151.209 E35.11803
G1 X186.966 Y151.565 E35.12187
G1 X187.152 Y151.751 E35.12841
G1 X187.523 Y152.122 E35.14586
G1 X188.223 Y152.478 E35.17198
G1 X189 Y152.602 E35.19815
G1 X189.777 Y152.478 E35.22432
G1 X190.477 Y152.122 E35.25044
G1 X191.034 Y151.565 E35.27664
G1 X191.39 Y150.865 E35.30276
G1 X191.512 Y150.089 E35.32889
G1 X191.39 Y149.313 E35.35501
G1 X191.034 Y148.612 E35.38116
G1 X190.477 Y148.055 E35.40736
G1 X189.776 Y147.699 E35.43351
G1 X189 Y147.577 E35.45964
G1 X188.224 Y147.699 E35.48576
G1 X187.523 Y148.055 E35.51191
G1 X187.152 Y148.426 E35.52937
G1 X186.966 Y148.612 E35.53811
G1 X186.785 Y148.968 E35.5514
G1 X186.785 Y148.612 E35.5538
G1 X186.785 Y148.349 E35.56034
G1 X186.785 Y143.74 E35.71364
G1 X142.929 Y143.74 E37.17229
G1 X142.929 Y148.349 E37.32559
G1 X142.929 Y148.612 E37.33434
G1 X142.929 Y148.968 E37.34618
G1 X142.748 Y148.612 E37.35001
G1 X142.562 Y148.426 E37.35655
G1 X142.191 Y148.055 E37.374
G1 X141.491 Y147.699 E37.40012
G1 X140.715 Y147.577 E37.42625
G1 X139.939 Y147.699 E37.45238
G1 X139.238 Y148.055 E37.47853
G1 X138.681 Y148.612 E37.50473
G1 X138.325 Y149.313 E37.53088
G1 X138.203 Y150.089 E37.557
G1 X138.325 Y150.865 E37.58313
G1 X138.681 Y151.565 E37.60925
G1 X139.238 Y152.122 E37.63545
G1 X139.938 Y152.478 E37.66157
G1 X140.715 Y152.602 E37.68774
G1 X141.492 Y152.478 E37.71391
G1 X142.191 Y152.122 E37.74
G1 X142.562 Y151.751 E37.75745
G1 X142.748 Y151.565 E37.7662
G1 X142.929 Y151.21 E37.77945
G1 X142.929 Y151.565 E37.78185
G1 X142.929 Y151.828 E37.78839
G1 X142.929 Y158.255 E38.00215
G1 X142.929 Y158.518 E38.0109
G1 X142.929 Y158.874 E38.02274
G1 X142.748 Y158.518 E38.02658
G1 X142.562 Y158.332 E38.03312
G1 X142.191 Y157.961 E38.05057
G1 X141.491 Y157.605 E38.07669
G1 X140.715 Y157.483 E38.10281
G1 X139.939 Y157.605 E38.12894
G1 X139.238 Y157.961 E38.15509
G1 X138.681 Y158.518 E38.18129
G1 X138.325 Y159.219 E38.20744
G1 X138.203 Y159.995 E38.23357
G1 X138.325 Y160.771 E38.25969
G1 X138.681 Y161.471 E38.28581
G1 X139.238 Y162.028 E38.31201
G1 X139.938 Y162.384 E38.33813
G1 X140.715 Y162.508 E38.3643
G1 X141.492 Y162.384 E38.39047
G1 X142.191 Y162.028 E38.41656
G1 X142.562 Y161.657 E38.43401
G1 X142.748 Y161.471 E38.44276
G1 X142.929 Y161.116 E38.45602
G1 X142.929 Y161.471 E38.45841
G1 X142.929 Y161.734 E38.46495
G1 X142.929 Y166.26 E38.61549
G1 X186.785 Y166.26 E40.07414
G1 X186.785 Y161.734 E40.22468
G1 X186.785 Y161.471 E40.23343
G1 X186.785 Y161.115 E40.24527
G1 X186.966 Y161.471 E40.2491
G1 X187.152 Y161.657 E40.25564
G1 X187.523 Y162.028 E40.27309
G1 X188.223 Y162.384 E40.29922
G0 F6000 X188.348 Y161.999
G1 F1200 X189 Y162.103 E40.32117
G1 X189.652 Y161.999 E40.34313
G1 X190.239 Y161.7 E40.36505
G1 X190.706 Y161.233 E40.38701
G1 X191.005 Y160.646 E40.40892
G1 X191.107 Y159.995 E40.43084
G1 X191.005 Y159.344 E40.45275
G1 X190.706 Y158.756 E40.4747
G1 X190.239 Y158.289 E40.49666
G1 X189.651 Y157.99 E40.5186
G1 X189 Y157.888 E40.54052
G1 X188.349 Y157.99 E40.56243
G1 X187.761 Y158.289 E40.58437
G1 X187.294 Y158.756 E40.60634
G1 X186.995 Y159.344 E40.62828
G1 X186.893 Y159.995 E40.6502
G1 X186.995 Y160.646 E40.67211
G1 X187.294 Y161.233 E40.69402
G1 X187.761 Y161.7 E40.71599
G1 X188.348 Y161.999 E40.7379
G0 F6000 X188.473 Y161.614
;TYPE:WALL-OUTER
G1 F1200 X189 Y161.698 E40.75565
G1 X189.527 Y161.614 E40.7734
G1 X190.001 Y161.372 E40.7911
G1 X190.378 Y160.995 E40.80883
G1 X190.62 Y160.521 E40.82654
G1 X190.702 Y159.995 E40.84424
G1 X190.62 Y159.469 E40.86195
G1 X190.378 Y158.994 E40.87968
G1 X190.001 Y158.617 E40.89741
G1 X189.526 Y158.375 E40.91514
G1 X189 Y158.293 E40.93285
G1 X188.474 Y158.375 E40.95055
G1 X187.999 Y158.617 E40.96829
G1 X187.622 Y158.994 E40.98602
G1 X187.38 Y159.469 E41.00375
G1 X187.298 Y159.995 E41.02146
G1 X187.38 Y160.521 E41.03916
G1 X187.622 Y160.995 E41.05686
G1 X187.999 Y161.372 E41.0746
G1 X188.473 Y161.614 E41.0923
G0 F6000 X188.337 Y162.032
G0 X187.426 Y161.137
G0 X187.149 Y160.595
G0 X187.056 Y159.995
G0 X186.98 Y158.228
G0 X186.98 Y151.855
G0 X188.348 Y152.093
;TYPE:WALL-INNER
G1 F1200 X189 Y152.197 E41.11426
G1 X189.652 Y152.093 E41.13622
G1 X190.239 Y151.794 E41.15813
G1 X190.706 Y151.327 E41.18009
G1 X191.005 Y150.74 E41.202
G1 X191.107 Y150.089 E41.22392
G1 X191.005 Y149.438 E41.24584
G1 X190.706 Y148.85 E41.26778
G1 X190.239 Y148.383 E41.28974
G1 X189.651 Y148.084 E41.31168
G1 X189 Y147.982 E41.3336
G1 X188.349 Y148.084 E41.35552
G1 X187.761 Y148.383 E41.37746
G1 X187.294 Y148.85 E41.39942
G1 X186.995 Y149.438 E41.42136
G1 X186.893 Y150.089 E41.44328
G1 X186.995 Y150.74 E41.4652
G1 X187.294 Y151.327 E41.48711
G1 X187.761 Y151.794 E41.50907
G1 X188.348 Y152.093 E41.53098
G0 F6000 X188.473 Y151.708
;TYPE:WALL-OUTER
G1 F1200 X189 Y151.792 E41.54873
G1 X189.527 Y151.708 E41.56648
G1 X190.001 Y151.466 E41.58418
G1 X190.378 Y151.089 E41.60192
G1 X190.62 Y150.615 E41.61962
G1 X190.702 Y150.089 E41.63732
G1 X190.62 Y149.563 E41.65503
G1 X190.378 Y149.088 E41.67276
G1 X190.001 Y148.711 E41.69049
G1 X189.526 Y148.469 E41.70822
G1 X189 Y148.387 E41.72593
