;FLAVOR:Marlin
;TIME:8702
;Filament used: 6.09902m
;Layer height: 0.16
;MINX:101.012
;MINY:104.47
;MINZ:0.2
;MAXX:208.988
;MAXY:205.53
;MAXZ:3
;Generated with Creality Slicer 4.8.2-205
M140 S60
M105
M190 S60
M104 S200
M105
M109 S200
M82 ;absolute extrusion mode

G28 ;Home

G92 E0 ;Reset Extruder
G1 Z2.0 F3000 ;Move Z Axis up
G1 X10.1 Y20 Z0.28 F5000.0 ;Move to start position
G1 X10.1 Y200.0 Z0.28 F1500.0 E15 ;Draw the first line
G1 X10.4 Y200.0 Z0.28 F5000.0 ;Move to side a little
G1 X10.4 Y20 Z0.28 F1500.0 E30 ;Draw the second line
G92 E0 ;Reset Extruder
G1 Z2.0 F3000 ;Move Z Axis up

G92 E0
G92 E0
G1 F3600 E-5
;LAYER_COUNT:16
;LAYER:0
M107
G0 F6000 X125.542 Y108.087 Z0.2
;TYPE:SKIRT
G1 F3600 E0
G1 F1200 X126.042 Y107.6 E0.02321
G1 X126.741 Y106.975 E0.0544
G1 X127.491 Y106.412 E0.08559
G1 X128.286 Y105.914 E0.11679
G1 X129.121 Y105.486 E0.148
G1 X129.989 Y105.131 E0.17919
G1 X130.884 Y104.851 E0.21038
G1 X131.799 Y104.648 E0.24156
G1 X132.729 Y104.524 E0.27276
G1 X133.36 Y104.486 E0.29379
G1 X133.744 Y104.476 E0.30656
G1 X134.303 Y104.47 E0.32516
G1 X175.58 Y104.47 E1.69804
G1 X176.439 Y104.481 E1.72661
G1 X177.375 Y104.534 E1.75779
G1 X178.303 Y104.667 E1.78897
G1 X179.217 Y104.879 E1.82018
G1 X180.11 Y105.167 E1.85139
G1 X180.974 Y105.531 E1.88257
G1 X181.805 Y105.967 E1.91378
G1 X182.595 Y106.472 E1.94497
G1 X183.339 Y107.042 E1.97614
G1 X183.752 Y107.406 E1.99445
G1 X184.094 Y107.728 E2.01007
G1 X184.493 Y108.121 E2.0287
G1 X205.397 Y129.048 E3.0125
G1 X205.876 Y129.542 E3.03539
G1 X206.5 Y130.242 E3.06658
G1 X207.061 Y130.993 E3.09776
G1 X207.557 Y131.79 E3.12898
G1 X207.983 Y132.625 E3.16016
G1 X208.336 Y133.494 E3.19135
G1 X208.614 Y134.39 E3.22255
G1 X208.815 Y135.306 E3.25375
G1 X208.937 Y136.236 E3.28494
G1 X208.971 Y136.776 E3.30294
G1 X208.984 Y137.224 E3.31785
G1 X208.988 Y137.645 E3.33185
G1 X208.987 Y172.256 E4.48302
G1 X208.977 Y172.958 E4.50637
G1 X208.924 Y173.894 E4.53755
G1 X208.791 Y174.822 E4.56873
G1 X208.579 Y175.736 E4.59994
G1 X208.291 Y176.629 E4.63114
G1 X207.927 Y177.493 E4.66233
G1 X207.491 Y178.324 E4.69354
G1 X206.986 Y179.114 E4.72472
G1 X206.416 Y179.858 E4.7559
G1 X206.044 Y180.28 E4.77461
G1 X205.904 Y180.431 E4.78146
G1 X205.693 Y180.653 E4.79164
G1 X205.42 Y180.93 E4.80458
G1 X184.496 Y201.875 E5.78927
G1 X183.964 Y202.394 E5.81399
G1 X183.266 Y203.019 E5.84515
G1 X182.516 Y203.583 E5.87637
G1 X181.722 Y204.081 E5.90754
G1 X180.887 Y204.51 E5.93876
G1 X180.02 Y204.866 E5.96994
G1 X179.125 Y205.147 E6.00114
G1 X178.209 Y205.35 E6.03234
G1 X177.28 Y205.475 E6.06352
G1 X176.64 Y205.514 E6.08484
G1 X176.256 Y205.524 E6.09762
G1 X175.697 Y205.53 E6.11621
G1 X134.263 Y205.529 E7.49431
G1 X133.561 Y205.519 E7.51767
G1 X132.625 Y205.466 E7.54885
G1 X131.697 Y205.333 E7.58003
G1 X130.783 Y205.121 E7.61123
G1 X129.89 Y204.833 E7.64244
G1 X129.026 Y204.469 E7.67363
G1 X128.195 Y204.033 E7.70484
G1 X127.405 Y203.528 E7.73602
G1 X126.661 Y202.958 E7.7672
G1 X126.245 Y202.591 E7.78565
G1 X125.909 Y202.275 E7.80099
G1 X125.471 Y201.844 E7.82143
G1 X104.603 Y180.952 E8.80356
G1 X104.125 Y180.459 E8.8264
G1 X103.501 Y179.759 E8.85759
G1 X102.939 Y179.007 E8.88881
G1 X102.444 Y178.211 E8.91999
G1 X102.018 Y177.376 E8.95117
G1 X101.665 Y176.507 E8.98236
G1 X101.387 Y175.611 E9.01356
G1 X101.186 Y174.695 E9.04476
G1 X101.034 Y173.305 E9.09126
G1 X101.028 Y173.174 E9.09562
G1 X101.016 Y172.776 E9.10887
G1 X101.012 Y172.355 E9.12287
G1 X101.013 Y137.744 E10.27404
G1 X101.023 Y137.042 E10.29739
G1 X101.076 Y136.106 E10.32857
G1 X101.209 Y135.178 E10.35975
G1 X101.421 Y134.264 E10.39096
G1 X101.709 Y133.371 E10.42217
G1 X102.073 Y132.507 E10.45335
G1 X102.509 Y131.676 E10.48456
G1 X103.014 Y130.886 E10.51575
G1 X103.584 Y130.142 E10.54692
G1 X103.956 Y129.72 E10.56563
G1 X104.096 Y129.569 E10.57248
G1 X104.307 Y129.347 E10.58267
G1 X104.58 Y129.07 E10.5956
G1 X125.542 Y108.087 E11.58208
G0 F6000 X125.821 Y108.374
G1 F1200 X126.321 Y107.887 E11.6053
G1 X127.008 Y107.273 E11.63594
G1 X127.745 Y106.722 E11.66655
G1 X128.528 Y106.237 E11.69718
G1 X129.349 Y105.822 E11.72778
G1 X130.204 Y105.479 E11.75842
G1 X131.085 Y105.212 E11.78904
G1 X131.986 Y105.022 E11.81967
G1 X132.9 Y104.912 E11.85028
G1 X133.373 Y104.886 E11.86604
G1 X133.748 Y104.876 E11.87852
G1 X134.303 Y104.87 E11.89698
G1 X175.58 Y104.87 E13.26986
G1 X176.433 Y104.881 E13.29823
G1 X177.352 Y104.934 E13.32885
G1 X178.263 Y105.067 E13.35947
G1 X179.159 Y105.278 E13.39008
G1 X180.034 Y105.566 E13.42072
G1 X180.88 Y105.929 E13.45134
G1 X181.691 Y106.364 E13.48195
G1 X182.462 Y106.868 E13.51259
G1 X183.481 Y107.699 E13.55632
G1 X183.588 Y107.798 E13.56117
G1 X183.814 Y108.014 E13.57157
G1 X184.21 Y108.403 E13.59003
G1 X205.11 Y129.326 E14.57364
G1 X205.589 Y129.82 E14.59653
G1 X206.201 Y130.508 E14.62715
G1 X206.75 Y131.247 E14.65777
G1 X207.234 Y132.03 E14.68839
G1 X207.647 Y132.853 E14.71902
G1 X207.988 Y133.708 E14.74963
G1 X208.253 Y134.59 E14.78026
G1 X208.441 Y135.491 E14.81088
G1 X208.571 Y136.792 E14.85436
G1 X208.584 Y137.228 E14.86887
G1 X208.588 Y137.649 E14.88287
G1 X208.587 Y172.25 E16.03371
G1 X208.577 Y172.952 E16.05706
G1 X208.524 Y173.871 E16.08768
G1 X208.391 Y174.782 E16.1183
G1 X208.18 Y175.678 E16.14891
G1 X207.892 Y176.553 E16.17955
G1 X207.529 Y177.399 E16.21017
G1 X207.094 Y178.21 E16.24078
G1 X206.59 Y178.981 E16.27142
G1 X205.751 Y180.008 E16.31552
G1 X205.611 Y180.159 E16.32237
G1 X205.407 Y180.373 E16.33221
G1 X205.137 Y180.647 E16.345
G1 X184.217 Y201.588 E17.32951
G1 X183.685 Y202.107 E17.35423
G1 X182.999 Y202.721 E17.38485
G1 X182.262 Y203.273 E17.41547
G1 X181.48 Y203.759 E17.4461
G1 X180.658 Y204.175 E17.47674
G1 X179.804 Y204.518 E17.50735
G1 X178.923 Y204.786 E17.53798
G1 X178.023 Y204.976 E17.56857
G1 X177.109 Y205.088 E17.5992
G1 X176.627 Y205.114 E17.61525
G1 X176.252 Y205.124 E17.62773
G1 X175.697 Y205.13 E17.64619
G1 X134.269 Y205.129 E19.02409
G1 X133.567 Y205.119 E19.04744
G1 X132.648 Y205.066 E19.07806
G1 X131.737 Y204.933 E19.10868
G1 X130.841 Y204.722 E19.1393
G1 X129.966 Y204.434 E19.16993
G1 X129.12 Y204.071 E19.20055
G1 X128.309 Y203.636 E19.23116
G1 X127.538 Y203.132 E19.2618
G1 X126.516 Y202.298 E19.30567
G1 X126.408 Y202.198 E19.31057
G1 X126.189 Y201.989 E19.32064
G1 X125.754 Y201.561 E19.34093
G1 X104.89 Y180.674 E20.32285
G1 X104.412 Y180.181 E20.34569
G1 X103.8 Y179.492 E20.37634
G1 X103.251 Y178.754 E20.40694
G1 X102.767 Y177.97 E20.43758
G1 X102.354 Y177.148 E20.46818
G1 X102.013 Y176.292 E20.49882
G1 X101.748 Y175.411 E20.52942
G1 X101.56 Y174.509 E20.56007
G1 X101.433 Y173.287 E20.60093
G1 X101.427 Y173.156 E20.60529
G1 X101.416 Y172.772 E20.61807
G1 X101.412 Y172.351 E20.63207
G1 X101.413 Y137.75 E21.78291
G1 X101.423 Y137.048 E21.80626
G1 X101.476 Y136.129 E21.83688
G1 X101.609 Y135.218 E21.8675
G1 X101.82 Y134.322 E21.89811
G1 X102.108 Y133.447 E21.92875
G1 X102.471 Y132.601 E21.95937
G1 X102.906 Y131.79 E21.98998
G1 X103.41 Y131.019 E22.02062
G1 X104.249 Y129.992 E22.06472
G1 X104.389 Y129.841 E22.07157
G1 X104.593 Y129.627 E22.08141
G1 X104.863 Y129.353 E22.0942
G1 X125.821 Y108.374 E23.08049
G0 F6000 X126.1 Y108.66
G1 F1200 X126.6 Y108.173 E23.10371
G1 X127.274 Y107.572 E23.13374
G1 X127.999 Y107.033 E23.16379
G1 X128.769 Y106.561 E23.19383
G1 X129.577 Y106.158 E23.22386
G1 X130.418 Y105.828 E23.25391
G1 X131.284 Y105.574 E23.28393
G1 X132.17 Y105.398 E23.31397
G1 X133.386 Y105.285 E23.35459
G1 X133.753 Y105.276 E23.3668
G1 X134.303 Y105.27 E23.38509
G1 X175.58 Y105.27 E24.75797
G1 X176.427 Y105.281 E24.78615
G1 X177.329 Y105.334 E24.8162
G1 X178.222 Y105.466 E24.84622
G1 X179.1 Y105.677 E24.87626
G1 X179.956 Y105.965 E24.9063
G1 X180.784 Y106.327 E24.93635
G1 X181.576 Y106.761 E24.96639
G1 X182.326 Y107.264 E24.99643
G1 X183.209 Y107.993 E25.03451
G1 X183.316 Y108.092 E25.03936
G1 X183.533 Y108.299 E25.04933
G1 X183.927 Y108.686 E25.0677
G1 X204.823 Y129.605 E26.05113
G1 X205.302 Y130.099 E26.07401
G1 X205.901 Y130.774 E26.10403
G1 X206.438 Y131.5 E26.13406
G1 X206.909 Y132.271 E26.16411
G1 X207.31 Y133.08 E26.19414
G1 X207.638 Y133.921 E26.22417
G1 X207.89 Y134.789 E26.25423
G1 X208.064 Y135.675 E26.28426
G1 X208.171 Y136.807 E26.32208
G1 X208.184 Y137.232 E26.33622
G1 X208.188 Y137.653 E26.35023
G1 X208.187 Y172.244 E27.50073
G1 X208.177 Y172.946 E27.52408
G1 X208.124 Y173.848 E27.55413
G1 X207.992 Y174.741 E27.58415
G1 X207.781 Y175.619 E27.61419
G1 X207.493 Y176.475 E27.64423
G1 X207.131 Y177.303 E27.67428
G1 X206.697 Y178.095 E27.70432
G1 X206.194 Y178.845 E27.73436
G1 X205.458 Y179.736 E27.77279
G1 X205.318 Y179.887 E27.77964
G1 X205.122 Y180.093 E27.7891
G1 X204.854 Y180.365 E27.8018
G1 X183.938 Y201.302 E28.78612
G1 X183.406 Y201.821 E28.81084
G1 X182.732 Y202.423 E28.8409
G1 X182.008 Y202.962 E28.87092
G1 X181.239 Y203.435 E28.90095
G1 X180.431 Y203.839 E28.93099
G1 X179.59 Y204.169 E28.96104
G1 X178.724 Y204.424 E28.99107
G1 X177.838 Y204.601 E29.02112
G1 X176.614 Y204.715 E29.062
G1 X176.247 Y204.724 E29.07421
G1 X175.697 Y204.73 E29.09251
G1 X134.275 Y204.729 E30.47021
G1 X133.573 Y204.719 E30.49356
G1 X132.671 Y204.666 E30.52361
G1 X131.778 Y204.534 E30.55364
G1 X130.9 Y204.323 E30.58367
G1 X130.044 Y204.035 E30.61371
G1 X129.216 Y203.673 E30.64377
G1 X128.424 Y203.239 E30.6738
G1 X127.674 Y202.736 E30.70384
G1 X126.788 Y202.004 E30.74206
G1 X126.469 Y201.704 E30.75663
G1 X126.037 Y201.279 E30.77678
G1 X105.177 Y180.395 E31.75854
G1 X104.699 Y179.902 E31.78138
G1 X104.1 Y179.227 E31.81139
G1 X103.562 Y178.501 E31.84145
G1 X103.091 Y177.73 E31.8715
G1 X102.691 Y176.921 E31.90152
G1 X102.363 Y176.079 E31.93157
G1 X102.111 Y175.212 E31.9616
G1 X101.936 Y174.326 E31.99164
G1 X101.833 Y173.269 E32.02696
G1 X101.827 Y173.138 E32.03132
G1 X101.816 Y172.768 E32.04363
G1 X101.812 Y172.347 E32.05764
G1 X101.813 Y137.756 E33.20814
G1 X101.823 Y137.054 E33.23149
G1 X101.876 Y136.152 E33.26154
G1 X102.008 Y135.259 E33.29157
G1 X102.219 Y134.381 E33.3216
G1 X102.507 Y133.525 E33.35164
G1 X102.869 Y132.697 E33.38169
G1 X103.303 Y131.905 E33.41173
G1 X103.806 Y131.155 E33.44177
G1 X104.542 Y130.264 E33.48021
G1 X104.682 Y130.113 E33.48706
G1 X104.878 Y129.907 E33.49651
G1 X105.146 Y129.635 E33.50921
G1 X126.1 Y108.66 E34.49532
G1 F3600 E29.49532
;MESH:battery-stack-assembly_plate.stl
G0 F6000 X137.245 Y126.766
G0 X137.89 Y126.828
G0 X137.891 Y127.521
G0 X152.566 Y151.651
G0 X151.462 Y150.131
G0 X149.999 Y153.375
G0 X149.741 Y155
G0 X149.999 Y156.625
G0 X150.747 Y158.09
G0 X151.91 Y159.253
G0 X155 Y160.826
;TYPE:WALL-INNER
G1 F3600 E34.49532
G1 F1200 X156.8 Y160.54 E34.55594
G1 X158.424 Y159.713 E34.61655
G1 X159.713 Y158.424 E34.67718
G1 X160.54 Y156.8 E34.7378
G1 X160.826 Y155 E34.79842
G1 X160.54 Y153.2 E34.85904
G1 X159.713 Y151.576 E34.91965
G1 X158.424 Y150.287 E34.98028
G1 X156.8 Y149.46 E35.0409
G1 X155 Y149.174 E35.10152
G1 X153.2 Y149.46 E35.16214
G1 X151.576 Y150.287 E35.22275
G1 X150.287 Y151.576 E35.28338
G1 X149.46 Y153.2 E35.344
G1 X149.174 Y155 E35.40461
G1 X149.46 Y156.8 E35.46523
G1 X150.287 Y158.424 E35.52585
G1 X151.576 Y159.713 E35.58648
G1 X153.2 Y160.54 E35.64709
G1 X155 Y160.826 E35.70771
G0 F6000 X155 Y160.421
G1 F1200 X156.675 Y160.155 E35.76412
G1 X158.186 Y159.385 E35.82053
G1 X159.385 Y158.186 E35.87692
G1 X160.155 Y156.675 E35.93333
G1 X160.421 Y155 E35.98974
G1 X160.155 Y153.325 E36.04615
G1 X159.385 Y151.814 E36.10255
G1 X158.186 Y150.615 E36.15895
G1 X156.675 Y149.845 E36.21536
G1 X155 Y149.579 E36.27176
G1 X153.325 Y149.845 E36.32817
G1 X151.814 Y150.615 E36.38458
G1 X150.615 Y151.814 E36.44098
G1 X149.845 Y153.325 E36.49738
G1 X149.579 Y155 E36.55379
G1 X149.845 Y156.675 E36.6102
G1 X150.615 Y158.186 E36.6666
G1 X151.814 Y159.385 E36.723
G1 X153.325 Y160.155 E36.77941
G1 X155 Y160.421 E36.83582
G0 F6000 X155 Y160.016
;TYPE:WALL-OUTER
G1 F1200 X156.55 Y159.77 E36.88801
G1 X157.948 Y159.057 E36.94021
G1 X159.057 Y157.948 E36.99237
G1 X159.77 Y156.55 E37.04457
G1 X160.016 Y155 E37.09677
G1 X159.77 Y153.45 E37.14897
G1 X159.057 Y152.052 E37.20116
G1 X157.948 Y150.943 E37.25333
G1 X156.55 Y150.23 E37.30552
G1 X155 Y149.984 E37.35772
G1 X153.45 Y150.23 E37.40992
G1 X152.052 Y150.943 E37.46212
G1 X150.943 Y152.052 E37.51428
G1 X150.23 Y153.45 E37.56647
G1 X149.984 Y155 E37.61867
G1 X150.23 Y156.55 E37.67087
G1 X150.943 Y157.948 E37.72307
G1 X152.052 Y159.057 E37.77523
G1 X153.45 Y159.77 E37.82743
G1 X155 Y160.016 E37.87963
G0 F6000 X155 Y160.456
G1 F3600 E32.87963
G0 F6000 X153.14 Y160.723
G0 X153.722 Y158.938
G0 X137.073 Y188.536
G0 X138.178 Y187.017
G0 X138.551 Y189.247
G0 X138.456 Y189.863
G0 X138.171 Y190.419
G0 X136.557 Y191.81
;TYPE:WALL-INNER
G1 F3600 E37.87963
G1 F1200 X137.348 Y191.684 E37.90627
G1 X138.064 Y191.321 E37.93297
G1 X138.629 Y190.753 E37.95961
G1 X138.995 Y190.039 E37.9863
G1 X139.004 Y189.976 E37.98842
G1 X139.119 Y189.247 E38.01296
G1 X138.995 Y188.455 E38.03962
G1 X138.629 Y187.741 E38.06631
G1 X138.064 Y187.173 E38.09296
G1 X137.348 Y186.81 E38.11966
G1 X136.557 Y186.684 E38.1463
G1 X135.765 Y186.81 E38.17297
G1 X135.051 Y187.173 E38.19961
G1 X134.483 Y187.741 E38.22633
G1 X134.12 Y188.455 E38.25297
G1 X133.994 Y189.247 E38.27964
G1 X134.12 Y190.039 E38.30632
G1 X134.483 Y190.753 E38.33296
G1 X135.051 Y191.321 E38.35967
G1 X135.765 Y191.684 E38.38631
G1 X136.557 Y191.81 E38.41299
G0 F6000 X136.557 Y191.405
G1 F1200 X137.223 Y191.299 E38.43542
G1 X137.826 Y190.993 E38.45791
G1 X138.302 Y190.515 E38.48034
G1 X138.61 Y189.914 E38.50281
G1 X138.714 Y189.247 E38.52526
G1 X138.61 Y188.58 E38.54771
G1 X138.302 Y187.979 E38.57017
G1 X137.826 Y187.501 E38.59261
G1 X137.223 Y187.195 E38.6151
G1 X136.557 Y187.089 E38.63753
G1 X135.89 Y187.195 E38.65999
G1 X135.289 Y187.501 E38.68242
G1 X134.811 Y187.979 E38.70491
G1 X134.505 Y188.58 E38.72734
G1 X134.399 Y189.247 E38.7498
G1 X134.505 Y189.914 E38.77226
G1 X134.811 Y190.515 E38.7947
G1 X135.289 Y190.993 E38.81718
G1 X135.89 Y191.299 E38.83961
G1 X136.557 Y191.405 E38.86207
G0 F6000 X136.557 Y191
;TYPE:WALL-OUTER
G1 F1200 X137.098 Y190.914 E38.88029
G1 X137.588 Y190.665 E38.89857
G1 X137.975 Y190.277 E38.9168
G1 X138.225 Y189.789 E38.93504
G1 X138.309 Y189.247 E38.95328
G1 X138.225 Y188.705 E38.97152
G1 X137.975 Y188.217 E38.98976
G1 X137.588 Y187.829 E39.00799
G1 X137.098 Y187.58 E39.02627
G1 X136.557 Y187.494 E39.04449
G1 X136.015 Y187.58 E39.06274
G1 X135.527 Y187.829 E39.08096
G1 X135.139 Y188.217 E39.09921
G1 X134.89 Y188.705 E39.11743
G1 X134.804 Y189.247 E39.13569
G1 X134.89 Y189.789 E39.15394
G1 X135.139 Y190.277 E39.17216
G1 X135.527 Y190.665 E39.19041
G1 X136.015 Y190.914 E39.20863
G1 X136.557 Y191 E39.22688
G0 F6000 X136.557 Y191.44
G1 F3600 E34.22688
G0 F6000 X137.73 Y190.861
G0 X138.171 Y190.419
G0 X138.456 Y189.863
G0 X138.551 Y189.247
G0 X138.475 Y188.749
G0 X137.813 Y186.832
G0 X138.244 Y185.015
G0 X138.957 Y184.58
;TYPE:WALL-INNER
G1 F3600 E39.22688
G1 F1200 X139.469 Y183.875 E39.25586
G1 X139.544 Y183.405 E39.27169
G1 X139.543 Y182.153 E39.31334
G1 X139.295 Y181.411 E39.33936
G1 X138.593 Y180.9 E39.36824
G1 X138.124 Y180.825 E39.38403
G1 X132.871 Y180.826 E39.55875
G1 X132.13 Y181.074 E39.58474
G1 X131.618 Y181.778 E39.61369
G1 X131.544 Y182.248 E39.62952
G1 X131.545 Y183.495 E39.67099
G1 X131.789 Y184.239 E39.69703
G1 X132.496 Y184.751 E39.72607
G1 X132.967 Y184.825 E39.74192
G1 X138.213 Y184.824 E39.91641
G1 X138.957 Y184.58 E39.94245
G0 F6000 X138.709 Y184.24
G1 F1200 X139.089 Y183.717 E39.96395
G1 X139.144 Y183.373 E39.97554
G1 X139.143 Y182.218 E40.01395
G1 X138.956 Y181.659 E40.03356
G1 X138.435 Y181.28 E40.05499
G1 X138.092 Y181.225 E40.06654
G1 X132.936 Y181.226 E40.23803
G1 X132.378 Y181.413 E40.2576
G1 X131.998 Y181.935 E40.27908
G1 X131.944 Y182.279 E40.29066
G1 X131.945 Y183.431 E40.32898
G1 X132.129 Y183.991 E40.34858
G1 X132.653 Y184.371 E40.37011
G1 X132.998 Y184.425 E40.38172
G1 X138.149 Y184.424 E40.55305
G1 X138.709 Y184.24 E40.57265
G0 F6000 X138.461 Y183.9
;TYPE:WALL-OUTER
G1 F1200 X138.709 Y183.559 E40.58668
G1 X138.744 Y183.341 E40.59402
G1 X138.743 Y182.283 E40.62921
G1 X138.617 Y181.907 E40.6424
G1 X138.277 Y181.66 E40.65638
