;FLAVOR:Marlin
;TIME:23911
;Filament used: 17.6296m
;Layer height: 0.2
;MINX:93.281
;MINY:44.41
;MINZ:0.2
;MAXX:206.72
;MAXY:255.59
;MAXZ:17
;Generated with Cura_SteamEngine 4.12.0
M140 S50
M105
M190 S50
M104 S200
M105
M109 S200
M82 ;absolute extrusion mode
; Ender 3 Custom Start G-code
G92 E0 ; Reset Extruder
G28 ; Home all axes
G1 Z2.0 F3000 ; Move Z Axis up little to prevent scratching of Heat Bed
G1 X0.1 Y20 Z0.3 F5000.0 ; Move to start position
G1 X0.1 Y200.0 Z0.3 F1500.0 E15 ; Draw the first line
G1 X0.4 Y200.0 Z0.3 F5000.0 ; Move to side a little
G1 X0.4 Y20 Z0.3 F1500.0 E30 ; Draw the second line
G92 E0 ; Reset Extruder
G1 Z2.0 F3000 ; Move Z Axis up little to prevent scratching of Heat Bed
G1 X5 Y20 Z0.3 F5000.0 ; Move over to prevent blob squish
G92 E0
G92 E0
G1 F2700 E-5
;LAYER_COUNT:85
;LAYER:0
M107
G0 F6000 X107.461 Y48.764 Z0.2
;TYPE:SKIRT
G1 F2700 E0
G1 F1200 X107.856 Y48.08 E0.02627
G1 X108.319 Y47.44 E0.05254
G1 X109.063 Y46.635 E0.089
G1 X109.179 Y46.526 E0.0943
G1 X109.781 Y46.015 E0.12056
G1 X110.432 Y45.567 E0.14684
G1 X111.124 Y45.188 E0.17309
G1 X111.852 Y44.881 E0.19936
G1 X112.606 Y44.648 E0.22561
G1 X113.381 Y44.494 E0.25189
G1 X114.52 Y44.41 E0.28988
G1 X185.48 Y44.41 E2.65002
G1 X186.269 Y44.45 E2.67629
G1 X187.049 Y44.569 E2.70254
G1 X187.814 Y44.767 E2.72882
G1 X188.554 Y45.041 E2.75507
G1 X189.263 Y45.389 E2.78133
G1 X189.934 Y45.807 E2.80763
G1 X190.821 Y46.526 E2.8456
G1 X190.937 Y46.635 E2.8509
G1 X191.485 Y47.204 E2.87717
G1 X191.972 Y47.826 E2.90345
G1 X192.393 Y48.493 E2.92968
G1 X192.745 Y49.2 E2.95595
G1 X193.024 Y49.939 E2.98222
G1 X193.227 Y50.702 E3.00848
G1 X193.378 Y51.788 E3.04495
G1 X206.706 Y247.131 E9.55719
G1 X206.72 Y247.921 E9.58347
G1 X206.654 Y248.708 E9.60974
G1 X206.508 Y249.484 E9.636
G1 X206.285 Y250.241 E9.66225
G1 X205.987 Y250.972 E9.6885
G1 X205.616 Y251.669 E9.71477
G1 X205.176 Y252.326 E9.74107
G1 X204.659 Y252.949 E9.76799
G1 X204.541 Y253.077 E9.77378
G1 X203.977 Y253.63 E9.80005
G1 X203.36 Y254.123 E9.82632
G1 X202.696 Y254.551 E9.8526
G1 X201.993 Y254.909 E9.87884
G1 X201.257 Y255.195 E9.9051
G1 X200.495 Y255.405 E9.93139
G1 X199.717 Y255.537 E9.95763
G1 X198.806 Y255.59 E9.98799
G1 X160.843 Y255.59 E11.25064
G1 X160.054 Y255.55 E11.27692
G1 X159.696 Y255.495 E11.28896
G1 X159.648 Y255.505 E11.29059
G1 X158.502 Y255.59 E11.32881
G1 X141.498 Y255.59 E11.89437
G1 X140.709 Y255.55 E11.92065
G1 X140.349 Y255.495 E11.93276
G1 X140.263 Y255.512 E11.93567
G1 X139.159 Y255.59 E11.97248
G1 X101.194 Y255.59 E13.23521
G1 X100.405 Y255.55 E13.26148
G1 X99.625 Y255.431 E13.28772
G1 X98.86 Y255.233 E13.31401
G1 X98.12 Y254.959 E13.34025
G1 X97.411 Y254.611 E13.36652
G1 X96.74 Y254.193 E13.39281
G1 X96.116 Y253.71 E13.41906
G1 X95.459 Y253.077 E13.4494
G1 X95.341 Y252.949 E13.45519
G1 X94.836 Y252.342 E13.48146
G1 X94.395 Y251.687 E13.50772
G1 X94.022 Y250.991 E13.53398
G1 X93.722 Y250.26 E13.56026
G1 X93.497 Y249.504 E13.5865
G1 X93.349 Y248.728 E13.61277
G1 X93.281 Y247.941 E13.63905
G1 X93.294 Y247.131 E13.66599
G1 X106.622 Y51.788 E20.17823
G1 X106.716 Y51.004 E20.20449
G1 X106.888 Y50.233 E20.23077
G1 X107.137 Y49.484 E20.25702
G1 X107.461 Y48.764 E20.28328
G0 F6000 X107.854 Y48.875
G1 F1200 X108.247 Y48.214 E20.30886
G1 X108.706 Y47.597 E20.33444
G1 X109.337 Y46.926 E20.36507
G1 X109.453 Y46.817 E20.37036
G1 X110.04 Y46.32 E20.39595
G1 X110.675 Y45.887 E20.42151
G1 X111.352 Y45.522 E20.44709
G1 X112.064 Y45.23 E20.47269
G1 X112.802 Y45.012 E20.49828
G1 X113.558 Y44.873 E20.52385
G1 X114.52 Y44.81 E20.55591
G1 X185.48 Y44.81 E22.91605
G1 X186.248 Y44.85 E22.94163
G1 X187.008 Y44.969 E22.96722
G1 X187.751 Y45.167 E22.99279
G1 X188.47 Y45.441 E23.01838
G1 X189.156 Y45.788 E23.04395
G1 X189.803 Y46.204 E23.06953
G1 X190.547 Y46.817 E23.1016
G1 X190.663 Y46.926 E23.10689
G1 X191.196 Y47.481 E23.13248
G1 X191.668 Y48.089 E23.15809
G1 X192.074 Y48.742 E23.18366
G1 X192.41 Y49.434 E23.20925
G1 X192.673 Y50.156 E23.2348
G1 X192.859 Y50.903 E23.26041
G1 X192.979 Y51.815 E23.291
G1 X206.307 Y247.158 E29.80324
G1 X206.319 Y247.927 E29.82882
G1 X206.252 Y248.694 E29.85443
G1 X206.105 Y249.449 E29.88001
G1 X205.881 Y250.184 E29.90557
G1 X205.581 Y250.893 E29.93117
G1 X205.21 Y251.566 E29.95673
G1 X204.771 Y252.198 E29.98233
G1 X204.365 Y252.678 E30.00324
G1 X204.247 Y252.806 E30.00903
G1 X203.697 Y253.343 E30.03459
G1 X203.094 Y253.821 E30.06019
G1 X202.445 Y254.234 E30.08577
G1 X201.756 Y254.576 E30.11136
G1 X201.036 Y254.846 E30.13693
G1 X200.291 Y255.039 E30.16253
G1 X199.531 Y255.154 E30.1881
G1 X198.806 Y255.19 E30.21224
G1 X160.843 Y255.19 E31.47489
G1 X160.075 Y255.15 E31.50047
G1 X159.672 Y255.087 E31.51404
G1 X159.291 Y255.148 E31.52687
G1 X158.502 Y255.19 E31.55315
G1 X141.498 Y255.19 E32.11871
G1 X140.73 Y255.15 E32.14428
G1 X140.333 Y255.088 E32.15765
G1 X140.087 Y255.132 E32.16596
G1 X139.159 Y255.19 E32.19689
G1 X101.194 Y255.19 E33.45961
G1 X100.426 Y255.15 E33.48519
G1 X99.666 Y255.031 E33.51077
G1 X98.923 Y254.833 E33.53635
G1 X98.204 Y254.559 E33.56194
G1 X97.518 Y254.212 E33.58751
G1 X96.871 Y253.796 E33.61309
G1 X96.271 Y253.315 E33.63867
G1 X95.753 Y252.806 E33.66282
G1 X95.635 Y252.678 E33.66861
G1 X95.144 Y252.086 E33.69419
G1 X94.717 Y251.446 E33.71978
G1 X94.358 Y250.766 E33.74536
G1 X94.072 Y250.052 E33.77094
G1 X93.862 Y249.312 E33.79652
G1 X93.73 Y248.554 E33.82212
G1 X93.677 Y247.787 E33.84769
G1 X93.693 Y247.158 E33.86861
G1 X107.021 Y51.815 E40.38085
G1 X107.113 Y51.052 E40.40641
G1 X107.284 Y50.302 E40.432
G1 X107.532 Y49.574 E40.45758
G1 X107.854 Y48.875 E40.48318
G0 F6000 X108.247 Y48.989
G1 F1200 X108.637 Y48.351 E40.50805
G1 X109.094 Y47.758 E40.53295
G1 X109.611 Y47.218 E40.55781
G1 X109.727 Y47.109 E40.56311
G1 X110.298 Y46.626 E40.58798
G1 X110.918 Y46.208 E40.61285
G1 X111.579 Y45.858 E40.63773
G1 X112.274 Y45.58 E40.66263
G1 X112.994 Y45.378 E40.6875
G1 X113.732 Y45.254 E40.71239
G1 X114.52 Y45.21 E40.73864
G1 X185.48 Y45.21 E43.09878
G1 X186.227 Y45.25 E43.12366
G1 X186.965 Y45.369 E43.14852
G1 X187.687 Y45.567 E43.17342
G1 X188.383 Y45.84 E43.19829
G1 X189.046 Y46.187 E43.22318
G1 X189.669 Y46.602 E43.24807
G1 X190.273 Y47.109 E43.2743
G1 X190.389 Y47.218 E43.2796
G1 X190.906 Y47.758 E43.30446
G1 X191.363 Y48.351 E43.32936
G1 X191.753 Y48.989 E43.35423
G1 X192.073 Y49.665 E43.37911
G1 X192.32 Y50.372 E43.40402
G1 X192.489 Y51.1 E43.42887
G1 X192.58 Y51.843 E43.45377
G1 X205.908 Y247.186 E49.96601
G1 X205.919 Y247.933 E49.99086
G1 X205.85 Y248.678 E50.01574
G1 X205.702 Y249.412 E50.04065
G1 X205.476 Y250.125 E50.06552
G1 X205.176 Y250.81 E50.0904
G1 X204.805 Y251.459 E50.11526
G1 X204.366 Y252.065 E50.14015
G1 X204.071 Y252.407 E50.15517
G1 X203.953 Y252.535 E50.16096
G1 X203.417 Y253.057 E50.18585
G1 X202.829 Y253.519 E50.21072
G1 X202.194 Y253.915 E50.23561
G1 X201.521 Y254.242 E50.2605
G1 X200.817 Y254.495 E50.28538
G1 X200.09 Y254.671 E50.31026
G1 X199.349 Y254.769 E50.33512
G1 X198.806 Y254.79 E50.35319
G1 X160.843 Y254.79 E51.61584
G1 X160.096 Y254.75 E51.64072
G1 X159.699 Y254.686 E51.6541
G1 X158.942 Y254.776 E51.67945
G1 X158.502 Y254.79 E51.6941
G1 X141.498 Y254.79 E52.25965
G1 X140.751 Y254.75 E52.28453
G1 X140.328 Y254.682 E52.29878
G1 X139.915 Y254.749 E52.3127
G1 X139.159 Y254.79 E52.33788
G1 X101.194 Y254.79 E53.6006
G1 X100.447 Y254.75 E53.62548
G1 X99.709 Y254.631 E53.65035
G1 X98.987 Y254.433 E53.67525
G1 X98.291 Y254.16 E53.70011
G1 X97.628 Y253.813 E53.725
G1 X97.005 Y253.398 E53.7499
G1 X96.431 Y252.919 E53.77476
G1 X96.047 Y252.535 E53.79283
G1 X95.929 Y252.407 E53.79862
G1 X95.452 Y251.83 E53.82352
G1 X95.04 Y251.206 E53.84839
G1 X94.696 Y250.542 E53.87326
G1 X94.425 Y249.845 E53.89813
G1 X94.23 Y249.122 E53.92304
G1 X94.113 Y248.384 E53.94789
G1 X94.076 Y247.636 E53.9728
G1 X94.092 Y247.186 E53.98778
G1 X107.42 Y51.843 E60.50002
G1 X107.511 Y51.1 E60.52491
G1 X107.68 Y50.371 E60.5498
G1 X107.927 Y49.665 E60.57468
G1 X108.247 Y48.989 E60.59956
G0 F6000 X108.639 Y49.105
G1 F1200 X109.027 Y48.491 E60.62371
G1 X109.481 Y47.924 E60.64787
G1 X109.884 Y47.509 E60.66711
G1 X110 Y47.4 E60.67241
G1 X110.556 Y46.933 E60.69656
G1 X111.16 Y46.529 E60.72073
G1 X111.805 Y46.194 E60.7449
G1 X112.482 Y45.932 E60.76904
G1 X113.185 Y45.747 E60.79322
G1 X113.903 Y45.639 E60.81737
G1 X114.52 Y45.61 E60.83791
G1 X185.48 Y45.61 E63.19805
G1 X186.205 Y45.65 E63.2222
G1 X186.922 Y45.769 E63.24638
G1 X187.621 Y45.967 E63.27054
G1 X188.294 Y46.24 E63.2947
G1 X188.933 Y46.585 E63.31885
G1 X189.53 Y46.999 E63.34301
G1 X190 Y47.4 E63.36356
G1 X190.116 Y47.509 E63.36886
G1 X190.617 Y48.035 E63.39302
G1 X191.057 Y48.613 E63.41718
G1 X191.431 Y49.235 E63.44132
G1 X191.735 Y49.895 E63.46549
G1 X191.964 Y50.584 E63.48963
G1 X192.116 Y51.295 E63.51382
G1 X192.181 Y51.87 E63.53306
G1 X205.509 Y247.213 E70.0453
G1 X205.518 Y247.939 E70.06945
G1 X205.448 Y248.662 E70.09361
G1 X205.298 Y249.373 E70.11778
G1 X205.072 Y250.063 E70.14193
G1 X204.771 Y250.724 E70.16609
G1 X204.399 Y251.348 E70.19025
G1 X203.777 Y252.135 E70.22361
G1 X203.659 Y252.263 E70.2294
G1 X203.138 Y252.77 E70.25358
G1 X202.564 Y253.215 E70.27774
G1 X201.945 Y253.596 E70.30191
G1 X201.288 Y253.905 E70.32606
G1 X200.601 Y254.141 E70.35022
G1 X199.892 Y254.3 E70.37439
G1 X199.17 Y254.38 E70.39855
G1 X198.806 Y254.39 E70.41066
G1 X160.843 Y254.39 E71.67332
G1 X160.118 Y254.35 E71.69747
G1 X159.669 Y254.276 E71.7126
G1 X159.326 Y254.338 E71.72419
G1 X158.502 Y254.39 E71.75166
G1 X141.498 Y254.39 E72.31721
G1 X140.773 Y254.35 E72.34136
G1 X140.34 Y254.278 E72.35596
G1 X139.746 Y254.364 E72.37592
G1 X139.159 Y254.39 E72.39547
G1 X101.194 Y254.39 E73.65819
G1 X100.469 Y254.35 E73.68234
G1 X99.752 Y254.231 E73.70651
G1 X99.053 Y254.033 E73.73067
G1 X98.38 Y253.76 E73.75483
G1 X97.741 Y253.415 E73.77898
G1 X97.144 Y253.001 E73.80315
G1 X96.596 Y252.525 E73.82729
G1 X96.341 Y252.263 E73.83945
G1 X96.223 Y252.135 E73.84524
G1 X95.761 Y251.575 E73.86939
G1 X95.363 Y250.967 E73.89356
G1 X95.035 Y250.32 E73.91768
G1 X94.779 Y249.64 E73.94185
G1 X94.6 Y248.936 E73.96601
G1 X94.499 Y248.216 E73.99019
G1 X94.491 Y247.213 E74.02355
G1 X107.819 Y51.87 E80.53579
G1 X107.909 Y51.149 E80.55996
G1 X108.076 Y50.442 E80.58412
G1 X108.321 Y49.758 E80.60829
G1 X108.639 Y49.105 E80.63244
G0 F6000 X109.031 Y49.225
G1 F1200 X109.417 Y48.636 E80.65586
G1 X109.867 Y48.094 E80.6793
G1 X110.158 Y47.801 E80.69303
G1 X110.274 Y47.692 E80.69832
G1 X110.814 Y47.24 E80.72175
G1 X111.401 Y46.851 E80.74517
G1 X112.029 Y46.532 E80.7686
G1 X112.689 Y46.287 E80.79201
G1 X113.372 Y46.117 E80.81542
G1 X114.07 Y46.026 E80.83883
G1 X114.52 Y46.01 E80.85381
G1 X185.48 Y46.01 E83.21395
G1 X186.183 Y46.05 E83.23737
G1 X186.877 Y46.169 E83.26079
G1 X187.552 Y46.367 E83.28418
G1 X188.201 Y46.639 E83.30759
G1 X188.815 Y46.984 E83.33101
G1 X189.386 Y47.395 E83.35441
G1 X189.726 Y47.692 E83.36943
G1 X189.842 Y47.801 E83.37472
G1 X190.326 Y48.311 E83.39811
G1 X190.75 Y48.873 E83.42152
G1 X191.108 Y49.48 E83.44496
G1 X191.394 Y50.123 E83.46837
G1 X191.606 Y50.794 E83.49177
G1 X191.74 Y51.485 E83.51518
G1 X191.782 Y51.897 E83.52896
G1 X205.11 Y247.24 E90.0412
G1 X205.118 Y247.944 E90.06461
G1 X205.046 Y248.644 E90.08802
G1 X204.895 Y249.332 E90.11145
G1 X204.667 Y249.998 E90.13486
G1 X204.365 Y250.634 E90.15828
G1 X203.993 Y251.232 E90.1817
G1 X203.483 Y251.864 E90.20871
G1 X203.365 Y251.992 E90.2145
G1 X202.859 Y252.482 E90.23793
G1 X202.301 Y252.911 E90.26134
G1 X201.698 Y253.274 E90.28475
G1 X201.057 Y253.567 E90.30819
G1 X200.388 Y253.785 E90.33159
G1 X199.698 Y253.925 E90.35501
G1 X198.806 Y253.99 E90.38476
G1 X160.843 Y253.99 E91.64741
G1 X160.14 Y253.95 E91.67083
G1 X159.694 Y253.873 E91.68589
G1 X159.672 Y253.879 E91.68664
G1 X158.974 Y253.972 E91.71006
G1 X158.502 Y253.99 E91.72577
G1 X141.498 Y253.99 E92.29133
G1 X140.795 Y253.95 E92.31475
G1 X140.343 Y253.872 E92.33001
G1 X140.279 Y253.888 E92.3322
G1 X139.581 Y253.976 E92.3556
G1 X139.159 Y253.99 E92.36964
G1 X101.194 Y253.99 E93.63236
G1 X100.491 Y253.95 E93.65578
G1 X99.797 Y253.831 E93.6792
G1 X99.122 Y253.633 E93.7026
G1 X98.473 Y253.361 E93.726
G1 X97.859 Y253.016 E93.74943
G1 X97.288 Y252.605 E93.77283
G1 X96.635 Y251.992 E93.80262
G1 X96.517 Y251.864 E93.80841
G1 X96.07 Y251.321 E93.8318
G1 X95.688 Y250.729 E93.85523
G1 X95.375 Y250.099 E93.87863
G1 X95.135 Y249.437 E93.90205
G1 X94.973 Y248.752 E93.92546
G1 X94.888 Y248.053 E93.94888
G1 X94.89 Y247.24 E93.97592
G1 X108.218 Y51.897 E100.48816
G1 X108.306 Y51.198 E100.5116
G1 X108.472 Y50.514 E100.53501
G1 X108.715 Y49.854 E100.5584
G1 X109.031 Y49.225 E100.58181
G0 F6000 X109.109 Y49.951
G1 F1200 X109.423 Y49.347 E100.60445
G1 X109.806 Y48.784 E100.6271
G1 X110.432 Y48.092 E100.65814
G1 X110.548 Y47.983 E100.66343
G1 X111.071 Y47.547 E100.68608
G1 X111.641 Y47.175 E100.70872
G1 X112.251 Y46.872 E100.73137
G1 X112.892 Y46.643 E100.75401
G1 X113.556 Y46.491 E100.77667
G1 X114.52 Y46.41 E100.80884
G1 X185.48 Y46.41 E103.16898
G1 X186.16 Y46.45 E103.19164
G1 X186.83 Y46.569 E103.21427
G1 X187.482 Y46.766 E103.23692
G1 X188.106 Y47.038 E103.25956
G1 X188.694 Y47.382 E103.28222
G1 X189.452 Y47.983 E103.3144
G1 X189.568 Y48.092 E103.31969
G1 X190.036 Y48.587 E103.34235
G1 X190.442 Y49.133 E103.36498
G1 X190.782 Y49.723 E103.38763
G1 X191.051 Y50.348 E103.41026
G1 X191.244 Y51.001 E103.43291
G1 X191.383 Y51.924 E103.46395
G1 X204.711 Y247.267 E109.97619
G1 X204.717 Y247.948 E109.99884
G1 X204.644 Y248.625 E110.02149
G1 X204.491 Y249.289 E110.04415
G1 X204.262 Y249.93 E110.06679
G1 X203.96 Y250.54 E110.08943
G1 X203.588 Y251.11 E110.11207
G1 X203.188 Y251.593 E110.13293
G1 X203.07 Y251.721 E110.13872
G1 X202.58 Y252.194 E110.16137
G1 X202.038 Y252.606 E110.18401
G1 X201.452 Y252.951 E110.20663
G1 X200.828 Y253.226 E110.22931
G1 X200.177 Y253.426 E110.25196
G1 X199.508 Y253.547 E110.27457
G1 X198.806 Y253.59 E110.29797
G1 X160.843 Y253.59 E111.56062
G1 X160.163 Y253.55 E111.58328
G1 X159.667 Y253.462 E111.60003
G1 X159.31 Y253.534 E111.61214
G1 X158.502 Y253.59 E111.63908
G1 X141.498 Y253.59 E112.20464
G1 X140.818 Y253.55 E112.22729
G1 X140.325 Y253.462 E112.24395
G1 X140.097 Y253.514 E112.25173
G1 X139.159 Y253.59 E112.28303
G1 X101.194 Y253.59 E113.54575
G1 X100.514 Y253.55 E113.56841
G1 X99.844 Y253.431 E113.59104
G1 X99.192 Y253.234 E113.61369
G1 X98.568 Y252.962 E113.63633
G1 X97.98 Y252.618 E113.65899
G1 X97.436 Y252.208 E113.68165
G1 X96.93 Y251.721 E113.70501
G1 X96.812 Y251.593 E113.7108
G1 X96.38 Y251.066 E113.73346
G1 X96.014 Y250.493 E113.75608
G1 X95.717 Y249.88 E113.77873
G1 X95.494 Y249.237 E113.80137
G1 X95.348 Y248.572 E113.82401
G1 X95.281 Y247.894 E113.84667
G1 X95.289 Y247.267 E113.86753
G1 X108.617 Y51.924 E120.37977
G1 X108.704 Y51.249 E120.4024
G1 X108.868 Y50.588 E120.42506
G1 X109.109 Y49.951 E120.44771
G0 F6000 X109.503 Y50.052
G1 F1200 X109.815 Y49.473 E120.46958
G1 X110.194 Y48.937 E120.49142
G1 X110.706 Y48.384 E120.51648
G1 X110.822 Y48.275 E120.52178
G1 X111.327 Y47.855 E120.54362
G1 X111.88 Y47.499 E120.5655
G1 X112.472 Y47.214 E120.58735
G1 X113.093 Y47.002 E120.60918
G1 X113.736 Y46.867 E120.63103
G1 X114.52 Y46.81 E120.65717
G1 X185.48 Y46.81 E123.01731
G1 X186.136 Y46.85 E123.03917
G1 X186.782 Y46.969 E123.06102
G1 X187.409 Y47.166 E123.08288
G1 X188.007 Y47.438 E123.10473
G1 X188.568 Y47.78 E123.12658
G1 X189.178 Y48.275 E123.15271
G1 X189.294 Y48.384 E123.158
G1 X189.744 Y48.862 E123.17984
G1 X190.133 Y49.391 E123.20168
G1 X190.455 Y49.964 E123.22354
G1 X190.705 Y50.571 E123.24537
G1 X190.88 Y51.205 E123.26725
G1 X190.983 Y51.951 E123.2923
G1 X204.311 Y247.294 E129.80454
G1 X204.316 Y247.951 E129.82639
G1 X204.241 Y248.604 E129.84825
G1 X204.087 Y249.243 E129.87011
G1 X203.857 Y249.858 E129.89195
G1 X203.554 Y250.441 E129.9138
G1 X203.182 Y250.983 E129.93567
G1 X202.894 Y251.322 E129.95046
G1 X202.776 Y251.45 E129.95625
G1 X202.302 Y251.905 E129.97811
G1 X201.777 Y252.299 E129.99994
G1 X201.207 Y252.627 E130.02181
G1 X200.602 Y252.883 E130.04366
G1 X199.97 Y253.063 E130.06552
G1 X199.322 Y253.165 E130.08734
G1 X198.806 Y253.19 E130.10452
