;FLAVOR:Marlin
;TIME:1305
;Filament used: 0.551904m
;Layer height: 0.15
;MINX:106.748
;MINY:96.436
;MINZ:0.2
;MAXX:133.564
;MAXY:115.053
;MAXZ:36.95
;Generated with Cura_SteamEngine main
M82 ;absolute extrusion mode
G21 ; set units to millimeters
G90 ; use absolute positioning
M82 ; absolute extrusion mode
M104 S215.0 ; set extruder temp
M140 S60 ; set bed temp
M190 S60 ; wait for bed temp
M109 S215.0 ; wait for extruder temp
G28 W ; home all without mesh bed level
G80 ; mesh bed leveling
G92 E0.0 ; reset extruder distance position
G1 Y-3.0 F1000.0 ; go outside print area
G1 X60.0 E9.0 F1000.0 ; intro line
G1 X100.0 E21.5 F1000.0 ; intro line
G92 E0.0 ; reset extruder distance position
G92 E0
G92 E0
G1 F2100 E-0.8
;LAYER_COUNT:246
;LAYER:0
M107
G0 F3600 X108.784 Y100.979 Z0.2
G0 X106.748 Y106.535
;TYPE:SKIRT
G1 F2100 E0
G1 F1800 X106.792 Y105.883 E0.02173
G1 X106.916 Y105.02 E0.05073
G1 X107.014 Y104.456 E0.06977
G1 X107.155 Y103.88 E0.0895
G1 X107.399 Y103.27 E0.11135
G1 X107.749 Y102.56 E0.13768
G1 X108.045 Y101.997 E0.15883
G1 X108.356 Y101.492 E0.17856
G1 X108.784 Y100.979 E0.20078
G1 X109.35 Y100.399 E0.22773
G1 X109.788 Y99.973 E0.24805
G1 X110.24 Y99.589 E0.26778
G1 X110.794 Y99.24 E0.28956
G1 X111.431 Y98.902 E0.31354
G1 X112.079 Y98.582 E0.33758
G1 X112.628 Y98.357 E0.35731
G1 X113.257 Y98.198 E0.37889
G1 X114.084 Y98.055 E0.40681
G1 X114.659 Y97.972 E0.42613
G1 X115.228 Y97.905 E0.44519
G1 X117.982 Y97.549 E0.53755
G1 X120.631 Y97.129 E0.62675
G1 X121.891 Y96.892 E0.6694
G1 X123.647 Y96.586 E0.72868
G1 X124.365 Y96.481 E0.75282
G1 X124.956 Y96.436 E0.77253
G1 X125.612 Y96.48 E0.7944
G1 X126.315 Y96.58 E0.81801
G1 X127.029 Y96.702 E0.84211
G1 X127.605 Y96.842 E0.86182
G1 X128.216 Y97.087 E0.88372
G1 X128.96 Y97.454 E0.91131
G1 X129.495 Y97.736 E0.93142
G1 X129.999 Y98.047 E0.95112
G1 X130.507 Y98.47 E0.97311
G1 X131.014 Y98.962 E0.99661
G1 X131.514 Y99.473 E1.02038
G1 X131.898 Y99.925 E1.04011
G1 X132.249 Y100.482 E1.06201
G1 X132.648 Y101.238 E1.09044
G1 X132.909 Y101.771 E1.11018
G1 X133.133 Y102.32 E1.1299
G1 X133.291 Y102.946 E1.15137
G1 X133.434 Y103.771 E1.17922
G1 X133.519 Y104.358 E1.19895
G1 X133.564 Y104.95 E1.2187
G1 X133.521 Y105.606 E1.24056
G1 X133.421 Y106.312 E1.26428
G1 X133.296 Y107.036 E1.28872
G1 X133.155 Y107.612 E1.30844
G1 X132.916 Y108.208 E1.3298
G1 X132.606 Y108.843 E1.3533
G1 X132.262 Y109.498 E1.37791
G1 X131.951 Y110.003 E1.39763
G1 X131.53 Y110.507 E1.41947
G1 X131.038 Y111.014 E1.44297
G1 X130.527 Y111.514 E1.46675
G1 X130.075 Y111.898 E1.48648
G1 X129.518 Y112.249 E1.50837
G1 X128.762 Y112.648 E1.53681
G1 X128.229 Y112.909 E1.55654
G1 X127.68 Y113.133 E1.57627
G1 X127.054 Y113.291 E1.59774
G1 X126.358 Y113.413 E1.62124
G1 X125.49 Y113.539 E1.65041
G1 X125.043 Y113.59 E1.66538
G1 X122.32 Y113.942 E1.7567
G1 X119.663 Y114.363 E1.84617
G1 X118.415 Y114.598 E1.88841
G1 X116.666 Y114.903 E1.94746
G1 X115.933 Y115.009 E1.97209
G1 X115.342 Y115.053 E1.99181
G1 X114.693 Y115.009 E2.01344
G1 X113.896 Y114.894 E2.04022
G1 X113.283 Y114.788 E2.06091
G1 X112.707 Y114.647 E2.08064
G1 X112.095 Y114.402 E2.10256
G1 X111.34 Y114.03 E2.13056
G1 X110.815 Y113.753 E2.1503
G1 X110.31 Y113.441 E2.17004
G1 X109.805 Y113.02 E2.19191
G1 X109.221 Y112.451 E2.21903
G1 X108.79 Y112.007 E2.23961
G1 X108.406 Y111.554 E2.25936
G1 X108.057 Y110.999 E2.28117
G1 X107.735 Y110.39 E2.30408
G1 X107.401 Y109.711 E2.32925
G1 X107.177 Y109.162 E2.34897
G1 X107.019 Y108.538 E2.37038
G1 X106.901 Y107.866 E2.39307
G1 X106.793 Y107.126 E2.41795
G1 X106.748 Y106.535 E2.43766
G0 F3600 X107.148 Y106.505
G1 F1800 X107.188 Y105.939 E2.45653
G1 X107.31 Y105.088 E2.48513
G1 X107.408 Y104.524 E2.50417
G1 X107.544 Y103.975 E2.52298
G1 X107.758 Y103.446 E2.54196
G1 X108.053 Y102.845 E2.56423
G1 X108.4 Y102.184 E2.58906
G1 X108.697 Y101.703 E2.60786
G1 X109.071 Y101.258 E2.62719
G1 X109.629 Y100.686 E2.65377
G1 X110.067 Y100.26 E2.67409
G1 X110.499 Y99.895 E2.6929
G1 X110.981 Y99.594 E2.7118
G1 X111.618 Y99.256 E2.73579
G1 X112.256 Y98.941 E2.75945
G1 X112.78 Y98.728 E2.77827
G1 X113.326 Y98.592 E2.79698
G1 X114.022 Y98.47 E2.82048
G1 X114.832 Y98.353 E2.8477
G1 X115.311 Y98.298 E2.86374
G1 X118.025 Y97.947 E2.95476
G1 X120.697 Y97.524 E3.04474
G1 X121.959 Y97.286 E3.08745
G1 X123.715 Y96.98 E3.14674
G1 X124.422 Y96.877 E3.1705
G1 X124.985 Y96.836 E3.18927
G1 X125.555 Y96.876 E3.20828
G1 X126.378 Y96.995 E3.23594
G1 X126.961 Y97.096 E3.25562
G1 X127.51 Y97.231 E3.27442
G1 X128.039 Y97.446 E3.29341
G1 X128.773 Y97.807 E3.32062
G1 X129.308 Y98.089 E3.34073
G1 X129.788 Y98.388 E3.35954
G1 X130.229 Y98.757 E3.37867
G1 X130.736 Y99.249 E3.40216
G1 X131.227 Y99.752 E3.42554
G1 X131.592 Y100.184 E3.44435
G1 X131.896 Y100.669 E3.46339
G1 X132.23 Y101.299 E3.48711
G1 X132.549 Y101.947 E3.51113
G1 X132.762 Y102.471 E3.52994
G1 X132.897 Y103.015 E3.54859
G1 X133.038 Y103.829 E3.57606
G1 X133.123 Y104.416 E3.59579
G1 X133.164 Y104.98 E3.6146
G1 X133.124 Y105.55 E3.6336
G1 X133.004 Y106.384 E3.66163
G1 X132.902 Y106.967 E3.68131
G1 X132.766 Y107.516 E3.70012
G1 X132.557 Y108.033 E3.71867
G1 X132.247 Y108.668 E3.74217
G1 X131.909 Y109.311 E3.76634
G1 X131.61 Y109.791 E3.78514
G1 X131.243 Y110.229 E3.80415
G1 X130.751 Y110.736 E3.82765
G1 X130.248 Y111.227 E3.85103
G1 X129.816 Y111.592 E3.86984
G1 X129.331 Y111.896 E3.88888
G1 X128.701 Y112.23 E3.91259
G1 X128.053 Y112.549 E3.93661
G1 X127.529 Y112.762 E3.95543
G1 X126.985 Y112.897 E3.97407
G1 X126.172 Y113.038 E4.00151
G1 X125.565 Y113.126 E4.02191
G1 X125.012 Y113.19 E4.04043
G1 X122.277 Y113.544 E4.13216
G1 X119.598 Y113.968 E4.22237
G1 X118.346 Y114.204 E4.26474
G1 X116.597 Y114.509 E4.32379
G1 X115.877 Y114.613 E4.34799
G1 X115.313 Y114.653 E4.36679
G1 X114.749 Y114.613 E4.3856
G1 X113.964 Y114.5 E4.41198
G1 X113.351 Y114.394 E4.43267
G1 X112.803 Y114.258 E4.45145
G1 X112.271 Y114.043 E4.47053
G1 X111.526 Y113.676 E4.49816
G1 X111.001 Y113.399 E4.5179
G1 X110.521 Y113.1 E4.53671
G1 X110.084 Y112.733 E4.55569
G1 X109.508 Y112.172 E4.58243
G1 X109.077 Y111.728 E4.60301
G1 X108.713 Y111.296 E4.6218
G1 X108.411 Y110.812 E4.64078
G1 X108.032 Y110.091 E4.66787
G1 X107.76 Y109.535 E4.68845
G1 X107.548 Y109.011 E4.70726
G1 X107.413 Y108.469 E4.72583
G1 X107.295 Y107.797 E4.74853
G1 X107.189 Y107.069 E4.77299
G1 X107.148 Y106.505 E4.7918
G0 F3600 X107.537 Y106.322
G1 F1800 X107.704 Y105.157 E4.83095
G1 X107.802 Y104.593 E4.84999
G1 X107.972 Y103.919 E4.87311
G1 X108.412 Y103.022 E4.90634
G1 X108.754 Y102.37 E4.93082
G1 X109.126 Y101.774 E4.95419
G1 X109.908 Y100.972 E4.99145
G1 X110.346 Y100.546 E5.01177
G1 X110.878 Y100.1 E5.03486
G1 X111.908 Y99.557 E5.07359
G1 X112.432 Y99.3 E5.093
G1 X113.071 Y99.043 E5.11591
G1 X114.091 Y98.864 E5.15035
G1 X114.774 Y98.764 E5.17331
G1 X115.341 Y98.698 E5.19229
G1 X118.067 Y98.345 E5.28372
G1 X120.767 Y97.917 E5.37464
G1 X122.028 Y97.68 E5.41732
G1 X123.784 Y97.374 E5.4766
G1 X124.479 Y97.273 E5.49996
G1 X125.173 Y97.225 E5.5231
G1 X126.31 Y97.389 E5.56131
G1 X126.893 Y97.49 E5.58099
G1 X127.563 Y97.658 E5.60396
G1 X128.587 Y98.161 E5.64191
G1 X129.122 Y98.443 E5.66202
G1 X129.715 Y98.816 E5.68532
G1 X130.529 Y99.608 E5.7231
G1 X130.941 Y100.031 E5.74274
G1 X131.389 Y100.566 E5.76594
G1 X131.877 Y101.487 E5.80061
G1 X132.19 Y102.123 E5.82419
G1 X132.449 Y102.77 E5.84737
G1 X132.642 Y103.886 E5.88504
G1 X132.727 Y104.473 E5.90476
G1 X132.775 Y105.167 E5.9279
G1 X132.61 Y106.315 E5.96648
G1 X132.508 Y106.898 E5.98616
G1 X132.34 Y107.566 E6.00907
G1 X131.835 Y108.595 E6.0472
G1 X131.555 Y109.125 E6.06713
G1 X131.184 Y109.716 E6.09034
G1 X130.392 Y110.529 E6.12809
G1 X129.969 Y110.941 E6.14773
G1 X129.434 Y111.389 E6.17094
G1 X128.513 Y111.877 E6.20561
G1 X127.877 Y112.19 E6.22918
G1 X127.23 Y112.448 E6.25235
G1 X126.115 Y112.642 E6.28999
G1 X125.508 Y112.73 E6.31039
G1 X124.917 Y112.799 E6.33018
G1 X122.235 Y113.146 E6.42013
G1 X119.527 Y113.575 E6.51132
G1 X118.326 Y113.801 E6.55197
G1 X116.417 Y114.132 E6.61641
G1 X115.82 Y114.217 E6.63647
G1 X115.131 Y114.263 E6.65943
G1 X114.138 Y114.122 E6.69279
G1 X113.42 Y113.999 E6.71702
G1 X112.747 Y113.831 E6.74009
G1 X111.807 Y113.37 E6.77491
G1 X111.188 Y113.045 E6.79817
G1 X110.598 Y112.674 E6.82135
G1 X109.872 Y111.971 E6.85496
G1 X109.364 Y111.449 E6.87919
G1 X108.918 Y110.916 E6.9023
G1 X108.442 Y110.016 E6.93616
G1 X108.119 Y109.359 E6.96051
G1 X107.863 Y108.718 E6.98347
G1 X107.689 Y107.728 E7.0169
G1 X107.585 Y107.012 E7.04097
G1 X107.537 Y106.322 E7.06397
G0 F3600 X107.94 Y106.33
G1 F1800 X108.098 Y105.225 E7.1011
G1 X108.196 Y104.661 E7.12014
G1 X108.353 Y104.049 E7.14115
G1 X108.771 Y103.198 E7.17269
G1 X109.108 Y102.556 E7.1968
G1 X109.444 Y102.021 E7.21782
G1 X110.187 Y101.259 E7.25321
G1 X110.625 Y100.833 E7.27354
G1 X111.109 Y100.431 E7.29446
G1 X111.993 Y99.962 E7.32775
G1 X112.608 Y99.659 E7.35055
G1 X113.192 Y99.428 E7.37144
G1 X114.161 Y99.258 E7.40416
G1 X114.923 Y99.148 E7.42977
G1 X115.382 Y99.095 E7.44513
G1 X118.149 Y98.737 E7.53793
G1 X120.839 Y98.311 E7.62852
G1 X122.053 Y98.082 E7.66961
G1 X123.946 Y97.754 E7.73351
G1 X124.536 Y97.669 E7.75333
G1 X125.164 Y97.628 E7.77426
G1 X126.241 Y97.783 E7.81045
G1 X126.824 Y97.884 E7.83013
G1 X127.435 Y98.04 E7.85111
G1 X128.4 Y98.515 E7.88688
G1 X128.935 Y98.797 E7.907
G1 X129.474 Y99.139 E7.92823
G1 X130.242 Y99.887 E7.96388
G1 X130.654 Y100.31 E7.98352
G1 X131.059 Y100.798 E8.00462
G1 X131.57 Y101.766 E8.04102
G1 X131.831 Y102.299 E8.06076
G1 X132.062 Y102.882 E8.08162
G1 X132.246 Y103.943 E8.11743
G1 X132.331 Y104.53 E8.13716
G1 X132.372 Y105.159 E8.15813
G1 X132.216 Y106.246 E8.19465
G1 X132.114 Y106.829 E8.21434
G1 X131.958 Y107.437 E8.23521
G1 X131.528 Y108.317 E8.26779
G1 X131.201 Y108.938 E8.29113
G1 X130.864 Y109.47 E8.31208
G1 X130.113 Y110.242 E8.3479
G1 X129.69 Y110.654 E8.36754
G1 X129.202 Y111.059 E8.38863
G1 X128.234 Y111.57 E8.42504
G1 X127.701 Y111.831 E8.44478
G1 X127.118 Y112.062 E8.46564
G1 X126.057 Y112.246 E8.50145
G1 X125.45 Y112.334 E8.52185
G1 X124.92 Y112.396 E8.5396
G1 X122.153 Y112.754 E8.6324
G1 X119.462 Y113.18 E8.72301
G1 X118.252 Y113.408 E8.76397
G1 X116.361 Y113.736 E8.8278
G1 X115.764 Y113.821 E8.84786
G1 X115.137 Y113.861 E8.86875
G1 X114.101 Y113.711 E8.90357
G1 X113.488 Y113.605 E8.92426
G1 X112.877 Y113.449 E8.94524
G1 X111.984 Y113.011 E8.97832
G1 X111.375 Y112.691 E9.0012
G1 X110.84 Y112.353 E9.02225
G1 X110.082 Y111.615 E9.05743
G1 X109.651 Y111.171 E9.07801
G1 X109.247 Y110.681 E9.09914
G1 X108.796 Y109.829 E9.1312
G1 X108.479 Y109.183 E9.15513
G1 X108.249 Y108.601 E9.17595
G1 X108.083 Y107.658 E9.20779
G1 X107.981 Y106.955 E9.23142
G1 X107.94 Y106.33 E9.25225
G1 F2100 E8.45225
;MESH:BNO_quarter_standoff.stl(1)
G0 F3600 X110.484 Y106.356
G0 X111.324 Y106.489
;TYPE:WALL-OUTER
G1 F2100 E9.25225
G1 F1935.5 X111.521 Y107.72 E9.29082
G1 F1940.7 X112.085 Y108.829 E9.3292
G1 F1935.5 X112.969 Y109.714 E9.36789
G1 X114.08 Y110.28 E9.40646
G1 X115.311 Y110.476 E9.44501
G1 X116.543 Y110.28 E9.4836
G1 F1940.7 X117.654 Y109.714 E9.52207
G1 X118.538 Y108.829 E9.56065
G1 X119.102 Y107.72 E9.59903
G1 X119.292 Y106.518 E9.63657
G1 X119.298 Y106.489 E9.63749
G1 X119.102 Y105.258 E9.67594
G1 F1935.5 X118.538 Y104.149 E9.71443
G1 X117.654 Y103.264 E9.75312
G1 F1940.7 X116.543 Y102.698 E9.79158
G1 X115.311 Y102.502 E9.83007
G1 X114.08 Y102.698 E9.86852
G1 F1935.5 X112.969 Y103.264 E9.90709
G1 X112.085 Y104.149 E9.94578
G1 F1940.7 X111.521 Y105.258 E9.98416
G1 F1935.5 X111.324 Y106.489 E10.02272
G0 F3600 X111.355 Y106.686
G0 X111.7 Y106.49
G1 F1935.5 X111.876 Y105.374 E10.05767
G1 F1940.7 X112.389 Y104.369 E10.09248
G1 F1935.5 X113.188 Y103.568 E10.12747
G1 X114.195 Y103.054 E10.16244
G1 F1940.7 X115.31 Y102.878 E10.19727
G1 X116.427 Y103.054 E10.23215
G1 X117.433 Y103.566 E10.26697
G1 F1935.5 X118.233 Y104.367 E10.30199
G1 X118.746 Y105.373 E10.33692
G1 F1940.7 X118.922 Y106.488 E10.37174
G1 X118.747 Y107.604 E10.40659
G1 X118.234 Y108.609 E10.4414
G1 X117.435 Y109.41 E10.4763
G1 X116.428 Y109.924 E10.51118
G1 F1935.5 X115.312 Y110.1 E10.54612
G1 X114.196 Y109.924 E10.58107
G1 X113.19 Y109.412 E10.61599
G1 X112.39 Y108.611 E10.651
G1 F1940.7 X111.877 Y107.605 E10.68584
G1 F1935.5 X111.7 Y106.49 E10.72076
G0 F3600 X111.731 Y106.293
G1 F2100 E9.92076
;MESH:BNO_quarter_standoff.stl
G0 F3600 X121.013 Y105
;TYPE:WALL-OUTER
G1 F2100 E10.72076
G1 F1935.5 X121.209 Y106.231 E10.75932
G1 X121.773 Y107.34 E10.7978
G1 X122.658 Y108.225 E10.83652
G1 X123.769 Y108.791 E10.87508
G1 X125 Y108.987 E10.91364
G1 X126.231 Y108.791 E10.9522
G1 F1940.7 X127.342 Y108.225 E10.99066
G1 F1935.5 X128.227 Y107.34 E11.02938
G1 F1940.7 X128.791 Y106.231 E11.06776
G1 X128.981 Y105.029 E11.1053
G1 X128.987 Y105 E11.10621
G1 X128.791 Y103.769 E11.14466
G1 F1935.5 X128.227 Y102.66 E11.18315
G1 X127.342 Y101.775 E11.22186
G1 F1940.7 X126.231 Y101.209 E11.26033
G1 X125 Y101.013 E11.29878
G1 X123.769 Y101.209 E11.33723
G1 F1935.5 X122.658 Y101.775 E11.3758
G1 X121.773 Y102.66 E11.41451
G1 X121.209 Y103.769 E11.453
G1 X121.013 Y105 E11.49156
G0 F3600 X121.044 Y105.197
G0 X121.389 Y105.001
G1 F1935.5 X121.565 Y103.885 E11.5265
G1 X122.077 Y102.88 E11.56139
G1 X122.878 Y102.078 E11.59645
G1 X123.884 Y101.565 E11.63138
G1 F1940.7 X124.999 Y101.389 E11.6662
G1 X126.115 Y101.565 E11.70106
G1 X127.121 Y102.077 E11.73588
G1 F1935.5 X127.923 Y102.879 E11.77096
G1 X128.435 Y103.884 E11.80585
G1 F1940.7 X128.611 Y104.999 E11.84067
G1 X128.435 Y106.115 E11.87553
G1 X127.923 Y107.12 E11.91032
G1 F1935.5 X127.122 Y107.922 E11.94538
G1 F1940.7 X126.116 Y108.435 E11.98022
G1 F1935.5 X125.001 Y108.611 E12.01513
G1 X123.885 Y108.435 E12.05008
G1 X122.879 Y107.923 E12.085
G1 F1940.7 X122.858 Y107.903 E12.08589
G1 X122.077 Y107.121 E12.11998
G1 F1935.5 X121.565 Y106.116 E12.15487
G1 X121.389 Y105.001 E12.18979
M104 S215
G0 F3600 X121.42 Y104.804
G1 F2100 E11.38979
;MESH:NONMESH
G0 F600 X121.42 Y104.804 Z0.35
G0 F3600 X111.324 Y106.489
;TIME_ELAPSED:17.852030
;LAYER:1
M106 S255
;TYPE:WALL-OUTER
;MESH:BNO_quarter_standoff.stl(1)
G1 F2100 E12.18979
G1 F1293.7 X111.521 Y107.72 E12.21871
G1 F1297.2 X112.085 Y108.829 E12.2475
G1 F1293.7 X112.969 Y109.714 E12.27652
G1 X114.08 Y110.28 E12.30544
G1 X115.311 Y110.475 E12.33436
G1 F1297.2 X116.543 Y110.28 E12.36321
G1 X117.654 Y109.714 E12.39206
G1 X118.538 Y108.829 E12.421
G1 X119.102 Y107.72 E12.44979
G1 X119.292 Y106.518 E12.47795
G1 X119.298 Y106.489 E12.47863
G1 X119.102 Y105.258 E12.50747
G1 F1293.7 X118.538 Y104.149 E12.53633
G1 X117.654 Y103.264 E12.56535
G1 F1297.2 X116.543 Y102.698 E12.5942
G1 X115.311 Y102.502 E12.62306
G1 X114.08 Y102.698 E12.6519
G1 F1293.7 X112.969 Y103.264 E12.68083
G1 X112.085 Y104.149 E12.70985
G1 F1297.2 X111.521 Y105.258 E12.73863
G1 F1293.7 X111.324 Y106.489 E12.76756
G0 F5400 X111.355 Y106.686
G0 X111.7 Y106.489
G1 F1293.7 X111.876 Y105.374 E12.79374
G1 F1297.2 X112.389 Y104.368 E12.81987
G1 F1293.7 X113.189 Y103.567 E12.84613
G1 X114.196 Y103.054 E12.87235
G1 F1297.2 X115.311 Y102.878 E12.89847
G1 X116.427 Y103.054 E12.92461
G1 X117.434 Y103.567 E12.95075
G1 F1293.7 X118.234 Y104.368 E12.97702
G1 X118.747 Y105.374 E13.00322
G1 F1297.2 X118.922 Y106.489 E13.02933
G1 X118.747 Y107.604 E13.05544
G1 X118.234 Y108.61 E13.08157
G1 X117.434 Y109.411 E13.10776
G1 X116.427 Y109.924 E13.13391
G1 X115.311 Y110.101 E13.16005
G1 F1293.7 X114.196 Y109.924 E13.18624
G1 X113.189 Y109.411 E13.21246
G1 X112.389 Y108.61 E13.23872
G1 F1297.2 X111.876 Y107.604 E13.26485
G1 F1293.7 X111.7 Y106.489 E13.29104
G0 F5400 X111.731 Y106.292
G1 F2100 E12.49104
;MESH:BNO_quarter_standoff.stl
G0 F5400 X121.013 Y105
;TYPE:WALL-OUTER
G1 F2100 E13.29104
G1 F1293.7 X121.209 Y106.231 E13.31995
G1 X121.773 Y107.34 E13.34882
G1 X122.658 Y108.225 E13.37785
G1 X123.769 Y108.791 E13.40678
G1 X125 Y108.986 E13.43569
G1 F1297.2 X126.231 Y108.791 E13.46453
G1 X127.342 Y108.225 E13.49338
G1 F1293.7 X128.227 Y107.34 E13.52241
G1 F1297.2 X128.791 Y106.231 E13.5512
G1 X128.981 Y105.029 E13.57936
G1 X128.987 Y105 E13.58004
G1 X128.791 Y103.769 E13.60888
G1 F1293.7 X128.227 Y102.66 E13.63774
G1 X127.342 Y101.775 E13.66678
