;FLAVOR:Marlin
;TIME:392
;Filament used: 0.157046m
;Layer height: 0.15
;MINX:117.405
;MINY:92.268
;MINZ:0.2
;MAXX:137.732
;MAXY:117.732
;MAXZ:9.95
;Generated with Cura_SteamEngine main
M82 ;absolute extrusion mode
G21 ; set units to millimeters
G90 ; use absolute positioning
M82 ; absolute extrusion mode
M104 S215.0 ; set extruder temp
M140 S60 ; set bed temp
M190 S60 ; wait for bed temp
M109 S215.0 ; wait for extruder temp
G28 W ; home all without mesh bed level
G80 ; mesh bed leveling
G92 E0.0 ; reset extruder distance position
G1 Y-3.0 F1000.0 ; go outside print area
G1 X60.0 E9.0 F1000.0 ; intro line
G1 X100.0 E21.5 F1000.0 ; intro line
G92 E0.0 ; reset extruder distance position
G92 E0
G92 E0
G1 F2100 E-0.8
;LAYER_COUNT:66
;LAYER:0
M107
G0 F3600 X118.674 Y95.072 Z0.2
G0 X117.405 Y99.055
;TYPE:SKIRT
G1 F2100 E0
G1 F1800 X117.448 Y98.405 E0.02167
G1 X117.562 Y97.618 E0.04812
G1 X117.725 Y96.956 E0.07079
G1 X117.963 Y96.362 E0.09207
G1 X118.31 Y95.657 E0.11821
G1 X118.674 Y95.072 E0.14113
G1 X119.081 Y94.583 E0.16229
G1 X119.701 Y93.959 E0.19154
G1 X120.154 Y93.576 E0.21127
G1 X120.689 Y93.24 E0.23229
G1 X121.385 Y92.872 E0.25847
G1 X122.021 Y92.611 E0.28134
G1 X122.65 Y92.453 E0.30291
G1 X123.518 Y92.312 E0.33216
G1 X124.11 Y92.268 E0.3519
G1 X124.804 Y92.319 E0.37504
G1 X125.527 Y92.43 E0.39937
G1 X126.105 Y92.559 E0.41907
G1 X126.853 Y92.857 E0.44585
G1 X127.518 Y93.195 E0.47066
G1 X128.259 Y93.67 E0.49994
G1 X130.636 Y95.556 E0.60086
G1 X132.792 Y97.165 E0.69034
G1 X134.885 Y98.639 E0.77548
G1 X135.414 Y99.077 E0.79832
G1 X136.034 Y99.693 E0.82739
G1 X136.417 Y100.145 E0.8471
G1 X136.763 Y100.693 E0.86865
G1 X137.129 Y101.388 E0.89478
G1 X137.389 Y102.021 E0.91754
G1 X137.547 Y102.65 E0.93911
G1 X137.688 Y103.518 E0.96836
G1 X137.732 Y104.11 E0.9881
G1 X137.681 Y104.805 E1.01128
G1 X137.57 Y105.527 E1.03557
G1 X137.441 Y106.105 E1.05527
G1 X137.142 Y106.854 E1.0821
G1 X136.804 Y107.518 E1.10688
G1 X136.331 Y108.256 E1.13603
G1 X134.448 Y110.63 E1.23681
G1 X132.844 Y112.777 E1.32595
G1 X131.362 Y114.884 E1.41163
G1 X130.923 Y115.414 E1.43452
G1 X130.367 Y115.984 E1.461
G1 X129.846 Y116.424 E1.48368
G1 X129.311 Y116.76 E1.5047
G1 X128.615 Y117.128 E1.53088
G1 X127.979 Y117.389 E1.55375
G1 X127.35 Y117.547 E1.57532
G1 X126.482 Y117.688 E1.60457
G1 X125.89 Y117.732 E1.62431
G1 X125.198 Y117.681 E1.64739
G1 X124.48 Y117.571 E1.67155
G1 X123.901 Y117.442 E1.69128
G1 X123.162 Y117.149 E1.71772
G1 X122.501 Y116.815 E1.74235
G1 X121.991 Y116.513 E1.76206
G1 X121.42 Y116.045 E1.78662
G1 X120.863 Y115.5 E1.81254
G1 X120.425 Y114.981 E1.83513
G1 X120.086 Y114.442 E1.8563
G1 X119.719 Y113.746 E1.88247
G1 X119.459 Y113.111 E1.9053
G1 X119.298 Y112.473 E1.92718
G1 X119.191 Y111.836 E1.94867
G1 X118.781 Y108.674 E2.05471
G1 X118.379 Y106.149 E2.13975
G1 X118.303 Y105.611 E2.15783
G1 X117.932 Y102.722 E2.2547
G1 X117.524 Y100.159 E2.34102
G1 X117.45 Y99.646 E2.35826
G1 X117.405 Y99.055 E2.37797
G0 F3600 X117.805 Y99.025
G1 F1800 X117.844 Y98.461 E2.39678
G1 X117.956 Y97.685 E2.42286
G1 X118.114 Y97.052 E2.44456
G1 X118.322 Y96.538 E2.463
G1 X118.664 Y95.843 E2.48876
G1 X119.014 Y95.284 E2.5107
G1 X119.369 Y94.861 E2.52906
G1 X119.91 Y94.304 E2.55489
G1 X120.413 Y93.883 E2.57671
G1 X120.878 Y93.593 E2.59493
G1 X121.562 Y93.23 E2.62069
G1 X122.173 Y92.983 E2.64261
G1 X122.719 Y92.847 E2.66132
G1 X123.491 Y92.714 E2.68738
G1 X124.138 Y92.668 E2.70895
G1 X124.743 Y92.714 E2.72913
G1 X125.466 Y92.825 E2.75346
G1 X126.017 Y92.95 E2.77225
G1 X126.671 Y93.213 E2.7957
G1 X127.336 Y93.551 E2.82051
G1 X128.01 Y93.984 E2.84715
G1 X130.377 Y95.863 E2.94767
G1 X132.561 Y97.493 E3.03831
G1 X134.654 Y98.966 E3.12344
G1 X135.135 Y99.364 E3.1442
G1 X135.747 Y99.972 E3.17289
G1 X136.111 Y100.404 E3.19168
G1 X136.409 Y100.881 E3.21039
G1 X136.77 Y101.564 E3.23608
G1 X137.017 Y102.173 E3.25794
G1 X137.153 Y102.719 E3.27666
G1 X137.286 Y103.491 E3.30271
G1 X137.332 Y104.138 E3.32429
G1 X137.286 Y104.744 E3.3445
G1 X137.175 Y105.466 E3.3688
G1 X137.049 Y106.017 E3.38759
G1 X136.786 Y106.673 E3.4111
G1 X136.448 Y107.337 E3.43588
G1 X136.017 Y108.007 E3.46238
G1 X134.143 Y110.371 E3.56272
G1 X132.517 Y112.546 E3.65304
G1 X131.035 Y114.653 E3.73871
G1 X130.636 Y115.135 E3.75953
G1 X130.088 Y115.698 E3.78566
G1 X129.587 Y116.117 E3.80738
G1 X129.122 Y116.407 E3.82561
G1 X128.438 Y116.77 E3.85136
G1 X127.827 Y117.017 E3.87328
G1 X127.281 Y117.153 E3.892
G1 X126.509 Y117.286 E3.91805
G1 X125.862 Y117.332 E3.93963
G1 X125.258 Y117.286 E3.95977
G1 X124.54 Y117.176 E3.98393
G1 X123.989 Y117.051 E4.00272
G1 X123.342 Y116.792 E4.0259
G1 X122.681 Y116.458 E4.05054
G1 X122.196 Y116.168 E4.06933
G1 X121.699 Y115.758 E4.09076
G1 X121.15 Y115.221 E4.1163
G1 X120.731 Y114.723 E4.13795
G1 X120.439 Y114.254 E4.15632
G1 X120.043 Y113.483 E4.18515
G1 X119.83 Y112.959 E4.20397
G1 X119.692 Y112.405 E4.22296
G1 X119.588 Y111.785 E4.24386
G1 X119.179 Y108.626 E4.34981
G1 X118.739 Y105.866 E4.44277
G1 X118.329 Y102.674 E4.54981
G1 X117.92 Y100.102 E4.63643
G1 X117.846 Y99.589 E4.65367
G1 X117.805 Y99.025 E4.67247
G0 F3600 X118.194 Y98.838
G1 F1800 X118.35 Y97.751 E4.709
G1 X118.542 Y96.997 E4.73488
G1 X119.02 Y96.028 E4.77081
G1 X119.435 Y95.368 E4.79674
G1 X120.189 Y94.59 E4.83278
G1 X120.786 Y94.095 E4.85857
G1 X121.74 Y93.588 E4.89451
G1 X122.323 Y93.355 E4.91539
G1 X122.788 Y93.24 E4.93132
G1 X123.631 Y93.104 E4.95972
G1 X124.166 Y93.068 E4.97755
G1 X124.682 Y93.11 E4.99477
G1 X125.405 Y93.221 E5.0191
G1 X125.928 Y93.341 E5.03695
G1 X126.49 Y93.57 E5.05713
G1 X127.155 Y93.908 E5.08194
G1 X127.762 Y94.297 E5.10592
G1 X130.151 Y96.193 E5.20736
G1 X132.32 Y97.812 E5.29739
G1 X134.424 Y99.293 E5.38296
G1 X134.857 Y99.651 E5.40165
G1 X135.41 Y100.19 E5.42734
G1 X135.906 Y100.784 E5.45307
G1 X136.413 Y101.743 E5.48915
G1 X136.645 Y102.323 E5.50993
G1 X136.76 Y102.788 E5.52586
G1 X136.896 Y103.631 E5.55426
G1 X136.932 Y104.166 E5.5721
G1 X136.89 Y104.683 E5.58935
G1 X136.779 Y105.405 E5.61365
G1 X136.658 Y105.928 E5.6315
G1 X136.429 Y106.491 E5.65172
G1 X136.091 Y107.155 E5.6765
G1 X135.704 Y107.759 E5.70036
G1 X133.812 Y110.145 E5.80164
G1 X132.181 Y112.328 E5.89227
G1 X130.707 Y114.423 E5.97747
G1 X130.349 Y114.857 E5.99618
G1 X129.743 Y115.466 E6.02476
G1 X129.214 Y115.905 E6.04762
G1 X128.26 Y116.412 E6.08355
G1 X127.677 Y116.645 E6.10443
G1 X127.212 Y116.76 E6.12037
G1 X126.369 Y116.896 E6.14877
G1 X125.834 Y116.932 E6.1666
G1 X125.319 Y116.89 E6.18379
G1 X124.601 Y116.78 E6.20795
G1 X124.078 Y116.66 E6.22579
G1 X123.522 Y116.435 E6.24574
G1 X122.861 Y116.101 E6.27038
G1 X122.402 Y115.824 E6.28821
G1 X121.977 Y115.471 E6.30658
G1 X121.434 Y114.941 E6.33182
G1 X120.93 Y114.335 E6.35803
G1 X120.402 Y113.307 E6.39647
G1 X120.139 Y112.652 E6.41995
G1 X119.985 Y111.734 E6.45091
G1 X119.576 Y108.578 E6.55675
G1 X119.171 Y106.035 E6.6424
G1 X119.096 Y105.509 E6.66007
G1 X118.721 Y102.594 E6.75783
G1 X118.316 Y100.045 E6.84367
G1 X118.242 Y99.532 E6.86091
G1 X118.194 Y98.838 E6.88405
G0 F3600 X118.596 Y98.831
G1 F1800 X118.765 Y97.739 E6.9208
G1 X118.924 Y97.127 E6.94183
G1 X119.374 Y96.212 E6.97574
G1 X119.769 Y95.593 E7.00017
G1 X120.536 Y94.822 E7.03634
G1 X121.034 Y94.411 E7.05781
G1 X122.002 Y93.914 E7.094
G1 X122.602 Y93.675 E7.11549
G1 X123.687 Y93.5 E7.15204
G1 X124.325 Y93.459 E7.1733
G1 X125.345 Y93.616 E7.20763
G1 X125.837 Y93.732 E7.22444
G1 X126.309 Y93.926 E7.24141
G1 X126.974 Y94.264 E7.26622
G1 X127.513 Y94.61 E7.28753
G1 X129.912 Y96.514 E7.3894
G1 X132.074 Y98.127 E7.47911
G1 X134.402 Y99.766 E7.57381
G1 X135.124 Y100.47 E7.60735
G1 X135.584 Y101.024 E7.6313
G1 X136.086 Y102.002 E7.66786
G1 X136.325 Y102.602 E7.68934
G1 X136.5 Y103.687 E7.72589
G1 X136.541 Y104.326 E7.74719
G1 X136.384 Y105.344 E7.78145
G1 X136.268 Y105.836 E7.79826
G1 X136.073 Y106.31 E7.81531
G1 X135.735 Y106.974 E7.84009
G1 X135.39 Y107.51 E7.86129
G1 X133.506 Y109.886 E7.96215
G1 X131.865 Y112.082 E8.05333
G1 X130.38 Y114.193 E8.13917
G1 X130.061 Y114.579 E8.15583
G1 X129.464 Y115.178 E8.18395
G1 X128.966 Y115.589 E8.20543
G1 X127.998 Y116.086 E8.24162
G1 X127.398 Y116.325 E8.2631
G1 X126.313 Y116.5 E8.29966
G1 X125.676 Y116.54 E8.32088
G1 X124.661 Y116.385 E8.35504
G1 X124.169 Y116.269 E8.37185
G1 X123.703 Y116.078 E8.3886
G1 X123.042 Y115.744 E8.41323
G1 X122.477 Y115.4 E8.43523
G1 X121.721 Y114.661 E8.47039
G1 X121.271 Y114.117 E8.49388
G1 X120.793 Y113.211 E8.52795
G1 X120.574 Y112.661 E8.54764
G1 X120.402 Y111.819 E8.57622
G1 X119.974 Y108.535 E8.68637
G1 X119.567 Y105.978 E8.77249
G1 X119.493 Y105.458 E8.78996
G1 X119.119 Y102.546 E8.8876
G1 X118.712 Y99.988 E8.97375
G1 X118.638 Y99.475 E8.99099
G1 X118.596 Y98.831 E9.01246
G1 F2100 E8.21246
;MESH:BNO_plate_standoff.stl(3)
G0 F3600 X121.142 Y98.875
G0 X121.977 Y99.007
;TYPE:WALL-OUTER
G1 F2100 E9.01246
G1 F2000 X122.084 Y99.676 E9.03274
G1 X122.388 Y100.277 E9.0529
G1 X122.871 Y100.76 E9.07335
G1 X123.475 Y101.067 E9.09363
G1 X124.144 Y101.174 E9.11391
G1 X124.812 Y101.067 E9.13416
G1 X125.416 Y100.76 E9.15444
G1 X125.899 Y100.277 E9.17489
G1 F2005.6 X126.204 Y99.675 E9.19503
G1 X126.306 Y99.036 E9.21435
G1 F2000 X126.311 Y99.007 E9.21523
G1 X126.204 Y98.339 E9.23548
G1 F1994.5 X125.898 Y97.737 E9.25575
G1 X125.416 Y97.254 E9.27623
G1 F2000 X124.812 Y96.947 E9.29652
G1 X124.144 Y96.84 E9.31677
G1 X123.475 Y96.947 E9.33705
G1 X122.871 Y97.254 E9.35733
G1 F1994.5 X122.389 Y97.737 E9.37781
G1 X122.084 Y98.338 E9.39804
G1 X121.977 Y99.007 E9.41838
G0 F3600 X122.008 Y99.204
G0 X122.339 Y99.007
G1 F2000 X122.428 Y98.45 E9.43526
G1 F1994.5 X122.684 Y97.949 E9.45215
G1 X123.084 Y97.548 E9.46915
G1 F2000 X123.587 Y97.291 E9.48606
G1 X124.144 Y97.204 E9.50294
G1 F2005.6 X124.172 Y97.207 E9.50378
G1 X124.7 Y97.291 E9.51974
G1 F2000 X125.203 Y97.548 E9.53665
G1 F1994.5 X125.603 Y97.949 E9.55365
G1 X125.86 Y98.451 E9.57058
G1 F2000 X125.947 Y99.007 E9.58742
G1 F2005.6 X125.86 Y99.564 E9.60425
G1 X125.604 Y100.066 E9.62107
G1 F2000 X125.203 Y100.466 E9.63803
G1 X124.7 Y100.723 E9.65494
G1 F2005.6 X124.144 Y100.813 E9.67175
G1 X123.587 Y100.723 E9.68859
G1 F2000 X123.084 Y100.466 E9.7055
G1 X122.683 Y100.066 E9.72245
G1 X122.428 Y99.564 E9.73931
G1 F2005.6 X122.339 Y99.007 E9.75615
G0 F3600 X122.37 Y98.81
G1 F2100 E8.95615
;MESH:BNO_plate_standoff.stl
G0 F3600 X123.54 Y103.941
;TYPE:WALL-OUTER
G1 F2100 E9.75615
G1 F2000 X123.94 Y103.541 E9.77308
G1 X124.444 Y103.284 E9.79001
G1 X125 Y103.197 E9.80686
G1 X125.556 Y103.284 E9.82371
G1 X126.06 Y103.541 E9.84064
G1 F1994.5 X126.46 Y103.941 E9.85762
G1 X126.716 Y104.444 E9.87456
G1 F2000 X126.803 Y105 E9.89141
G1 F2005.6 X126.716 Y105.556 E9.90821
G1 X126.46 Y106.059 E9.92506
G1 F2000 X126.06 Y106.459 E9.94199
G1 X125.556 Y106.716 E9.95892
G1 X125 Y106.803 E9.97577
G1 X124.444 Y106.716 E9.99262
G1 X123.94 Y106.459 E10.00955
G1 X123.54 Y106.059 E10.02648
G1 X123.284 Y105.556 E10.04338
G1 F1994.5 X123.197 Y105 E10.06027
G1 X123.284 Y104.444 E10.07716
G1 F2000 X123.54 Y103.941 E10.09406
G0 F3600 X123.681 Y103.8
G0 X122.833 Y105
G1 F1994.5 X122.94 Y105.668 E10.11437
G1 F2000 X123.245 Y106.27 E10.13457
G1 X123.728 Y106.753 E10.15501
G1 X124.332 Y107.06 E10.1753
G1 X125 Y107.167 E10.19555
G1 X125.668 Y107.06 E10.2158
G1 X126.272 Y106.753 E10.23608
G1 X126.755 Y106.27 E10.25653
G1 F2005.6 X127.06 Y105.668 E10.27667
G1 X127.162 Y105.029 E10.29599
G1 F2000 X127.167 Y105 E10.29687
G1 X127.06 Y104.332 E10.31712
G1 F1994.5 X126.755 Y103.73 E10.33738
G1 X126.272 Y103.247 E10.35788
G1 F2000 X125.668 Y102.94 E10.37816
G1 X125 Y102.833 E10.39841
G1 X124.332 Y102.94 E10.41866
G1 X123.728 Y103.247 E10.43895
G1 X123.245 Y103.73 E10.45939
G1 X122.94 Y104.332 E10.47959
G1 F1994.5 X122.833 Y105 E10.4999
G0 F3600 X122.864 Y105.197
G1 F2100 E9.6999
;MESH:BNO_plate_standoff.stl(1)
G0 F3600 X122.03 Y105.33
G0 X123.067 Y109.889
G0 X124.14 Y110.436
;TYPE:WALL-OUTER
G1 F2100 E10.4999
G1 F2000 X124.396 Y109.934 E10.51677
G1 X124.417 Y109.912 E10.51768
G1 F2005.6 X124.797 Y109.534 E10.53368
G1 F2000 X125.3 Y109.277 E10.55059
G1 X125.856 Y109.189 E10.56744
G1 X126.413 Y109.277 E10.58432
G1 X126.916 Y109.534 E10.60123
G1 F1994.5 X127.317 Y109.934 E10.61823
G1 F2000 X127.572 Y110.436 E10.63508
G1 X127.66 Y110.993 E10.65196
G1 F2005.6 X127.572 Y111.55 E10.6688
G1 F2000 X127.316 Y112.051 E10.68564
G1 F1994.5 X126.916 Y112.452 E10.70264
G1 F2000 X126.413 Y112.709 E10.71955
G1 F1994.5 X125.856 Y112.796 E10.73647
G1 X125.3 Y112.709 E10.75336
G1 F2000 X124.797 Y112.452 E10.77027
G1 F1994.5 X124.397 Y112.051 E10.78727
G1 F2000 X124.14 Y111.549 E10.80415
G1 F1994.5 X124.053 Y110.993 E10.82105
G1 X124.14 Y110.436 E10.83797
G0 F3600 X124.23 Y110.258
G0 X123.689 Y110.993
G1 F1994.5 X123.796 Y111.661 E10.85828
G1 F2000 X124.102 Y112.263 E10.87849
G1 F1994.5 X124.584 Y112.746 E10.89897
G1 F2000 X125.188 Y113.053 E10.91926
G1 F1994.5 X125.856 Y113.16 E10.93956
G1 X126.525 Y113.053 E10.9599
G1 F2000 X127.129 Y112.746 E10.98018
G1 F1994.5 X127.611 Y112.263 E11.00066
G1 F2000 X127.916 Y111.662 E11.02084
G1 F2005.6 X128.018 Y111.022 E11.04018
G1 F2000 X128.023 Y110.993 E11.04106
G1 X127.916 Y110.324 E11.06135
G1 X127.612 Y109.723 E11.08151
G1 F1994.5 X127.129 Y109.24 E11.10201
G1 F2000 X126.525 Y108.933 E11.12229
G1 X125.856 Y108.826 E11.14257
G1 X125.188 Y108.933 E11.16282
G1 X124.584 Y109.24 E11.1831
G1 X124.101 Y109.723 E11.20355
G1 X123.796 Y110.325 E11.22375
G1 F1994.5 X123.689 Y110.993 E11.24406
G0 F3600 X123.72 Y111.19
G1 F2100 E10.44406
;MESH:BNO_plate_standoff.stl(2)
G0 F3600 X128.826 Y104.144
;TYPE:WALL-OUTER
G1 F2100 E11.24406
G1 F2000 X128.933 Y104.812 E11.26431
G1 X129.238 Y105.414 E11.28451
G1 F1994.5 X129.721 Y105.897 E11.30502
G1 F2000 X130.325 Y106.204 E11.3253
G1 X130.993 Y106.311 E11.34555
G1 X131.661 Y106.204 E11.3658
G1 X132.265 Y105.897 E11.38608
G1 F1994.5 X132.747 Y105.414 E11.40656
G1 F2000 X133.053 Y104.812 E11.42678
G1 F2005.6 X133.155 Y104.173 E11.44609
G1 F2000 X133.16 Y104.144 E11.44698
G1 X133.053 Y103.475 E11.46726
G1 F1994.5 X132.747 Y102.873 E11.48753
G1 X132.265 Y102.39 E11.50801
G1 F2000 X131.661 Y102.084 E11.52828
G1 X130.993 Y101.977 E11.54853
G1 X130.325 Y102.084 E11.56878
G1 X129.721 Y102.39 E11.58905
G1 F1994.5 X129.238 Y102.873 E11.60955
G1 F2000 X128.933 Y103.475 E11.62975
G1 X128.826 Y104.144 E11.65003
G0 F3600 X128.857 Y104.341
G0 X129.187 Y104.144
G1 F2005.6 X129.277 Y103.587 E11.66688
G1 F2000 X129.288 Y103.561 E11.66772
G1 X129.533 Y103.085 E11.68375
G1 F1994.5 X129.933 Y102.684 E11.70075
G1 F2000 X130.436 Y102.428 E11.71764
G1 X130.993 Y102.34 E11.73452
G1 X131.549 Y102.428 E11.75137
G1 X132.052 Y102.684 E11.76827
G1 F1994.5 X132.452 Y103.085 E11.78527
G1 X132.709 Y103.587 E11.8022
G1 F2000 X132.796 Y104.144 E11.81907
G1 F2005.6 X132.709 Y104.7 E11.83587
G1 F2000 X132.452 Y105.202 E11.85275
G1 F1994.5 X132.052 Y105.603 E11.86976
G1 F2000 X131.549 Y105.86 E11.88666
G1 X130.993 Y105.947 E11.90351
G1 X130.436 Y105.86 E11.92038
G1 X129.933 Y105.603 E11.93729
G1 F1994.5 X129.533 Y105.202 E11.95429
G1 F2000 X129.277 Y104.7 E11.97116
G1 F2005.6 X129.187 Y104.144 E11.98798
M104 S215
G0 F3600 X129.218 Y103.947
G1 F2100 E11.18798
;MESH:NONMESH
G0 F600 X129.218 Y103.947 Z0.35
G0 F3600 X121.977 Y99.007
;TIME_ELAPSED:18.463249
;LAYER:1
M106 S255
;TYPE:WALL-OUTER
;MESH:BNO_plate_standoff.stl(3)
G1 F2100 E11.98798
G1 F1455.4 X122.084 Y99.676 E12.00319
G1 X122.388 Y100.277 E12.01831
G1 X122.871 Y100.76 E12.03364
G1 X123.475 Y101.067 E12.04885
G1 X124.144 Y101.174 E12.06406
G1 X124.812 Y101.067 E12.07925
G1 X125.416 Y100.76 E12.09446
G1 X125.899 Y100.277 E12.1098
G1 F1459.5 X126.204 Y99.675 E12.12491
G1 X126.306 Y99.036 E12.13939
G1 F1455.4 X126.311 Y99.007 E12.14006
G1 X126.204 Y98.339 E12.15524
G1 F1451.4 X125.898 Y97.737 E12.17045
G1 X125.416 Y97.254 E12.18581
G1 F1455.4 X124.812 Y96.947 E12.20102
G1 X124.144 Y96.84 E12.21621
G1 X123.475 Y96.947 E12.23142
G1 X122.871 Y97.254 E12.24663
G1 F1451.4 X122.389 Y97.737 E12.26199
G1 X122.084 Y98.338 E12.27716
G1 X121.977 Y99.007 E12.29242
G0 F5400 X122.008 Y99.204
G0 X122.339 Y99.007
G1 F1455.4 X122.428 Y98.45 E12.30508
