;FLAVOR:Marlin
;TIME:4896
;Filament used: 2.83273m
;Layer height: 0.15
;MINX:112.928
;MINY:95.011
;MINZ:0.2
;MAXX:134.989
;MAXY:128.179
;MAXZ:60.2
;Generated with Cura_SteamEngine main
M82 ;absolute extrusion mode
G21 ; set units to millimeters
G90 ; use absolute positioning
M82 ; absolute extrusion mode
M104 S215.0 ; set extruder temp
M140 S60 ; set bed temp
M190 S60 ; wait for bed temp
M109 S215.0 ; wait for extruder temp
G28 W ; home all without mesh bed level
G80 ; mesh bed leveling
G92 E0.0 ; reset extruder distance position
G1 Y-3.0 F1000.0 ; go outside print area
G1 X60.0 E9.0 F1000.0 ; intro line
G1 X100.0 E21.5 F1000.0 ; intro line
G92 E0.0 ; reset extruder distance position
G92 E0
G92 E0
G1 F2100 E-0.8
;LAYER_COUNT:401
;LAYER:0
M107
G0 F3600 X117.28 Y98.698 Z0.2
G0 X114.909 Y105.685
;TYPE:SKIRT
G1 F2100 E0
G1 F1800 X115.041 Y104.513 E0.03923
G1 X115.177 Y103.566 E0.07105
G1 X115.357 Y102.494 E0.1072
G1 X115.49 Y101.944 E0.12602
G1 X115.709 Y101.397 E0.14562
G1 X116.037 Y100.727 E0.17043
G1 X116.602 Y99.639 E0.21121
G1 X116.898 Y99.157 E0.23002
G1 X117.28 Y98.698 E0.24988
G1 X117.805 Y98.157 E0.27495
G1 X118.666 Y97.309 E0.31515
G1 X119.096 Y96.942 E0.33395
G1 X119.602 Y96.625 E0.35381
G1 X120.385 Y96.212 E0.38325
G1 X121.36 Y95.726 E0.41949
G1 X121.882 Y95.51 E0.43828
G1 X122.454 Y95.366 E0.4579
G1 X123.191 Y95.237 E0.48278
G1 X124.407 Y95.055 E0.52368
G1 X124.971 Y95.011 E0.54249
G1 X125.562 Y95.051 E0.56219
G1 X126.338 Y95.162 E0.58827
G1 X127.516 Y95.36 E0.628
G1 X128.065 Y95.493 E0.64678
G1 X128.609 Y95.712 E0.66629
G1 X129.264 Y96.033 E0.69055
G1 X130.361 Y96.602 E0.73165
G1 X130.843 Y96.897 E0.75045
G1 X131.301 Y97.28 E0.77031
G1 X131.907 Y97.869 E0.79841
G1 X132.691 Y98.666 E0.8356
G1 X133.058 Y99.096 E0.8544
G1 X133.383 Y99.617 E0.87482
G1 X133.959 Y100.719 E0.91618
G1 X134.283 Y101.377 E0.94058
G1 X134.496 Y101.901 E0.95939
G1 X134.634 Y102.454 E0.97835
G1 X134.779 Y103.29 E1.00657
G1 X134.945 Y104.401 E1.04393
G1 X134.989 Y104.965 E1.06274
G1 X134.949 Y105.556 E1.08245
G1 X134.823 Y106.435 E1.11198
G1 X134.645 Y107.494 E1.1477
G1 X134.34 Y109.025 E1.19962
G1 X133.885 Y111.408 E1.28031
G1 X133.448 Y114.108 E1.37128
G1 X133.009 Y117.504 E1.48517
G1 X132.877 Y118.671 E1.52423
G1 X132.741 Y119.626 E1.55632
G1 X132.561 Y120.696 E1.59241
G1 X132.428 Y121.245 E1.61119
G1 X132.21 Y121.789 E1.63069
G1 X131.882 Y122.46 E1.65553
G1 X131.315 Y123.552 E1.69645
G1 X131.019 Y124.034 E1.71526
G1 X130.635 Y124.495 E1.73522
G1 X130.117 Y125.028 E1.75994
G1 X129.251 Y125.88 E1.80035
G1 X128.821 Y126.247 E1.81915
G1 X128.301 Y126.573 E1.83956
G1 X127.184 Y127.156 E1.88147
G1 X126.539 Y127.473 E1.90537
G1 X126.016 Y127.686 E1.92416
G1 X125.444 Y127.827 E1.94375
G1 X124.283 Y128.024 E1.98292
G1 X123.494 Y128.138 E2.00943
G1 X122.93 Y128.179 E2.02824
G1 X122.359 Y128.139 E2.04728
G1 X121.596 Y128.03 E2.07291
G1 X120.414 Y127.833 E2.11277
G1 X119.864 Y127.701 E2.13158
G1 X119.313 Y127.48 E2.15133
G1 X118.514 Y127.087 E2.18094
G1 X117.552 Y126.586 E2.21702
G1 X117.071 Y126.29 E2.2358
G1 X116.596 Y125.891 E2.25644
G1 X115.727 Y125.037 E2.29696
G1 X115.207 Y124.502 E2.32177
G1 X114.843 Y124.069 E2.34059
G1 X114.543 Y123.589 E2.35941
G1 X114.123 Y122.794 E2.38932
G1 X113.642 Y121.828 E2.42521
G1 X113.427 Y121.305 E2.44402
G1 X113.279 Y120.712 E2.46435
G1 X113.083 Y119.553 E2.50344
G1 X112.969 Y118.768 E2.52983
G1 X112.928 Y118.204 E2.54863
G1 X112.968 Y117.634 E2.56764
G1 X113.094 Y116.755 E2.59717
G1 X113.272 Y115.696 E2.63289
G1 X113.607 Y114.034 E2.68928
G1 X114.105 Y111.367 E2.77952
G1 X114.53 Y108.66 E2.87066
G1 X114.909 Y105.685 E2.9704
G1 F2100 E2.1704
G0 F3600 X114.505 Y111.402
G1 F2100 E2.9704
G1 F1800 X114.924 Y108.736 E3.06016
G1 X115.301 Y105.777 E3.15938
G1 X115.437 Y104.569 E3.19981
G1 X115.558 Y103.72 E3.22833
G1 X115.752 Y102.56 E3.26745
G1 X115.88 Y102.039 E3.28529
G1 X116.069 Y101.573 E3.30202
G1 X116.436 Y100.825 E3.32973
G1 X116.957 Y99.823 E3.36729
G1 X117.239 Y99.367 E3.38513
G1 X117.567 Y98.977 E3.40208
G1 X118.092 Y98.436 E3.42715
G1 X118.946 Y97.595 E3.46701
G1 X119.356 Y97.248 E3.48488
G1 X119.788 Y96.978 E3.50182
G1 X120.486 Y96.609 E3.52808
G1 X121.538 Y96.084 E3.56719
G1 X122.034 Y95.881 E3.58501
G1 X122.523 Y95.76 E3.60177
G1 X123.351 Y95.616 E3.62972
G1 X124.466 Y95.45 E3.66721
G1 X125.001 Y95.411 E3.68506
G1 X125.506 Y95.447 E3.70189
G1 X126.372 Y95.572 E3.731
G1 X127.449 Y95.754 E3.76733
G1 X128.13 Y95.923 E3.79066
G1 X129.088 Y96.392 E3.82614
G1 X130.176 Y96.957 E3.86691
G1 X130.632 Y97.239 E3.88475
G1 X131.023 Y97.567 E3.90172
G1 X131.562 Y98.09 E3.9267
G1 X132.405 Y98.946 E3.96666
G1 X132.752 Y99.356 E3.98453
G1 X133.029 Y99.802 E4.00199
G1 X133.56 Y100.817 E4.04009
G1 X133.924 Y101.554 E4.06743
G1 X134.183 Y102.198 E4.09051
G1 X134.369 Y103.26 E4.12637
G1 X134.549 Y104.46 E4.16673
G1 X134.589 Y104.995 E4.18458
G1 X134.553 Y105.499 E4.20138
G1 X134.428 Y106.369 E4.23062
G1 X134.23 Y107.537 E4.27002
G1 X133.948 Y108.946 E4.31781
G1 X133.491 Y111.341 E4.39891
G1 X133.052 Y114.054 E4.49031
G1 X132.62 Y117.391 E4.60223
G1 X132.495 Y118.509 E4.63965
G1 X132.346 Y119.559 E4.67492
G1 X132.166 Y120.629 E4.71101
G1 X131.999 Y121.309 E4.7343
G1 X131.482 Y122.364 E4.77337
G1 X130.96 Y123.368 E4.81101
G1 X130.678 Y123.824 E4.82884
G1 X130.348 Y124.216 E4.84588
G1 X129.83 Y124.749 E4.8706
G1 X128.971 Y125.595 E4.9107
G1 X128.561 Y125.942 E4.92857
G1 X128.115 Y126.219 E4.94603
G1 X127.089 Y126.756 E4.98455
G1 X126.363 Y127.114 E5.01147
G1 X125.865 Y127.314 E5.02932
G1 X125.377 Y127.432 E5.04602
G1 X124.216 Y127.629 E5.08519
G1 X123.437 Y127.742 E5.11137
G1 X122.743 Y127.79 E5.13451
G1 X121.568 Y127.621 E5.17399
G1 X120.48 Y127.439 E5.21068
G1 X119.959 Y127.311 E5.22852
G1 X119.49 Y127.121 E5.24535
G1 X118.778 Y126.772 E5.27173
G1 X117.737 Y126.231 E5.31075
G1 X117.281 Y125.948 E5.3286
G1 X116.877 Y125.606 E5.3462
G1 X115.947 Y124.691 E5.38959
G1 X115.494 Y124.224 E5.41123
G1 X115.052 Y123.694 E5.43419
G1 X114.481 Y122.616 E5.47476
G1 X114 Y121.65 E5.51065
G1 X113.798 Y121.153 E5.5285
G1 X113.673 Y120.645 E5.5459
G1 X113.477 Y119.486 E5.58499
G1 X113.365 Y118.711 E5.61104
G1 X113.317 Y118.018 E5.63414
G1 X113.489 Y116.821 E5.67436
G1 X113.689 Y115.644 E5.71407
G1 X113.992 Y114.149 E5.76481
G1 X114.505 Y111.402 E5.85775
G1 F2100 E5.05775
G0 F3600 X113.72 Y118.026
G1 F2100 E5.85775
G1 F1800 X113.883 Y116.888 E5.89599
G1 X114.061 Y115.829 E5.9317
G1 X114.385 Y114.223 E5.9862
G1 X114.899 Y111.472 E6.07928
G1 X115.322 Y108.778 E6.16998
G1 X115.703 Y105.787 E6.27026
G1 X115.833 Y104.625 E6.30915
G1 X115.966 Y103.698 E6.3403
G1 X116.146 Y102.626 E6.37645
G1 X116.301 Y102.007 E6.39768
G1 X116.791 Y101.01 E6.43463
G1 X117.312 Y100.008 E6.47219
G1 X117.651 Y99.465 E6.49348
G1 X118.38 Y98.714 E6.52829
G1 X119.227 Y97.88 E6.56783
G1 X119.718 Y97.467 E6.58917
G1 X120.741 Y96.928 E6.62763
G1 X121.716 Y96.442 E6.66386
G1 X122.307 Y96.204 E6.68505
G1 X123.329 Y96.025 E6.71956
G1 X124.525 Y95.846 E6.75978
G1 X125.161 Y95.802 E6.78099
G1 X126.225 Y95.954 E6.81673
G1 X127.382 Y96.149 E6.85576
G1 X127.997 Y96.303 E6.87685
G1 X128.98 Y96.786 E6.91327
G1 X129.992 Y97.312 E6.95121
G1 X130.535 Y97.651 E6.9725
G1 X131.283 Y98.377 E7.00717
G1 X132.12 Y99.227 E7.04685
G1 X132.533 Y99.719 E7.06821
G1 X133.241 Y101.072 E7.119
G1 X133.565 Y101.73 E7.14339
G1 X133.798 Y102.315 E7.16434
G1 X133.988 Y103.408 E7.20124
G1 X134.154 Y104.519 E7.2386
G1 X134.198 Y105.155 E7.2598
G1 X134.034 Y106.302 E7.29834
G1 X133.838 Y107.459 E7.33737
G1 X133.556 Y108.868 E7.38516
G1 X133.096 Y111.273 E7.4666
G1 X132.66 Y113.968 E7.55741
G1 X132.216 Y117.402 E7.67257
G1 X132.097 Y118.465 E7.70815
G1 X131.952 Y119.493 E7.74268
G1 X131.772 Y120.563 E7.77877
G1 X131.618 Y121.178 E7.79985
G1 X131.163 Y122.108 E7.83429
G1 X130.605 Y123.183 E7.87457
G1 X130.264 Y123.728 E7.89596
G1 X129.492 Y124.521 E7.93277
G1 X128.69 Y125.31 E7.97018
G1 X128.195 Y125.725 E7.99167
G1 X126.831 Y126.438 E8.04286
G1 X126.186 Y126.755 E8.06676
G1 X125.594 Y126.99 E8.08795
G1 X124.149 Y127.235 E8.13669
G1 X123.38 Y127.346 E8.16254
G1 X122.753 Y127.387 E8.18344
G1 X121.709 Y127.238 E8.21851
G1 X120.546 Y127.044 E8.25773
G1 X119.93 Y126.891 E8.27884
G1 X118.884 Y126.377 E8.3176
G1 X117.922 Y125.876 E8.35368
G1 X117.375 Y125.534 E8.37513
G1 X116.234 Y124.412 E8.42836
G1 X115.781 Y123.945 E8.45
G1 X115.377 Y123.456 E8.47109
G1 X114.839 Y122.437 E8.50942
G1 X114.358 Y121.471 E8.54531
G1 X114.117 Y120.871 E8.56682
G1 X113.872 Y119.42 E8.61576
G1 X113.761 Y118.654 E8.6415
G1 X113.72 Y118.026 E8.66244
G1 F2100 E7.86244
;MESH:empty_standoff.stl
G0 F3600 X119.723 Y109.044
G0 X120.489 Y108.277
G0 X119.91 Y104.998
G1 F2100 E8.66244
G0 F3600 X119.608 Y105
;TYPE:WALL-INNER
G1 F1800 X119.873 Y106.665 E8.71851
G1 X120.637 Y108.166 E8.77453
G1 X121.831 Y109.362 E8.83074
G1 X123.335 Y110.127 E8.88686
G1 X125 Y110.392 E8.94294
G1 X126.665 Y110.127 E8.99901
G1 X128.169 Y109.362 E9.05513
G1 X129.363 Y108.166 E9.11134
G1 X130.127 Y106.665 E9.16736
G1 X130.374 Y105.107 E9.21983
G1 X130.392 Y105 E9.22344
G1 X130.127 Y103.335 E9.27951
G1 X129.363 Y101.833 E9.33556
G1 X128.169 Y100.638 E9.39175
G1 X126.665 Y99.873 E9.44787
G1 X125 Y99.608 E9.50394
G1 X123.335 Y99.873 E9.56002
G1 X121.831 Y100.638 E9.61614
G1 X120.636 Y101.833 E9.67235
G1 X119.873 Y103.335 E9.72838
G1 X119.608 Y105 E9.78446
G0 F3600 X119.91 Y104.998
G0 X120.982 Y105.097
G1 F1800 X120.982 Y104.908 E9.79074
G1 X121.164 Y103.756 E9.82953
G1 X121.735 Y102.631 E9.8715
G1 X122.629 Y101.737 E9.91355
G1 X123.752 Y101.165 E9.95546
G1 X125.001 Y100.966 E9.99753
G1 X126.246 Y101.164 E10.03946
G1 X127.371 Y101.737 E10.08145
G1 X128.265 Y102.631 E10.1235
G1 X128.834 Y103.75 E10.16526
G1 X129.019 Y104.903 E10.2041
G1 X129.025 Y104.999 E10.20729
G1 X129.019 Y105.092 E10.21039
G1 X128.838 Y106.24 E10.24905
G1 X128.267 Y107.367 E10.29107
G1 X127.372 Y108.262 E10.33317
G1 X126.246 Y108.835 E10.37519
G1 X125.005 Y109.033 E10.41699
G1 X123.758 Y108.837 E10.45897
G1 X122.629 Y108.263 E10.5011
G1 X121.737 Y107.371 E10.54305
G1 X121.165 Y106.248 E10.58497
G1 X120.982 Y105.097 E10.62373
G0 F3600 X121.372 Y105.002
;TYPE:WALL-OUTER
G1 F1800 X121.551 Y103.882 E10.66146
G1 X122.065 Y102.87 E10.69921
G1 X122.867 Y102.064 E10.73703
G1 X123.88 Y101.552 E10.77478
G1 X124.998 Y101.372 E10.81244
G1 X126.118 Y101.551 E10.85017
G1 X127.131 Y102.063 E10.88792
G1 X127.934 Y102.869 E10.92576
G1 X128.447 Y103.879 E10.96344
G1 X128.625 Y104.999 E11.00116
G1 X128.449 Y106.118 E11.03883
G1 X127.938 Y107.13 E11.07654
G1 X127.132 Y107.936 E11.11445
G1 X126.12 Y108.448 E11.15217
G1 X125.002 Y108.628 E11.18984
G1 X123.882 Y108.449 E11.22756
G1 X122.869 Y107.937 E11.26531
G1 X122.066 Y107.131 E11.30315
G1 X121.552 Y106.12 E11.34087
G1 X121.372 Y105.002 E11.37854
G0 F3600 X121.403 Y104.805
G0 X120.714 Y104.695
G0 X119.91 Y104.998
G0 X119.203 Y105
G1 F1800 X119.488 Y106.79 E11.43882
G1 X120.309 Y108.404 E11.49905
G1 X121.593 Y109.69 E11.55949
G1 X123.21 Y110.512 E11.61983
G1 X125 Y110.797 E11.68011
G1 X126.79 Y110.512 E11.7404
G1 X128.407 Y109.69 E11.80073
G1 X129.691 Y108.404 E11.86117
G1 X130.512 Y106.79 E11.9214
G1 X130.769 Y105.17 E11.97595
G1 X130.797 Y105 E11.98168
G1 X130.512 Y103.21 E12.04197
G1 X129.691 Y101.595 E12.10223
G1 X128.407 Y100.31 E12.16265
G1 X126.79 Y99.488 E12.22298
G1 X125 Y99.203 E12.28326
G1 X123.21 Y99.488 E12.34355
G1 X121.593 Y100.31 E12.40388
G1 X120.308 Y101.595 E12.46432
G1 X119.488 Y103.21 E12.52457
G1 X119.203 Y105 E12.58485
G0 F3600 X119.234 Y105.197
G0 X120.039 Y104.997
;TYPE:SKIN
G1 F1457.5 X120.283 Y106.528 E12.64853
G1 F1460.4 X120.985 Y107.909 E12.71204
G1 X122.086 Y109.012 E12.77593
G1 F1457.5 X123.467 Y109.717 E12.83962
G1 X125 Y109.959 E12.90337
G1 X126.525 Y109.718 E12.96678
G1 X127.914 Y109.011 E13.03081
G1 F1460.4 X129.015 Y107.909 E13.09466
G1 F1463.4 X129.716 Y106.528 E13.15802
G1 F1466.4 X129.923 Y105.236 E13.21144
G1 F1451.6 X129.948 Y105.038 E13.21967
G1 F1442.9 X129.958 Y104.973 E13.2224
G1 F1454.5 X129.716 Y103.469 E13.2851
G1 F1460.4 X129.014 Y102.09 E13.34853
G1 F1457.5 X127.913 Y100.986 E13.41258
G1 F1463.4 X126.532 Y100.285 E13.47594
G1 F1460.4 X125.022 Y100.043 E13.53863
G1 F1448.7 X124.255 Y100.162 E13.5707
G1 F1440 X123.488 Y100.281 E13.60297
G1 F1442.9 X122.787 Y100.635 E13.63556
G1 F1454.5 X122.086 Y100.989 E13.66788
G1 F1460.4 X120.985 Y102.09 E13.73171
G1 X120.285 Y103.468 E13.79507
G1 F1457.5 X120.039 Y104.997 E13.85868
G0 F3600 X120.561 Y104.84
G1 F1463.4 X120.756 Y103.621 E13.90918
G1 F1460.4 X121.387 Y102.38 E13.96625
G1 X122.38 Y101.388 E14.02379
G1 F1466.4 X123.471 Y100.831 E14.0738
G1 F1463.4 X123.726 Y100.74 E14.08488
G1 X124.837 Y100.562 E14.13091
G1 F1469.4 X125.159 Y100.561 E14.14403
G1 X126.381 Y100.757 E14.19446
G1 X127.476 Y101.313 E14.24449
G1 F1466.4 X127.708 Y101.475 E14.25604
G1 F1460.4 X128.613 Y102.382 E14.30857
G1 X129.245 Y103.622 E14.36562
G1 F1466.4 X129.439 Y104.832 E14.41565
G1 F1472.4 X129.439 Y105.159 E14.42895
G1 F1466.4 X129.246 Y106.373 E14.47913
G1 F1463.4 X128.614 Y107.619 E14.53629
G1 F1460.4 X127.619 Y108.612 E14.59392
G1 F1466.4 X126.529 Y109.169 E14.64389
G1 F1469.4 X126.234 Y109.269 E14.65658
G1 F1463.4 X125.001 Y109.462 E14.70764
G1 F1460.4 X123.743 Y109.264 E14.75984
G1 F1466.4 X123.473 Y109.171 E14.7715
G1 X122.377 Y108.61 E14.82177
G1 F1460.4 X121.385 Y107.616 E14.87934
G1 X120.756 Y106.377 E14.9363
G1 F1466.4 X120.562 Y105.163 E14.98649
G1 F1469.4 X120.561 Y104.84 E14.99965
G0 F3600 X120.391 Y104.813
G1 F2100 E14.19965
;MESH:empty_standoff.stl(1)
G0 F3600 X120.489 Y108.277
G0 X119.723 Y109.044
G0 X120.701 Y111.922
G0 X121.194 Y112.887
G0 X118.59 Y118.24
G1 F2100 E14.99965
G0 F3600 X118.886 Y118.194
;TYPE:WALL-INNER
G1 F1800 X119.081 Y116.945 E15.04169
G1 X119.654 Y115.82 E15.08369
G1 X120.545 Y114.928 E15.12562
G1 X121.672 Y114.353 E15.1677
G1 X122.915 Y114.157 E15.20955
G1 X124.164 Y114.353 E15.2516
G1 X125.288 Y114.927 E15.29358
G1 X126.178 Y115.817 E15.33544
G1 X126.751 Y116.938 E15.37732
G1 X126.935 Y118.094 E15.41625
G1 X126.943 Y118.189 E15.41942
G1 X126.936 Y118.281 E15.42249
G1 X126.756 Y119.431 E15.4612
G1 X126.182 Y120.558 E15.50327
G1 X125.296 Y121.448 E15.54504
G1 X124.164 Y122.025 E15.5873
G1 X123.015 Y122.208 E15.626
G1 X122.826 Y122.208 E15.63228
G1 X121.673 Y122.026 E15.67111
G1 X120.548 Y121.455 E15.71307
G1 X119.654 Y120.559 E15.75517
G1 X119.081 Y119.434 E15.79716
G1 X118.886 Y118.194 E15.83891
G0 F3600 X118.59 Y118.24
G0 X117.525 Y118.19
G1 F1800 X117.79 Y119.855 E15.89498
G1 X118.554 Y121.356 E15.951
G1 X119.75 Y122.551 E16.00723
G1 X121.252 Y123.317 E16.06331
G1 X122.918 Y123.582 E16.11942
G1 X124.583 Y123.317 E16.17549
G1 X126.086 Y122.552 E16.23159
G1 X127.282 Y121.356 E16.28784
G1 X128.045 Y119.855 E16.34385
G1 X128.292 Y118.297 E16.39631
G1 X128.31 Y118.19 E16.39992
G1 X128.045 Y116.525 E16.456
G1 X127.281 Y115.023 E16.51204
G1 X126.086 Y113.828 E16.56825
G1 X124.583 Y113.062 E16.62436
G1 X122.918 Y112.798 E16.68043
G1 X121.252 Y113.062 E16.73653
G1 X119.75 Y113.829 E16.79263
G1 X118.554 Y115.023 E16.84884
G1 X117.79 Y116.525 E16.90488
G1 X117.525 Y118.19 E16.96096
G0 F3600 X117.12 Y118.19
;TYPE:WALL-OUTER
G1 F1800 X117.405 Y119.98 E17.02125
G1 X118.226 Y121.594 E17.08147
G1 X119.512 Y122.879 E17.14194
G1 X121.127 Y123.702 E17.20223
G1 X122.918 Y123.987 E17.26255
G1 X124.708 Y123.702 E17.32283
G1 X126.324 Y122.88 E17.38313
G1 X127.61 Y121.594 E17.44362
G1 X128.43 Y119.98 E17.50384
G1 X128.687 Y118.36 E17.55839
G1 X128.715 Y118.19 E17.56412
G1 X128.43 Y116.4 E17.62441
G1 X127.609 Y114.785 E17.68466
G1 X126.324 Y113.5 E17.74511
G1 X124.708 Y112.677 E17.80542
G1 X122.918 Y112.393 E17.8657
G1 X121.127 Y112.677 E17.92602
G1 X119.512 Y113.501 E17.98632
G1 X118.226 Y114.785 E18.04676
G1 X117.405 Y116.4 E18.10702
G1 X117.12 Y118.19 E18.16731
G0 F3600 X117.151 Y118.387
G0 X117.842 Y118.279
G0 X119.29 Y118.193
G1 F1800 X119.468 Y117.071 E18.20509
G1 X119.983 Y116.06 E18.24283
G1 X120.785 Y115.257 E18.28057
G1 X121.797 Y114.741 E18.31836
G1 X122.917 Y114.564 E18.35607
G1 X124.036 Y114.74 E18.39375
G1 X125.05 Y115.253 E18.43154
