;FLAVOR:Marlin
;TIME:8978
;Filament used: 7.4131m
;Layer height: 0.15
;MINX:77.358
;MINY:57.425
;MINZ:0.2
;MAXX:172.642
;MAXY:152.575
;MAXZ:6.35
;Generated with Cura_SteamEngine main
M82 ;absolute extrusion mode
G21 ; set units to millimeters
G90 ; use absolute positioning
M82 ; absolute extrusion mode
M104 S215.0 ; set extruder temp
M140 S60 ; set bed temp
M190 S60 ; wait for bed temp
M109 S215.0 ; wait for extruder temp
G28 W ; home all without mesh bed level
G80 ; mesh bed leveling
G92 E0.0 ; reset extruder distance position
G1 Y-3.0 F1000.0 ; go outside print area
G1 X60.0 E9.0 F1000.0 ; intro line
G1 X100.0 E21.5 F1000.0 ; intro line
G92 E0.0 ; reset extruder distance position
G92 E0
G92 E0
G1 F2100 E-0.8
;LAYER_COUNT:42
;LAYER:0
M107
G0 F3600 X88.484 Y74.4 Z0.2
G0 X84.766 Y79.54
;TYPE:SKIRT
G1 F2100 E0
G1 F1800 X85.185 Y78.837 E0.02722
G1 X85.746 Y78.058 E0.05915
G1 X88.002 Y75.028 E0.18479
G1 X88.484 Y74.4 E0.21112
G1 X89.162 Y73.66 E0.2445
G1 X91.715 Y70.955 E0.36822
G1 X92.29 Y70.363 E0.39567
G1 X93.034 Y69.719 E0.42839
G1 X95.905 Y67.31 E0.55305
G1 X96.523 Y66.806 E0.57957
G1 X97.354 Y66.241 E0.61299
G1 X100.459 Y64.199 E0.7366
G1 X101.165 Y63.749 E0.76444
G1 X102.03 Y63.298 E0.79689
G1 X105.339 Y61.637 E0.92003
G1 X106.099 Y61.269 E0.94812
G1 X107.069 Y60.898 E0.98266
G1 X110.54 Y59.635 E1.10551
G1 X111.422 Y59.329 E1.13656
G1 X114.7 Y58.503 E1.249
G1 X115.422 Y58.333 E1.27367
G1 X116.156 Y58.183 E1.29858
G1 X116.733 Y58.082 E1.31807
G1 X117.31 Y58 E1.33745
G1 X121.38 Y57.525 E1.47374
G1 X122.211 Y57.44 E1.50152
G1 X123.133 Y57.425 E1.53219
G1 X126.925 Y57.425 E1.65831
G1 X127.737 Y57.437 E1.68532
G1 X128.727 Y57.537 E1.71842
G1 X132.415 Y57.968 E1.84192
G1 X133.474 Y58.109 E1.87745
G1 X134.497 Y58.314 E1.91215
G1 X135.405 Y58.529 E1.94319
G1 X137.854 Y59.145 E2.02718
G1 X138.861 Y59.419 E2.06189
G1 X143.042 Y60.939 E2.20985
G1 X143.848 Y61.245 E2.23853
G1 X144.773 Y61.692 E2.2727
G1 X148.064 Y63.345 E2.39519
G1 X148.796 Y63.725 E2.42262
G1 X149.608 Y64.242 E2.45464
G1 X152.769 Y66.322 E2.58049
G1 X153.429 Y66.772 E2.60706
G1 X154.201 Y67.398 E2.64012
G1 X157.024 Y69.767 E2.76269
G1 X157.676 Y70.329 E2.79132
G1 X158.37 Y71.044 E2.82446
G1 X160.927 Y73.754 E2.94839
G1 X161.482 Y74.359 E2.97569
G1 X162.061 Y75.112 E3.00729
G1 X164.309 Y78.133 E3.13253
G1 X164.793 Y78.803 E3.16002
G1 X165.284 Y79.625 E3.19187
G1 X167.18 Y82.911 E3.31805
G1 X167.56 Y83.59 E3.34393
G1 X167.962 Y84.483 E3.3765
G1 X169.441 Y87.912 E3.50071
G1 X169.753 Y88.662 E3.52773
G1 X170.074 Y89.676 E3.5631
G1 X171.099 Y93.099 E3.68194
G1 X171.349 Y93.985 E3.71256
G1 X171.542 Y94.977 E3.74618
G1 X172.187 Y98.643 E3.86998
G1 X172.314 Y99.429 E3.89646
G1 X172.391 Y100.455 E3.93068
G1 X172.606 Y104.154 E4.05392
G1 X172.642 Y104.964 E4.08089
G1 X172.599 Y105.978 E4.11464
G1 X172.385 Y109.638 E4.23658
G1 X172.322 Y110.51 E4.26566
G1 X172.168 Y111.467 E4.2979
G1 X171.514 Y115.177 E4.4232
G1 X171.368 Y115.943 E4.44914
G1 X171.093 Y116.919 E4.48286
G1 X170.021 Y120.497 E4.60709
G1 X169.781 Y121.262 E4.63376
G1 X169.393 Y122.199 E4.66749
G1 X167.939 Y125.568 E4.78953
G1 X167.583 Y126.364 E4.81854
G1 X167.097 Y127.235 E4.85171
G1 X165.234 Y130.46 E4.97559
G1 X164.815 Y131.163 E5.00281
G1 X164.254 Y131.942 E5.03473
G1 X161.998 Y134.972 E5.16038
G1 X161.516 Y135.6 E5.18671
G1 X160.838 Y136.34 E5.22009
G1 X158.285 Y139.045 E5.3438
G1 X157.71 Y139.637 E5.37125
G1 X156.966 Y140.281 E5.40398
G1 X154.095 Y142.69 E5.52863
G1 X153.477 Y143.194 E5.55515
G1 X152.646 Y143.759 E5.58858
G1 X149.541 Y145.801 E5.71218
G1 X148.835 Y146.251 E5.74003
G1 X147.97 Y146.702 E5.77247
G1 X144.661 Y148.363 E5.89562
G1 X143.901 Y148.731 E5.9237
G1 X142.931 Y149.102 E5.95824
G1 X139.461 Y150.365 E6.08106
G1 X138.681 Y150.636 E6.10853
G1 X137.748 Y150.872 E6.14054
G1 X134.137 Y151.727 E6.26396
G1 X133.285 Y151.916 E6.29299
G1 X132.385 Y152.036 E6.32319
G1 X128.619 Y152.475 E6.44929
G1 X127.787 Y152.56 E6.47711
G1 X126.867 Y152.575 E6.50771
G1 X123.075 Y152.575 E6.63383
G1 X122.263 Y152.563 E6.66084
G1 X121.273 Y152.463 E6.69394
G1 X117.585 Y152.032 E6.81744
G1 X116.753 Y151.922 E6.84535
G1 X115.781 Y151.709 E6.87845
G1 X112.138 Y150.844 E7.00298
G1 X111.367 Y150.65 E7.02943
G1 X110.411 Y150.318 E7.06308
G1 X106.959 Y149.062 E7.18526
G1 X106.16 Y148.759 E7.21368
G1 X105.227 Y148.308 E7.24815
G1 X101.934 Y146.654 E7.37072
G1 X101.193 Y146.268 E7.39851
G1 X100.434 Y145.786 E7.42841
G1 X97.231 Y143.678 E7.55594
G1 X96.571 Y143.228 E7.58251
G1 X95.799 Y142.602 E7.61557
G1 X92.976 Y140.233 E7.73814
G1 X92.324 Y139.671 E7.76677
G1 X91.63 Y138.956 E7.79991
G1 X89.073 Y136.246 E7.92384
G1 X88.52 Y135.643 E7.95105
G1 X87.939 Y134.888 E7.98274
G1 X85.69 Y131.866 E8.10803
G1 X85.203 Y131.192 E8.13569
G1 X84.716 Y130.375 E8.16732
G1 X82.819 Y127.089 E8.29352
G1 X82.443 Y126.417 E8.31913
G1 X82.038 Y125.517 E8.35196
G1 X80.56 Y122.089 E8.47612
G1 X80.245 Y121.333 E8.50336
G1 X79.926 Y120.323 E8.53859
G1 X78.885 Y116.843 E8.6594
G1 X78.651 Y116.018 E8.68792
G1 X78.459 Y115.023 E8.72163
G1 X77.809 Y111.331 E8.84631
G1 X77.685 Y110.558 E8.87235
G1 X77.609 Y109.545 E8.90614
G1 X77.394 Y105.846 E9.02937
G1 X77.358 Y105.036 E9.05634
G1 X77.401 Y104.022 E9.0901
G1 X77.615 Y100.362 E9.21204
G1 X77.678 Y99.49 E9.24111
G1 X77.832 Y98.533 E9.27335
G1 X78.486 Y94.823 E9.39865
G1 X78.632 Y94.057 E9.42459
G1 X78.907 Y93.081 E9.45831
G1 X79.979 Y89.503 E9.58255
G1 X80.219 Y88.738 E9.60921
G1 X80.607 Y87.801 E9.64294
G1 X82.061 Y84.432 E9.76499
G1 X82.417 Y83.636 E9.79399
G1 X82.903 Y82.765 E9.82716
G1 X84.766 Y79.54 E9.95104
G1 F2100 E9.15104
;MESH:payload_ballast_lid.stl
G0 F3600 X84.715 Y84.698
G0 X85.652 Y85.239
G0 X81.629 Y104.47
G1 F2100 E9.95104
G0 F3600 X81.837 Y104.503
;TYPE:WALL-INNER
G1 F1431.4 X81.966 Y104.327 E9.96016
G1 F1726.6 X82.273 Y103.829 E9.98045
G1 F1800 X82.705 Y103.438 E9.99983
G1 X83.241 Y103.197 E10.01938
G1 X83.818 Y103.137 E10.03867
G1 X84.31 Y103.223 E10.05528
G1 X84.808 Y103.476 E10.07386
G1 X85.192 Y103.845 E10.09157
G1 X85.267 Y103.945 E10.09573
G1 X85.51 Y104.437 E10.11398
G1 X85.602 Y105 E10.13296
G1 X85.51 Y105.563 E10.15193
G1 X85.267 Y106.055 E10.17018
G1 X84.858 Y106.487 E10.18997
G1 X84.31 Y106.777 E10.21059
G1 X83.818 Y106.863 E10.2272
G1 X83.241 Y106.803 E10.2465
G1 X82.705 Y106.562 E10.26604
G1 X82.273 Y106.171 E10.28542
G1 F1659 X81.951 Y105.681 E10.30658
G1 F1376.7 X81.845 Y105.549 E10.31394
G1 F1276.6 X81.78 Y105.04 E10.33801
G1 F1283.4 X81.837 Y104.503 E10.3632
G0 F3600 X81.629 Y104.47
G0 X82.011 Y103.755
G0 X83.07 Y102.984
G0 X95.023 Y104.953
G0 X95.319 Y105
G1 F1800 X95.529 Y103.669 E10.40801
G1 X96.132 Y102.489 E10.45209
G1 X97.072 Y101.545 E10.4964
G1 X98.275 Y100.928 E10.54137
G1 X99.598 Y100.718 E10.58592
G1 X100.918 Y100.926 E10.63037
G1 X102.118 Y101.536 E10.67514
G1 X103.021 Y102.44 E10.71764
G1 X103.1 Y102.551 E10.72217
G1 X103.675 Y103.68 E10.76431
G1 X103.882 Y105.002 E10.80881
G1 X103.675 Y106.321 E10.85322
G1 X103.069 Y107.508 E10.89755
G1 X102.117 Y108.465 E10.94244
G1 X100.936 Y109.067 E10.98653
G1 X99.599 Y109.282 E11.03157
G1 X98.275 Y109.072 E11.07616
G1 X97.072 Y108.455 E11.12113
G1 X96.136 Y107.519 E11.16515
G1 X95.529 Y106.331 E11.20953
G1 X95.319 Y105 E11.25434
G0 F3600 X95.023 Y104.953
G0 X95.297 Y106.398
G0 X95.817 Y107.418
G0 X122.842 Y146.135
G0 X123.137 Y146.182
G1 F1800 X123.223 Y145.689 E11.27099
G1 X123.444 Y145.243 E11.28754
G1 X123.907 Y144.757 E11.30987
G1 X124.335 Y144.532 E11.32595
G1 X124.5 Y144.475 E11.33176
G1 X125.077 Y144.409 E11.35107
G1 X125.63 Y144.515 E11.3698
G1 X126.145 Y144.799 E11.38936
G1 X126.52 Y145.186 E11.40729
G1 X126.777 Y145.689 E11.42607
G1 X126.863 Y146.182 E11.44272
G1 X126.802 Y146.759 E11.46202
G1 X126.743 Y146.94 E11.46835
G1 X126.452 Y147.446 E11.48776
G1 F1647.6 X126.123 Y147.775 E11.50467
G1 F1403.5 X125.496 Y148.152 E11.53588
G1 F1345.8 X124.898 Y148.198 E11.56256
G1 X124.504 Y148.152 E11.5802
G1 F1403.5 X123.877 Y147.775 E11.61141
G1 F1647.6 X123.548 Y147.446 E11.62832
G1 F1800 X123.256 Y146.94 E11.64775
G1 X123.197 Y146.759 E11.65408
G1 X123.137 Y146.182 E11.67338
G0 F3600 X122.842 Y146.135
G0 X145.823 Y104.951
G0 X146.118 Y104.998
G1 F1800 X146.325 Y103.679 E11.71778
G1 X146.931 Y102.492 E11.76211
G1 X147.887 Y101.533 E11.80715
G1 X148.992 Y100.969 E11.84841
G1 X149.118 Y100.921 E11.85289
G1 X150.402 Y100.718 E11.89613
G1 X151.725 Y100.928 E11.94069
G1 X152.911 Y101.532 E11.98495
G1 X153.863 Y102.48 E12.02964
G1 X154.471 Y103.669 E12.07405
G1 X154.681 Y105 E12.11887
G1 X154.471 Y106.331 E12.16369
G1 X153.868 Y107.511 E12.20776
G1 X152.928 Y108.455 E12.25207
G1 X151.725 Y109.072 E12.29704
G1 X150.402 Y109.282 E12.34159
G1 X149.072 Y109.072 E12.38638
G1 X147.879 Y108.462 E12.43094
G1 X146.933 Y107.514 E12.47549
G1 X146.325 Y106.32 E12.52005
G1 X146.118 Y104.998 E12.56456
G0 F3600 X145.823 Y104.951
G0 X146.097 Y103.602
G0 X146.74 Y102.341
G0 X147.741 Y101.34
G0 X149.002 Y100.697
G0 X150.4 Y100.475
G0 X151.658 Y100.674
G0 X164.102 Y104.953
G0 X164.398 Y105
G1 F1800 X164.49 Y104.437 E12.58353
G1 X164.733 Y103.945 E12.60178
G1 X165.142 Y103.513 E12.62157
G1 X165.69 Y103.223 E12.64219
G1 X166.182 Y103.137 E12.6588
G1 X166.759 Y103.198 E12.6781
G1 X166.94 Y103.257 E12.68443
G1 X167.446 Y103.548 E12.70385
G1 X167.726 Y103.83 E12.71706
G1 F1726.6 X168.034 Y104.327 E12.73734
G1 F1431.4 X168.163 Y104.503 E12.74646
G1 F1285.7 X168.22 Y105.04 E12.77161
G1 F1281.1 X168.155 Y105.549 E12.79559
G1 F1382 X168.048 Y105.68 E12.80292
G1 F1659 X167.727 Y106.171 E12.82409
G1 F1800 X167.295 Y106.562 E12.84347
G1 X166.759 Y106.803 E12.86301
G1 X166.182 Y106.864 E12.88231
G1 X165.69 Y106.777 E12.89893
G1 X165.192 Y106.524 E12.91751
G1 X164.757 Y106.103 E12.93764
G1 X164.49 Y105.563 E12.95768
G1 X164.398 Y105 E12.97665
G0 F3600 X164.102 Y104.953
G0 X123.286 Y64.97
G0 X122.901 Y63.85
G0 X122.991 Y62.924
G0 X123.256 Y63.06
G1 F1800 X123.548 Y62.554 E12.99608
G1 F1647.6 X123.877 Y62.225 E13.01299
G1 F1403.5 X124.504 Y61.848 E13.0442
G1 F1345.8 X125.102 Y61.802 E13.07088
G1 X125.496 Y61.848 E13.08852
G1 F1403.5 X126.123 Y62.225 E13.11973
G1 F1647.6 X126.452 Y62.554 E13.13664
G1 F1800 X126.744 Y63.06 E13.15607
G1 X126.803 Y63.241 E13.1624
G1 X126.864 Y63.818 E13.1817
G1 X126.777 Y64.311 E13.19835
G1 X126.55 Y64.768 E13.21532
G1 X126.124 Y65.219 E13.23595
G1 X125.63 Y65.485 E13.25462
G1 X125 Y65.606 E13.27595
G1 X124.37 Y65.485 E13.29729
G1 X123.931 Y65.259 E13.31371
G1 X123.479 Y64.826 E13.33453
G1 X123.223 Y64.311 E13.35366
G1 X123.137 Y63.818 E13.3703
G1 X123.197 Y63.241 E13.3896
G1 X123.256 Y63.06 E13.39593
G0 F3600 X122.991 Y62.924
G0 X123.665 Y62.101
G0 X124.462 Y61.525
G0 X124.462 Y61.3
G1 F1490.7 X124.068 Y61.226 E13.41203
G1 F1743.3 X123.529 Y61.226 E13.43054
G1 F1764.7 X122.99 Y61.226 E13.44883
G1 F1791 X122.451 Y61.226 E13.46684
G1 F1800 X117.376 Y61.819 E13.63679
G1 X116.23 Y62.038 E13.67559
G1 X112.443 Y62.989 E13.80546
G1 X107.633 Y64.737 E13.97568
G1 X103.075 Y67.027 E14.14534
G1 X98.814 Y69.829 E14.31495
G1 X94.911 Y73.106 E14.48446
G1 X91.409 Y76.817 E14.65417
G1 X88.366 Y80.907 E14.82372
G1 X85.819 Y85.316 E14.99307
G1 X83.793 Y90.017 E15.16333
G1 X82.334 Y94.889 E15.33249
G1 X81.448 Y99.911 E15.5021
G1 F1795.5 X81.419 Y100.427 E15.51933
G1 F1786.6 X81.389 Y100.943 E15.53665
G1 F1777.8 X81.359 Y101.459 E15.55406
G1 F1769 X81.329 Y101.976 E15.57158
G1 F1760.4 X81.299 Y102.492 E15.58916
G1 F1751.8 X81.269 Y103.008 E15.60683
G1 F1743.3 X81.239 Y103.524 E15.62458
G1 F1734.9 X81.21 Y104.041 E15.64244
G1 F1457.5 X81.27 Y104.443 E15.65914
G1 F1281.1 X81.227 Y105.002 E15.68534
G1 F1276.6 X81.276 Y105.63 E15.71488
G1 F1475.4 X81.226 Y106.275 E15.74113
G1 F1800 X81.448 Y110.089 E15.8682
G1 X82.334 Y115.111 E16.03781
G1 X83.793 Y119.983 E16.20696
G1 X85.818 Y124.684 E16.37721
G1 X88.366 Y129.093 E16.54658
G1 X91.409 Y133.183 E16.71614
G1 X94.911 Y136.894 E16.88584
G1 X98.814 Y140.171 E17.05535
G1 X103.075 Y142.973 E17.22497
G1 X107.633 Y145.263 E17.39462
G1 X112.439 Y147.009 E17.56469
G1 X117.388 Y148.183 E17.73387
G1 X122.451 Y148.775 E17.90341
G1 F1791 X122.99 Y148.775 E17.92143
G1 F1764.7 X123.529 Y148.775 E17.93971
G1 F1743.3 X124.068 Y148.775 E17.95822
G1 F1490.7 X124.462 Y148.7 E17.97433
G1 F1350.8 X125 Y148.718 E17.99819
G1 X125.538 Y148.7 E18.02204
G1 F1490.7 X125.932 Y148.774 E18.03814
G1 F1743.3 X126.471 Y148.774 E18.05665
G1 F1764.7 X127.01 Y148.774 E18.07494
G1 F1791 X127.549 Y148.774 E18.09296
G1 F1800 X132.612 Y148.183 E18.2625
G1 X137.561 Y147.009 E18.43167
G1 X142.367 Y145.263 E18.60174
G1 X146.925 Y142.973 E18.7714
G1 X151.186 Y140.171 E18.94101
G1 X155.089 Y136.894 E19.11052
G1 X158.591 Y133.183 E19.28023
G1 X161.634 Y129.093 E19.44978
G1 X164.181 Y124.684 E19.61914
G1 X166.207 Y119.983 E19.78939
G1 X167.666 Y115.111 E19.95855
G1 X168.551 Y110.089 E20.12815
G1 X168.773 Y106.274 E20.25526
G1 F1478.4 X168.723 Y105.63 E20.28141
G1 F1281.1 X168.771 Y105.013 E20.31033
G1 F1283.4 X168.73 Y104.443 E20.33699
G1 F1457.5 X168.793 Y104.045 E20.35354
G1 F1734.9 X168.763 Y103.528 E20.37141
G1 F1743.3 X168.733 Y103.011 E20.3892
G1 F1751.8 X168.703 Y102.494 E20.40689
G1 F1760.4 X168.673 Y101.977 E20.42451
G1 F1769 X168.643 Y101.46 E20.44203
G1 F1777.8 X168.613 Y100.943 E20.45947
G1 F1786.6 X168.583 Y100.426 E20.47683
G1 F1795.5 X168.552 Y99.909 E20.4941
G1 F1800 X167.666 Y94.887 E20.66371
G1 X166.207 Y90.017 E20.8328
G1 X164.182 Y85.316 E21.00304
G1 X161.632 Y80.905 E21.1725
G1 X158.589 Y76.815 E21.34206
G1 X155.089 Y73.106 E21.51167
G1 X151.186 Y69.829 E21.68118
G1 X146.925 Y67.027 E21.8508
G1 X142.367 Y64.737 E22.02045
G1 X137.557 Y62.989 E22.19067
G1 X133.77 Y62.038 E22.32054
G1 X132.628 Y61.819 E22.35921
G1 X127.549 Y61.226 E22.52929
G1 F1791 X127.01 Y61.226 E22.54731
G1 F1764.7 X126.471 Y61.226 E22.56559
G1 F1743.3 X125.932 Y61.226 E22.5841
G1 F1490.7 X125.538 Y61.3 E22.6002
G1 F1350.8 X125 Y61.282 E22.62406
G1 X124.462 Y61.3 E22.64792
G0 F3600 X124.462 Y61.525
G0 X123.755 Y62.011
G0 X123.116 Y62.813
G0 X122.842 Y63.585
G0 X123.532 Y63.694
;TYPE:WALL-OUTER
G1 F1800 X123.612 Y63.242 E22.66318
G1 X123.794 Y62.887 E22.67645
G1 X124.162 Y62.519 E22.69376
G1 X124.578 Y62.318 E22.70913
G1 X125.031 Y62.257 E22.72433
G1 X125.422 Y62.318 E22.73749
G1 X125.838 Y62.519 E22.75286
G1 X126.169 Y62.837 E22.76813
G1 X126.388 Y63.242 E22.78344
G1 X126.468 Y63.694 E22.79871
G1 X126.399 Y64.181 E22.81507
G1 X126.179 Y64.602 E22.83087
G1 X125.846 Y64.926 E22.84632
G1 X125.454 Y65.124 E22.86093
G1 X125.015 Y65.195 E22.87572
G1 X124.561 Y65.129 E22.89098
G1 X124.146 Y64.921 E22.90641
G1 X123.821 Y64.602 E22.92156
G1 X123.601 Y64.181 E22.93736
G1 X123.532 Y63.694 E22.95372
G0 F3600 X123.566 Y63.498
G0 X122.873 Y63.388
G0 X122.984 Y64.38
G0 X145.832 Y104.891
G0 X146.522 Y105
G1 F1800 X146.712 Y103.807 E22.9939
G1 X147.262 Y102.721 E23.03439
G1 X148.116 Y101.869 E23.07451
G1 X149.174 Y101.325 E23.11408
G1 X149.199 Y101.314 E23.11499
G1 X150.4 Y101.122 E23.15544
G1 X151.584 Y101.309 E23.19531
G1 X152.672 Y101.86 E23.23587
G1 X153.536 Y102.718 E23.27637
G1 X154.089 Y103.8 E23.31679
G1 X154.278 Y105 E23.35719
G1 X154.085 Y106.202 E23.39768
G1 X153.539 Y107.273 E23.43766
G1 X152.672 Y108.14 E23.47844
G1 X151.598 Y108.687 E23.51853
G1 X150.401 Y108.878 E23.55885
G1 X149.216 Y108.691 E23.59875
G1 X148.13 Y108.141 E23.63924
G1 X147.263 Y107.28 E23.67988
G1 X146.716 Y106.205 E23.72
G1 X146.522 Y105 E23.76059
G0 F3600 X146.553 Y104.803
G0 X145.864 Y104.694
G0 X146.097 Y103.602
G0 X146.74 Y102.341
G0 X147.741 Y101.34
G0 X149.002 Y100.697
G0 X150.4 Y100.475
G0 X151.532 Y100.654
G0 X164.258 Y104.215
G0 X164.88 Y104.533
G1 F1800 X165.076 Y104.151 E23.77487
G1 X165.4 Y103.819 E23.7903
G1 X165.819 Y103.601 E23.80601
G1 X166.244 Y103.532 E23.82033
G1 X166.697 Y103.593 E23.83553
G1 X167.163 Y103.831 E23.85294
G1 X167.444 Y104.112 E23.86615
G1 X167.663 Y104.517 E23.88147
G1 X167.746 Y105.012 E23.89816
G1 X167.68 Y105.437 E23.91247
G1 X167.481 Y105.838 E23.92735
G1 X167.113 Y106.206 E23.94466
G1 X166.697 Y106.407 E23.96003
G1 X166.244 Y106.468 E23.97523
G1 X165.819 Y106.399 E23.98955
G1 X165.416 Y106.193 E24.00461
